!!!!SEGMENT: pl-wn--mus-iii-67-385--003_zelenski-wladyslaw--quatuour-op-61-intermezzo.krn
!!!cenid: 18xx:3732
!!!COM: Żeleński, Władysław
!!!COM-rismid: pe41024455
!!!CDT:
!!!CNT:
!!!OPR: Quatuour op. 61
!!!OTL: Intermezzo
!!!OMV: 003
!!!PDT: 1911
!!!AGN:
!!!SMS-siglum: PL-Wn
!!!SMS-shelfmark: Mus.III.67.385
!!!SMS-shelfwork: M
!!!SMS-variant:
!!!SMS-altvar:
!!!NIFC-rismid:
!!!URL-scan: https://polona.pl/item/quatuor-pour-piano-violon-alto-et-violoncelle-en-ut-mineur-op-61,NzAwMTkyNzE/4/#info:metadata
!!!ONB-nifc: UWAGA: części Kwartetu: 1. Allegro con brio, 2. Romanza, 3. Intermezzo, 4. Finale. Na podstawie partytury
!!!OMD: Allegretto.
!!!key: g
**kern	**kern	**dynam	**kern	**dynam	**kern	**dynam	**kern	**dynam
*	*	*	*group1	*	*group1	*	*group1	*
*part4	*part4	*part4	*part3	*part3	*part2	*part2	*part1	*part1
*staff5	*staff4	*	*staff3	*	*staff2	*	*staff1	*
*>A	*>A	*>A	*>A	*>A	*>A	*>A	*>A	*>A
*>[A,B,B1,B,B2,C]	*>[A,B,B1,B,B2,C]	*>[A,B,B1,B,B2,C]	*>[A,B,B1,B,B2,C]	*>[A,B,B1,B,B2,C]	*>[A,B,B1,B,B2,C]	*>[A,B,B1,B,B2,C]	*>[A,B,B1,B,B2,C]	*>[A,B,B1,B,B2,C]
*I"Piano.	*I"Piano.	*	*I"Violoncelle.	*	*I"Alto.	*	*I"Violon.	*
*Ipiano	*Ipiano	*	*Icello	*	*Iviola	*	*Ivioln	*
*ICklav	*ICklav	*	*ICstr	*	*ICstr	*	*ICstr	*
*clefF4	*clefG2	*	*clefF4	*	*clefC3	*	*clefG2	*
*kcancel	*kcancel	*	*kcancel	*	*kcancel	*	*kcancel	*
*k[b-e-]	*k[b-e-]	*	*k[b-e-]	*	*k[b-e-]	*	*k[b-e-]	*
*g:	*g:	*	*g:	*	*g:	*	*g:	*
*M3/4	*M3/4	*	*M3/4	*	*M3/4	*	*M3/4	*
*	*	*	*scale:75%	*	*scale:75%	*	*scale:75%	*
=1	=1	=1	=1	=1	=1	=1	=1	=1
!	!	!	!	!LO:DY:rj	!	!LO:DY:rj	!	!LO:DY:rj
4r	4r	.	4E- 4AA-X 4CC/	f	4e- 4A-X 4C/	f	4ee- 4e-/	f
(8E-\L	(8e-/L	f	4r	.	4r	.	4r	.
8C\	8c/	.	.	.	.	.	.	.
8E-\	8e-/	.	4r	.	4r	.	4r	.
8A-X\J	8a-X/J	.	.	.	.	.	.	.
=2	=2	=2	=2	=2	=2	=2	=2	=2
8.c\L)	8.cc/L)	.	4r	.	4r	.	4r	.
(16A-X\Jk	(16a-X/Jk	.	.	.	.	.	.	.
[2e-\)	[2ee-\)	.	4r	.	4r	.	4r	.
!	!	!	!LO:TX:a:t=pizz.	!	!LO:TX:a:t=pizz.	!	!LO:TX:a:t=pizz.	!
.	.	.	4C/	p	4E-/	p	4e- 4A-X/	p
=3	=3	=3	=3	=3	=3	=3	=3	=3
8e-\L]	8ee-\L]	.	4CC/	.	4e-\	.	4a-X 4A-X/	.
(16e-\L	(16ee-\L	p	.	.	.	.	.	.
16d\JJ	16dd\JJ	.	.	.	.	.	.	.
8c\L)	8cc/L)	.	4r	.	4r	.	4r	.
8B-'\	8b-'/	.	.	.	.	.	.	.
8A-X'\	8a-X'/	.	4r	.	4r	.	4r	.
8G'\J	8g'/J	.	.	.	.	.	.	.
=4	=4	=4	=4	=4	=4	=4	=4	=4
8.F'\L	8.f'/L	.	4r	.	4r	.	4r	.
(16D\K	(16d/K	.	.	.	.	.	.	.
8F\	8f/	.	4F#X 4AAn 4DD/	mf	4d 4c 4D/	mf	4dd 4f#X 4An/	mf
8An\J	8an/J	.	.	.	.	.	.	.
[4d\)	[4dd\)	.	4r	.	4r	.	4r	.
=5	=5	=5	=5	=5	=5	=5	=5	=5
8d\L]	8dd\L]	.	2.r	.	2.r	.	2.r	.
(8c#X\	(8cc#X\	<	.	.	.	.	.	.
8A-X\	8a-X\	.	.	.	.	.	.	.
8cn\	8ccn\	.	.	.	.	.	.	.
8Bn\	8bn\	.	.	.	.	.	.	.
8G\J	8g\J	.	.	.	.	.	.	.
=6	=6	=6	=6	=6	=6	=6	=6	=6
8Bn\)	8bn\)	[	2.r	.	2.r	.	2.r	.
8r	8r	.	.	.	.	.	.	.
!	!	!LO:HP:t=poco cresc.	!	!	!	!	!	!
(8G-X\L	(8g-X/L	<	.	.	.	.	.	.
8B-X\	8b-X/	.	.	.	.	.	.	.
8An\	8an/	.	.	.	.	.	.	.
8F\J	8f/J	.	.	.	.	.	.	.
!!LO:LB:g=original
=7	=7	=7	=7	=7	=7	=7	=7	=7
8A\L	8a/L	.	2.r	.	2.r	.	2.r	.
8Gn\	8gn/	.	.	.	.	.	.	.
8E-\	8e-/	.	.	.	.	.	.	.
8A\	8a/	.	.	.	.	.	.	.
8G\	8g/	.	.	.	.	.	.	.
8E-\J	8e-/J	.	.	.	.	.	.	.
=8	=8	=8	=8	=8	=8	=8	=8	=8
8.D/L)	8.d/L)	.	4r	.	4r	.	4r	.
(16C#X/Jk	(16c#X/Jk	.	.	.	.	.	.	.
[2AA/)	[2A/)	.	4AA/	p	4c#X\	p	4a/	p
.	.	.	4E-\	.	4c#\	.	4g/	.
=9	=9	=9	=9	=9	=9	=9	=9	=9
8AA/L]	8A/L]	.	4D\	.	4d\	.	4f#X/	.
(8DD/	(8d/	p	.	.	.	.	.	.
!	!	!	!LO:TX:a:t=arco	!	!LO:TX:a:t=arco	!	!LO:TX:a:t=arco	!
8AA/	8a/	.	[2DD^/	.	[2D^/	.	[2d^/	.
8D/	8dd/	.	.	.	.	.	.	.
8D/	8dd/	.	.	.	.	.	.	.
8A/J	8aa/J	.	.	.	.	.	.	.
=10	=10	=10	=10	=10	=10	=10	=10	=10
8B-\L)	8bb-\L)	.	8DD/]	.	8D/]	.	8d/]	.
(8D\	(8dd\	.	8r	.	8r	.	8r	.
8F#X\	8ff#X\	.	(8D/L	p >	(8d\L	p >	(4b-\	p >
8B-\	8bb-\)	.	8C/	.	8e-\	.	.	.
8D\	(8dd\	.	8BB-/	.	8d\	.	4f#X/	.
8F#\J	8ff#\J	.	8AA/J	.	8c\J	.	.	.
=11	=11	=11	=11	=11	=11	=11	=11	=11
8B-\)	8bb-\)	.	4GG/)	]	4B-/)	]	4g/)	]
8r	8r	.	.	.	.	.	.	.
!	!	!	!LO:TX:a:i:t=legg.	!	!	!	!LO:TX:a:i:t=legg.	!
(8G\L	(>8g/L	p	4GG'/	.	4r	/	4d 4G'/	.
8D\	8d/	.	.	.	.	.	.	.
8G\	8g/	.	4GG'/	.	4r	.	4d 4G'/	.
8B-\J	8b-/J	.	.	.	.	.	.	.
=12	=12	=12	=12	=12	=12	=12	=12	=12
8.c#X\L)	8.cc#X/L)	.	4GG/	.	(4E-^T/	.	4d 4G/	.
(16G\Jk	(16g/Jk	<	.	.	.	.	.	.
[2d\)	[2dd\)	[	4GG/	.	[2D/)	.	4d 4G/	.
.	.	.	4GG/	.	.	.	4d 4G/	.
=13	=13	=13	=13	=13	=13	=13	=13	=13
8d\]	8dd\]	.	4GG/	.	8D/]	.	4d 4G/	.
8r	8r	.	.	.	8r	.	.	.
(8B-\L	(8b-\L	<	4GG/	.	4r	.	4d 4G/	.
8f\	8ff\	.	.	.	.	.	.	.
8e-\	8ee-\	.	4GG/	.	4r	.	4d 4G/	.
8d\J	8dd\J	.	.	.	.	.	.	.
=14	=14	=14	=14	=14	=14	=14	=14	=14
8.c#X\L)	8.cc#X/L)	[	4GG/	.	(4E-^T/	.	4d 4G/	.
(16G\Jk	(16g/Jk	.	.	.	.	.	.	.
[2d\)	[2dd\)	.	4GG/	.	[2D/)	.	4d 4G/	.
.	.	.	4GG/	.	.	.	4d 4G/	.
!!LO:LB:g=original
=15	=15	=15	=15	=15	=15	=15	=15	=15
!	!	!LO:HP:t=poco cresc.	!	!	!	!	!	!
8d\]	8dd\]	<	4GG/	.	8D/]	.	4d 4G/	.
8r	8r	.	.	.	8r	.	.	.
(8cn\L	(8ccn/L	.	4r	.	4r	.	4r	.
8B-\	8b-/	.	.	.	.	.	.	.
8A\	8a/	.	4r	.	4r	.	4r	.
8G\J	8g/J	.	.	.	.	.	.	.
=16	=16	=16	=16	=16	=16	=16	=16	=16
4f\)	4ff\)	.	4r	.	4r	.	4r	.
(8e-\L	(8ee-\L	.	(8GG/L	p <	(8G/L	p <	(8G/L	p <
8B-\J	8b-\J	.	8AA/	.	8A/	.	8A/	.
[4d\	[4dd\	.	8BB-/	.	8B-/	.	8B-/	.
.	.	.	8C/J	.	8c/J	.	8c/J	.
=17	=17	=17	=17	=17	=17	=17	=17	=17
4d\])	4dd\])	.	4D\)	[	4d\)	[	4d/)	[
(8c\L	(8cc/L	.	(8E-\L	.	(8e-\L	.	(8e-/L	.
8B-\	8b-/	.	8D\	.	8d\	.	8d/	.
8A\	8a/	.	8C\	.	8c\	.	8c/	.
8G\J	8g/J	.	8D\J	.	8d\J	.	8d/J	.
=18	=18	=18	=18	=18	=18	=18	=18	=18
8f\L	8ff\L	<	8BB-/L	>	8B-/L	>	8B-/L	>
8e-\	8ee-\	.	8C/J	.	8c/J	.	8c/J	.
8B-\J)	8b-\)	.	8D\)	]	8d\)	]	8d/)	]
8r	(8dd\	.	8r	.	8r	.	8r	.
4r	8b-\	.	4r	.	4r	.	4r	.
.	8g\J	[	.	.	.	.	.	.
=19	=19	=19	=19	=19	=19	=19	=19	=19
*^	*^	*	*	*	*	*	*	*
*ped	*	*	*	*	*	*	*	*	*	*
!	!	!	!	!LO:DY:b=2	!	!	!	!	!LO:TX:a:B:t=26:rj	!
8ryy	16ryy	8e-/)	16e-\LL	f	4r	.	4r	.	4r	.
!	!	!	!	!LO:HP:b=2	!	!	!	!	!	!
.	[<8.F#X\	.	(16F#X</	<	.	.	.	.	.	.
[<8A-X\	.	8ryy	16A-X</	.	.	.	.	.	.	.
.	.	.	16B-</JJ	.	.	.	.	.	.	.
!	!	!LO:TX:t=P:problem:mixed beam	!	!	!	!	!	!	!	!
!	!	!LO:N:vis=2	!	!	!	!	!	!	!	!
[>2c 2A-_> 2F#\_	2ryy	16c</LL	4ryy	.	[2AA-X^/	sfz	[2c^\	sfz	[2f#X^/	sfz
.	.	16e-\	.	[	.	.	.	.	.	.
.	.	16b-\	.	.	.	.	.	.	.	.
.	.	16ee-\JJ	.	.	.	.	.	.	.	.
*Xped	*	*	*	*	*	*	*	*	*	*
.	.	[4bb- [4b-\)	4ryy	.	.	.	.	.	.	.
*v	*v	*	*	*	*	*	*	*	*	*
=20	=20	=20	=20	=20	=20	=20	=20	=20	=20
!	!	!	!LO:DY:b=2	!	!	!	!	!	!
8c] 8A-] 8F#\]	16bb-]LL 16b-\]	16ryy	p	8AA-/]	.	8c\]	.	8f#/]	.
.	(16aan\	8.aan/	.	.	.	.	.	.	.
8r	16ff#X\	.	.	8r	.	8r	.	8r	.
.	16ee-\JJ	.	.	.	.	.	.	.	.
!LO:TX:t=P:problem:mixed beam	!	!	!	!LO:TX:a:t=pizz.	!	!LO:TX:a:t=pizz.	!	!LO:TX:a:t=pizz.	!
16an>\LL	8an/	2ryy	.	4DD/	p	4c\	p	4f#X/	p
16f#X/	.	.	.	.	.	.	.	.	.
16e-/	8ryy	.	.	.	.	.	.	.	.
16c/JJ	.	.	.	.	.	.	.	.	.
8B-\	8gg 8dd 8g\)	.	.	4GG/	.	4B-/	.	4g/	.
8r	8r	.	.	.	.	.	.	.	.
*	*v	*v	*	*	*	*	*	*	*
!!LO:PB:g=original
=21	=21	=21	=21	=21	=21	=21	=21	=21
*^	*	*	*	*	*	*	*	*
*ped	*	*	*	*	*	*	*	*	*
!	!	!	!LO:DY:b=2	!LO:TX:a:t=arco	!	!LO:TX:a:t=arco	!	!LO:TX:a:t=arco	!LO:DY:rj
8ryy	16r	16ryy	f	[2.AA-X^/	sfz	[2.c^\	sfz	[2.f#X^/	sfz
!	!	!	!LO:HP:b=2	!	!	!	!	!	!
.	[8.F#X\	(16F#X</LL	<	.	.	.	.	.	.
[8A-X\	.	16A-X</	.	.	.	.	.	.	.
.	.	16B-</JJ	.	.	.	.	.	.	.
!	!	!LO:N:vis=2	!	!	!	!	!	!	!
!	!	!LO:TX:t=P:problem:mixed beam	!	!	!	!	!	!	!
[>2c 2A-_ 2F#\_	4ryy	16c</LL	.	.	.	.	.	.	.
.	.	16e-\	.	.	.	.	.	.	.
.	.	16b-\	.	.	.	.	.	.	.
.	.	16ee-\JJ	.	.	.	.	.	.	.
*Xped	*	*	*	*	*	*	*	*	*
.	4ryy	[4bb- [4b-\)	[[	.	.	.	.	.	.
*v	*v	*	*	*	*	*	*	*	*
=22	=22	=22	=22	=22	=22	=22	=22	=22
*	*^	*	*	*	*	*	*	*
8c] 8A-] 8F#\]	16bb-]LL 16b-\]	16ryy	.	8AA-/]	.	8c\]	.	8f#/]	.
.	(16aan\	8.aan/	p	.	.	.	.	.	.
8r	16ff#X\	.	.	8r	.	8r	.	8r	.
.	16ee-\JJ	.	.	.	.	.	.	.	.
!LO:TX:t=P:problem:mixed beam	!	!	!	!LO:TX:a:t=pizz.	!	!LO:TX:a:t=pizz.	!	!LO:TX:a:t=pizz.	!
16an>\LL	8an/	2ryy	.	4DD/	p	4c\	p	4f#X/	p
16f#X/	.	.	.	.	.	.	.	.	.
16e-/	8ryy	.	.	.	.	.	.	.	.
16c/JJ	.	.	.	.	.	.	.	.	.
8B-\	8gg 8dd 8g\)	.	.	4GG/	.	4B-/	.	4g/	.
8r	8r	.	.	.	.	.	.	.	.
*clefG2	*	*	*	*	*	*	*	*	*
=23	=23	=23	=23	=23	=23	=23	=23	=23	=23
*^	*	*	*	*	*	*	*	*	*
*ped	*	*	*	*	*	*	*	*	*	*
!	!	!	!	!LO:DY:b=2	!LO:TX:a:t=arco	!	!LO:TX:a:t=arco	!	!LO:TX:a:t=arco	!
8ryy	16r	4r	16ryy	f	[2.D-X^\	sfz	[2.Bn^/	sfz	[2.fn^/	sfz
!	!	!	!	!LO:HP:b=2	!	!	!	!	!	!
.	[8.Bn\	.	(16Bn</LL	<	.	.	.	.	.	.
[<8d-X\	.	.	16d-X</	.	.	.	.	.	.	.
.	.	.	16e-</JJ	.	.	.	.	.	.	.
!	!	!LO:N:vis=2	!	!	!	!	!	!	!	!
!	!	!LO:TX:t=P:problem:mixed beam	!	!	!	!	!	!	!	!
[2f 2d-_ 2B/_	2ryy	16f</LL	2ryy	.	.	.	.	.	.	.
.	.	16a-X\	.	.	.	.	.	.	.	.
.	.	16ee-\	.	.	.	.	.	.	.	.
.	.	16aa-X\JJ	.	.	.	.	.	.	.	.
.	.	[4eee- [4ee-\)	.	.	.	.	.	.	.	.
*v	*v	*	*	*	*	*	*	*	*	*
=24	=24	=24	=24	=24	=24	=24	=24	=24	=24
*Xped	*	*	*	*	*	*	*	*	*
8f] 8d-] 8B/]	16eee-]LL 16ee-\]	16ryy	[	8D-\]	.	8B/]	.	8f/]	.
.	(16dddn\	8ddd/	p	.	.	.	.	.	.
8ryy	16bbn\	.	.	8r	.	8r	.	8r	.
.	16aa-X\JJ	16ryy	.	.	.	.	.	.	.
!LO:TX:t=P:problem:mixed beam	!	!	!	!LO:TX:a:t=pizz.	!	!LO:TX:a:t=pizz.	!	!LO:TX:a:t=pizz.	!
16dd>\LL	8dd/	2ryy	.	4GG/	p	4Bn/	p	4f/	p
16bn/	.	.	.	.	.	.	.	.	.
16a-X/	8ryy	.	.	.	.	.	.	.	.
16f/JJ	.	.	.	.	.	.	.	.	.
8e-/	8ccc 8gg 8cc\)	.	.	4C/	.	4c\	.	4e-/	.
8r	8r	.	.	.	.	.	.	.	.
*	*v	*v	*	*	*	*	*	*	*
!!LO:LB:g=original
=25	=25	=25	=25	=25	=25	=25	=25	=25
16r>	4ryy	.	4C/	.	4e-\	.	4f#X/	.
!	!LO:TX:a:i:t=legg.	!	!	!	!	!	!	!
(<16bb->\LL	.	.	.	.	.	.	.	.
16ff#X>\	.	.	.	.	.	.	.	.
16ee->\JJ	.	.	.	.	.	.	.	.
!LO:TX:t=P:problem:mixed beam	!	!	!	!	!	!	!	!
16b->\LL	8b-/	.	4r	.	4r	.	4r	.
16f#X/	.	.	.	.	.	.	.	.
16e-/	8ryy	.	.	.	.	.	.	.
16d-X/JJ	.	.	.	.	.	.	.	.
8c/)	8aa 8ee- 8a'\	.	4FF#X/	.	4e-\	.	4a/	.
8r	8r	.	.	.	.	.	.	.
=26	=26	=26	=26	=26	=26	=26	=26	=26
*	*^	*	*	*	*	*	*	*
16r	8ddd 8gg 8dd\	16ryy	.	4BB-/	.	4d\	.	4dd\	.
8.B-\	.	(16B-</LL	.	.	.	.	.	.	.
.	8r	16d</	.	.	.	.	.	.	.
.	.	16f#X</JJ	.	.	.	.	.	.	.
4ryy	16b-</LL	4ryy	.	4GG/	.	4d\	.	4b-\	.
.	16gg\	.	.	.	.	.	.	.	.
.	16dd\	.	.	.	.	.	.	.	.
.	16b-\JJ	.	.	.	.	.	.	.	.
4e- 4c'/	4ee-/	8bb-L 8b-\)	.	4C/	.	4e-\	.	4g/	.
.	.	8aaJ 8a'>\	.	.	.	.	.	.	.
=27	=27	=27	=27	=27	=27	=27	=27	=27	=27
16r	8ddd 8gg 8dd\	16ryy	.	4BB-/	.	4d\	.	4dd\	.
8.B-\	.	(16B-</LL	.	.	.	.	.	.	.
.	8r	16d</	.	.	.	.	.	.	.
.	.	16f#X</JJ	.	.	.	.	.	.	.
!	!LO:TX:t=P:problem:mixed beam	!	!	!	!	!	!	!	!
4ryy	16b-</LL	4ryy	.	4r	.	4r	.	4r	.
.	16gg\	.	.	.	.	.	.	.	.
.	16dd\	.	.	.	.	.	.	.	.
.	16b-\JJ	.	.	.	.	.	.	.	.
*clefF4	*	*	*	*	*	*	*	*	*
4B- 4C#X'\	[<4b-/	8ffnL 8fn\)	.	4C#X/	.	4e-\	.	4g/	.
.	.	8ee-J 8e-'>\	.	.	.	.	.	.	.
=28	=28	=28	=28	=28	=28	=28	=28	=28	=28
16r	8dd 8b-] 8d'</	16ryy	.	4D\	.	4d\	.	4b-\	.
*ped	*	*	*	*	*	*	*	*	*
8.D\	.	(<16D</LL	<	.	.	.	.	.	.
.	8r	16G</	.	.	.	.	.	.	.
.	.	16B-</JJ	.	.	.	.	.	.	.
!	!LO:TX:t=P:problem:mixed beam	!	!	!	!	!	!	!	!
2ryy	16c#X</LL	2ryy	.	4r	.	4r	.	4r	.
.	16dd\	.	.	.	.	.	.	.	.
.	16b-\	.	.	.	.	.	.	.	.
.	16g\JJ	.	.	.	.	.	.	.	.
.	16d/LL)	.	.	4r	.	4r	.	4r	.
.	(>16d/	.	[	.	.	.	.	.	.
.	16B-/	.	.	.	.	.	.	.	.
.	16G/JJ	.	.	.	.	.	.	.	.
!!LO:LB:g=original
=29	=29	=29	=29	=29	=29	=29	=29	=29	=29
2ryy	16D</)	16D<\LL	.	4r	.	4r	.	4r	.
.	16ryy	16DD<\	.	.	.	.	.	.	.
.	8ryy	16GG<\	>	.	.	.	.	.	.
.	.	16BB-<\JJ	.	.	.	.	.	.	.
!	!LO:TX:t=P:problem:mixed beam	!	!	!	!	!	!	!	!
.	16D</LL	2ryy	.	4r	.	4r	.	4r	.
.	16G\	.	.	.	.	.	.	.	.
.	16B-\	.	.	.	.	.	.	.	.
.	16e-\JJ	.	.	.	.	.	.	.	.
*Xped	*	*	*	*	*	*	*	*	*
!	!LO:S:s=2:note:problem:note-level slur	!	!	!	!	!	!	!	!
([4D 4DD/	(4f#X (4c (4F#X/	.	.	4D\	.	4c\	.	4f#X/	.
*	*v	*v	*	*	*	*	*	*	*
=30	=30	=30	=30	=30	=30	=30	=30	=30
8D] 8GG/)	8g) 8B-) 8G/)	]	4GG/	.	4B-/	.	4g/	.
8r	8r	.	.	.	.	.	.	.
4GGG'/	4r	.	4r	.	4r	.	4r	.
!	!	!	!	!	!	!	!LO:TX:a:t=arco	!
4r	4r	.	4r	.	4r	.	[4d^/	.
=31	=31	=31	=31	=31	=31	=31	=31	=31
!LO:TX:b:i:t=con Ped.	!	!	!	!	!	!	!LO:TX:a:B:t=27:rj	!
4BB- 4BBB-/	8r	.	2.r	.	2.r	.	4d/]	.
!	!LO:TX:a:i:t=legg.	!	!	!	!	!	!	!
.	(16dLL 16B-/	.	.	.	.	.	.	.
.	16F/JJ	.	.	.	.	.	.	.
!	!	!	!	!	!	!	!LO:TX:b:i:t=espr.	!
8r	8f 8d 8B-/)	.	.	.	.	.	[2d/	.
8F'\	8r	.	.	.	.	.	.	.
4d 4B-\	4ff 4dd 4b- 4f\	.	.	.	.	.	.	.
=32	=32	=32	=32	=32	=32	=32	=32	=32
4BB- 4BBB-/	8r	.	2.r	.	2.r	.	4d/]	.
.	(16dLL 16B-/	.	.	.	.	.	.	.
.	16F/JJ	.	.	.	.	.	.	.
8r	8f 8d 8B-/)	.	.	.	.	.	8c/L	.
8F'\	8r	.	.	.	.	.	8B-/J	.
4d 4B-\	4ff 4dd 4b- 4f\	.	.	.	.	.	4f/	.
=33	=33	=33	=33	=33	=33	=33	=33	=33
!	!	!LO:HP:t=poco cresc.	!	!	!	!	!	!
4BB- 4BBB-/	8r	<	2.r	.	2.r	.	(8g/L	.
.	(16e-LL 16B-/	.	.	.	.	.	8a/J	.
.	16G/JJ	.	.	.	.	.	.	.
8r	8g 8e- 8B-/)	.	.	.	.	.	4.b-\)	<
8G'\	8r	.	.	.	.	.	.	.
4e- 4B-\	4gg 4ee- 4b- 4g\	.	.	.	.	.	.	.
.	.	.	.	.	.	.	8a/	[[
=34	=34	=34	=34	=34	=34	=34	=34	=34
4BB- 4BBB-/	8r	.	2.r	.	2.r	.	4g/	.
.	(16gLL 16e-/	.	.	.	.	.	.	.
.	16G/JJ	.	.	.	.	.	.	.
8r	8f 8d 8B-/)	.	.	.	.	.	(4d/	<
8F'\	8r	.	.	.	.	.	.	.
4d 4B-\	4ff 4dd 4b- 4f\	.	.	.	.	.	4f/)	.
!!LO:PB:g=original
=35	=35	=35	=35	=35	=35	=35	=35	=35
4BB- 4BBB-/	8r	.	2.r	.	2.r	.	(8g/L	.
.	(16gLL 16e- 16B-/	.	.	.	.	.	8a/J	.
.	16G/JJ	.	.	.	.	.	.	.
8r	8g 8e- 8B-/)	.	.	.	.	.	4.b-\)	.
8G'\	8r	.	.	.	.	.	.	.
4e- 4B-\	4gg 4ee- 4b- 4g\	.	.	.	.	.	.	.
.	.	.	.	.	.	.	8a/	.
=36	=36	=36	=36	=36	=36	=36	=36	=36
4BB- 4BBB-/	8r	.	2.r	.	4r	.	(4g/	.
.	(16gLL 16e-/	.	.	.	.	.	.	.
.	16G/JJ	.	.	.	.	.	.	.
!	!	!	!	!	!LO:TX:a:t=arco	!	!	!
8r	8f 8d 8B-/)	.	.	.	8B-/L	.	4d/)	.
8F'\	8r	.	.	.	8c/J	.	.	.
4d 4B-\	4ff 4dd 4b- 4f\	.	.	.	[4d\	<	8f/L	.
.	.	.	.	.	.	.	8g/J	.
=37	=37	=37	=37	=37	=37	=37	=37	=37
4BB- 4BBB-/	8r	.	2.r	.	4d\]	[	4.a/	.
.	(16dLL 16B-/	.	.	.	.	.	.	.
.	16F/JJ	.	.	.	.	.	.	.
8r	8f 8d 8B-/)	.	.	.	8c/L	.	.	.
8F'\	8r	.	.	.	8B-/J	.	8g/	.
4d 4B-\	4ff 4dd 4b- 4f\	.	.	.	[4d\	.	8f/L	.
.	.	.	.	.	.	.	8g/J	.
=38	=38	=38	=38	=38	=38	=38	=38	=38
4BB- 4BBB-/	8r	.	2.r	.	4d\]	.	4f/	.
.	(16fLL 16B-/	.	.	.	.	.	.	.
.	16G/JJ	.	.	.	.	.	.	.
8r	8en 8B-/)	.	.	.	8c/L	<	(4en/	.
8G'\	8r	.	.	.	8G/J	.	.	.
4c\	4ee-X 4a 4e-X/	.	.	.	[4A/	.	4e-X/	.
=39	=39	=39	=39	=39	=39	=39	=39	=39
4BB- 4BBB-/	8r	.	2.r	.	4A/]	.	2d/)	.
.	(16dLL 16A/	.	.	.	.	.	.	.
.	16F/JJ	.	.	.	.	.	.	.
8r	8d 8B-/)	.	.	.	(8G/L	.	.	.
8G'\	8r	.	.	.	8B-/J	.	.	.
4A\	4cc 4f 4c/	.	.	.	[4A/	.	4c/	.
=40	=40	=40	=40	=40	=40	=40	=40	=40
4BB- 4BBB-/	8r	.	2.r	.	4.A/])	.	4f/	.
.	(16fLL 16c/	.	.	.	.	.	.	.
.	16F/JJ	.	.	.	.	.	.	.
8r	8f 8c/)	.	.	.	.	.	4c/	>
8G'\	8r	.	.	.	(8B-/	>	.	.
!	!LO:S:s=2:note:problem:note-level slur	!	!	!	!	!	!	!
4c\	(4ee- (4a (4e-/	.	.	.	8A/L	.	(4e-/	.
.	.	.	.	.	8G/J	]]	.	]
!!LO:LB:g=original
=41	=41	=41	=41	=41	=41	=41	=41	=41
12BB-L 12BBB-/	4dd) 4b-) 4d/)	.	4r	.	4F/)	.	4d/)	.
!	!	!LO:DY:b=2	!	!	!	!	!	!
12BB-/	.	p	.	.	.	.	.	.
12F/J	.	.	.	.	.	.	.	.
*	*	*	*clefC4	*	*	*	*	*
!	!	!	!LO:TX:a:t=arco	!	!	!	!	!
!LO:TX:t=P:problem:mixed beam	!	!	!LO:TX:b:i:t=espr.	!	!	!	!	!
12B-/L	4ryy	.	[2d^\	.	4r	.	4r	.
12d>\	.	.	.	.	.	.	.	.
12f>\J	.	.	.	.	.	.	.	.
12b->\L	8dd/	.	.	.	4r	.	4r	.
12f>\	.	.	.	.	.	.	.	.
.	8ryy	.	.	.	.	.	.	.
12d>\J	.	.	.	.	.	.	.	.
=42	=42	=42	=42	=42	=42	=42	=42	=42
*Xtuplet	*	*	*	*	*	*	*	*
12BBB-/L	2ryy	.	4d\]	.	2.r	.	4r	.
12BB-/	.	.	.	.	.	.	.	.
12F/J	.	.	.	.	.	.	.	.
!LO:TX:t=P:problem:mixed beam	!	!	!	!	!	!	!	!
12B-/L	.	.	8c\L	.	.	.	4r	.
12d>\	.	.	.	.	.	.	.	.
.	.	.	8B-\J	.	.	.	.	.
12f>\J	.	.	.	.	.	.	.	.
12b->\L	8dd/	.	4f\	.	.	.	4ff\	.
12f>\	.	.	.	.	.	.	.	.
.	8ryy	.	.	.	.	.	.	.
12d>\J	.	.	.	.	.	.	.	.
=43	=43	=43	=43	=43	=43	=43	=43	=43
!	!	!	!	!	!	!	!LO:TX:b:i:t=espr.	!
12BBB-/L	2ryy	.	8g\L	<	4r	.	(8gg\L	<
12BB-/	.	.	.	.	.	.	.	.
.	.	.	8a\J	.	.	.	8aa\J	.
12G/J	.	.	.	.	.	.	.	.
!LO:TX:t=P:problem:mixed beam	!	!	!	!	!	!	!	!
12e-/L	.	.	4.b-\	.	(8G/L	<	4.bb-\)	.
12g>\	.	.	.	.	.	.	.	.
.	.	.	.	.	8A/	.	.	.
12b->\J	.	.	.	.	.	.	.	.
12ee->\L	8gg/	.	.	.	8B-/	.	.	.
12b->\	.	.	.	.	.	.	.	.
.	8ryy	.	8a\	[[	8c/J	.	8aa\	[[
12g>\J	.	.	.	.	.	.	.	.
=44	=44	=44	=44	=44	=44	=44	=44	=44
12BBB-/L	2ryy	.	4g\	.	8d\L	.	4gg\	.
12BB-/	.	.	.	.	.	.	.	.
.	.	.	.	.	8c\J	.	.	.
12F/J	.	.	.	.	.	.	.	.
!LO:TX:t=P:problem:mixed beam	!	!	!	!	!	!	!	!
12d/L	.	.	4d\	.	4B-/)	[	4dd\	.
12f>\	.	.	.	.	.	.	.	.
12b->\J	.	.	.	.	.	.	.	.
12dd>\L	8ff/	.	[4f\	.	4r	.	([4ff\	.
12b->\	.	.	.	.	.	.	.	.
.	8ryy	.	.	.	.	.	.	.
12f>\J	.	.	.	.	.	.	.	.
=45	=45	=45	=45	=45	=45	=45	=45	=45
12BBB-/L	2ryy	.	8f\L]	.	4r	.	8ff\L]	.
12BB-/	.	.	.	.	.	.	.	.
.	.	.	8g\J	.	.	.	8gg\J	.
12F/J	.	.	.	.	.	.	.	.
!LO:TX:t=P:problem:mixed beam	!	!	!	!	!	!	!	!
12d/L	.	.	4.a\	.	(8F/L	<	4.aa\)	.
12f>\	.	.	.	.	.	.	.	.
.	.	.	.	.	8G/	.	.	.
12a>\J	.	.	.	.	.	.	.	.
12dd>\L	8ff/	.	.	.	8A/	.	.	.
12a>\	.	.	.	.	.	.	.	.
.	8ryy	.	8g\	.	8B-/J	.	8gg\	.
12f>\J	.	.	.	.	.	.	.	.
!!LO:LB:g=original
=46	=46	=46	=46	=46	=46	=46	=46	=46
12BBB-/L	2ryy	.	4f\	.	8c/L	.	4ff\	.
12BB-/	.	.	.	.	.	.	.	.
.	.	.	.	.	8B-/J	.	.	.
12F/J	.	.	.	.	.	.	.	.
!LO:TX:t=P:problem:mixed beam	!	!	!	!	!	!	!	!
12c/L	.	.	4c\	.	4A/)	[	(4cc\	.
12e->\	.	.	.	.	.	.	.	.
12a>\J	.	.	.	.	.	.	.	.
12cc>\L	8ee-/	.	[4e-\	.	4r	.	[4ee-\	.
12a>\	.	.	.	.	.	.	.	.
.	8ryy	.	.	.	.	.	.	.
12e->\J	.	.	.	.	.	.	.	.
=47	=47	=47	=47	=47	=47	=47	=47	=47
12BBB-/L	2ryy	.	8e-\L]	.	4r	.	8ee-\L]	.
12BB-/	.	.	.	.	.	.	.	.
.	.	.	8f\J	.	.	.	8ff\J)	.
12E-/J	.	.	.	.	.	.	.	.
!LO:TX:t=P:problem:mixed beam	!	!	!	!	!	!	!	!
12B-/L	.	.	4.g\	.	(8E-/L	<	4.gg\	.
12e->\	.	.	.	.	.	.	.	.
.	.	.	.	.	8F/	.	.	.
12g>\J	.	.	.	.	.	.	.	.
12b->\L	8ee-/	.	.	.	8G/	.	.	.
12g>\	.	.	.	.	.	.	.	.
.	8ryy	.	8f\	.	8A/J	.	8ff\	.
12e->\J	.	.	.	.	.	.	.	.
=48	=48	=48	=48	=48	=48	=48	=48	=48
12EEE-/L	2ryy	.	4e-\	.	8B-/L	.	4ee-\	.
12BB-/	.	.	.	.	.	.	.	.
.	.	.	.	.	8A-X/J	.	.	.
12E-/J	.	.	.	.	.	.	.	.
!LO:TX:t=P:problem:mixed beam	!	!	!	!	!	!	!	!
12B-/L	.	.	4B-\	.	4G/)	[	4b-\	.
12d-X>\	.	.	.	.	.	.	.	.
12e->\J	.	.	.	.	.	.	.	.
12g>\L	8dd-X/	.	4d-X\	.	8F/L	.	4dd-X\	.
12e->\	.	.	.	.	.	.	.	.
.	8ryy	.	.	.	8G/J	.	.	.
12d->\J	.	.	.	.	.	.	.	.
=49	=49	=49	=49	=49	=49	=49	=49	=49
12AAA-X/L	2ryy	.	8c\L	.	[2.E-/	.	8cc\L	.
12AA-X/	.	.	.	.	.	.	.	.
.	.	.	8B-\J	.	.	.	8b-\J	.
12E-/J	.	.	.	.	.	.	.	.
!LO:TX:t=P:problem:mixed beam	!	!	!	!	!	!	!	!
12A-X/L	.	.	4A-X\	.	.	.	4a-X/	.
12c>\	.	.	.	.	.	.	.	.
12e->\J	.	.	.	.	.	.	.	.
!LO:TX:t=P:problem:mixed beam	!	!	!	!	!	!	!	!
12a-X>\L	8cc/	.	8A-\L	.	.	.	8a-/L	.
12A-/	.	.	.	.	.	.	.	.
.	8ryy	.	8B-\J	.	.	.	8b-/J	.
12e-/J	.	.	.	.	.	.	.	.
=50	=50	=50	=50	=50	=50	=50	=50	=50
*	*Xtuplet	*	*	*	*	*	*	*
!	!LO:TX:t=P:problem:mixed beam	!	!	!	!	!	!	!
4ryy	12a-X</L	.	8c\L	.	8E-/]	.	8cc\L	.
.	12cc\	.	.	.	.	.	.	.
.	.	.	8e-\J	.	8r	.	8ee-\J	.
.	12ee-\J	.	.	.	.	.	.	.
!LO:TX:t=P:problem:mixed beam	!	!	!	!	!	!	!	!
12aa-X>\L	8ccc/	.	4dn\	.	4r	.	4ddn\	.
*clefG2	*	*	*	*	*	*	*	*
12a-X/	.	.	.	.	.	.	.	.
.	8ryy	.	.	.	.	.	.	.
12ee-/J	.	.	.	.	.	.	.	.
!	!LO:TX:t=P:problem:mixed beam	!	!	!	!	!	!	!
4ryy	12aa-X</L	.	8d\L	.	[4A-X/	.	(8dd\L	.
*	*8va	*	*	*	*	*	*	*
.	12ccc\	.	.	.	.	.	.	.
.	.	.	8c\J	.	.	.	8cc\J	.
.	12eee-\J	.	.	.	.	.	.	.
*clefF4	*	*	*	*	*	*	*	*
!!LO:PB:g=original
=51	=51	=51	=51	=51	=51	=51	=51	=51
!	!	!	!	!	!	!	!LO:TX:a:B:t=28	!
4r	8cccc 8aaa-X\	.	[4e-\	.	8A-/L]	.	[4ee-\)	.
*	*X8va	*	*	*	*	*	*	*
.	8r	.	.	.	8B-/J	.	.	.
16r	4r	.	8e-\]	.	8c\	.	8ee-\]	.
16CC/LL	.	ff	.	.	.	.	.	.
16EE-/	.	.	8r	.	8r	.	8r	.
16AA-X/JJ	.	.	.	.	.	.	.	.
*	*clefF4	*	*	*	*	*	*	*
4ryy	16C</LL	.	4r	.	4r	.	4r	.
.	16E-\	.	.	.	.	.	.	.
.	16A-X\	.	.	.	.	.	.	.
.	16B-\JJ	.	.	.	.	.	.	.
*	*clefG2	*	*clefF4	*	*	*	*	*
=52	=52	=52	=52	=52	=52	=52	=52	=52
4r	16c/LL	.	4r	.	4r	.	4r	.
.	16e-/	.	.	.	.	.	.	.
.	16a-X/	.	.	.	.	.	.	.
.	16b-/JJ	.	.	.	.	.	.	.
!	!	!	!	!	!	!	!	!LO:DY:rj
4r	16cc\LL	.	[2AA-X [2CC^/	ff	[2a-X [2A-X^\	ff	[2ee- [2e-^/	ff
.	16ee-\	.	.	.	.	.	.	.
.	16aa-X\	.	.	.	.	.	.	.
.	16bb-\JJ	.	.	.	.	.	.	.
*	*8va	*	*	*	*	*	*	*
16r	16ccc\LL	.	.	.	.	.	.	.
16C/LL	16eee-\	.	.	.	.	.	.	.
16AA-X/	16aaa-X\	.	.	.	.	.	.	.
16EE-/JJ	16bbb-\JJ	.	.	.	.	.	.	.
=53	=53	=53	=53	=53	=53	=53	=53	=53
8.CC/L	8.cccc\L	.	4AA-] 4CC/]	.	4a-] 4A-\]	.	4ee-] 4e-/]	.
*	*X8va	*	*	*	*	*	*	*
16A-X/Jk	16aa-XJk 16a-X\	.	.	.	.	.	.	.
[2e-\	[2eee- [2ee-\	.	4r	.	4r	.	4r	.
!	!	!	!LO:TX:a:t=pizz.	!	!LO:TX:a:t=pizz.	!	!LO:TX:a:t=pizz.	!
.	.	.	4C/	p	4E-/	p	4e- 4A-X/	p
=54	=54	=54	=54	=54	=54	=54	=54	=54
8e-\L]	8eee-]L 8ee-\]	.	4CC/	.	4e-\	.	4a-X 4A-X/	.
(16e-\L	(16ee-\L	p	.	.	.	.	.	.
16d\JJ	16dd\JJ	.	.	.	.	.	.	.
8c\L)	8cc/L)	.	4r	.	4r	.	4r	.
8B-'\	8b-'/	.	.	.	.	.	.	.
8A-X'\	8a-X'/	.	4r	.	4r	.	4r	.
8G'\J	8g'/J	.	.	.	.	.	.	.
=55	=55	=55	=55	=55	=55	=55	=55	=55
8.F#X'\L	8.f#X'/L	.	4r	.	4r	.	4r	.
(16D\K	(16d/K	.	.	.	.	.	.	.
8F#\	8f#/	.	4F#X 4AAn 4DD/	mf	4d 4c 4D/	mf	4dd 4f#X 4An/	mf
8An\J	8an/J	.	.	.	.	.	.	.
[4d\)	[4dd\)	.	4r	.	4r	.	4r	.
!!LO:LB:g=original
=56	=56	=56	=56	=56	=56	=56	=56	=56
8d\L]	8dd\L]	.	4r	.	4r	.	4r	.
(8c#X\	(8cc#X\	<	.	.	.	.	.	.
!	!	!	!LO:TX:a:t=arco	!	!LO:TX:a:t=arco	!	!LO:TX:a:t=arco	!
8A-X\	8a-X\	.	(4C/	p	(4a-X\	p	(4cc\	p
8cn\	8ccn\	.	.	.	.	.	.	.
8Bn\	8bn\	.	4D-X\	.	[4g\	.	[4bn\	.
8G\J	8g\J	.	.	.	.	.	.	.
=57	=57	=57	=57	=57	=57	=57	=57	=57
8Bn\)	8bn\)	[	8Dn\)	.	8g\])	.	8b\])	.
8r	8r	.	8r	.	8r	.	8r	.
!	!	!LO:HP:t=poco cresc.	!	!	!	!	!	!
(8G-X\L	(8g-X/L	<	(4E-\	<	(4g-X\	<	(4b-X\	<
8B-X\	8b-X/	.	.	.	.	.	.	.
8An\	8an/	.	4F\	.	4f\	.	[4an/	.
8F\J	8f/J	.	.	.	.	.	.	.
=58	=58	=58	=58	=58	=58	=58	=58	=58
8A\L	8a/L)	.	8C/)	[	8e-\)	[	8a/])	[
8Gn\	(8gn/	.	8r	.	8r	.	8r	.
8E-\	8e-/	.	4r	.	4r	.	4r	.
8A\	8a/	.	.	.	.	.	.	.
8G\	8g/	.	4r	.	4r	.	4r	.
8E-\J	8e-/J	.	.	.	.	.	.	.
=59	=59	=59	=59	=59	=59	=59	=59	=59
8.D/L)	8.d/L)	.	4r	.	4r	.	4r	.
(16C#X/Jk	(16c#X/Jk	.	.	.	.	.	.	.
!	!	!	!LO:TX:a:t=pizz.	!	!LO:TX:a:t=pizz.	!	!LO:TX:a:t=pizz.	!
[2AA/)	[2A/)	.	4AA/	.	4c#X\	.	4a/	.
.	.	.	4E-\	.	4c#\	.	4g/	.
=60	=60	=60	=60	=60	=60	=60	=60	=60
!	!	!	!LO:TX:a:t=arco	!	!LO:TX:a:t=arco	!	!LO:TX:a:t=arco	!
8AA/L]	8A/L]	.	4D\	.	4d\	.	4f#X/	.
*ped	*	*	*	*	*	*	*	*
(8DD/	(8d/	p	.	.	.	.	.	.
8AA/	8a/	.	[2DD^/	.	[2D^/	.	[2d^/	.
8D/	8dd/	.	.	.	.	.	.	.
8D/	8dd/	.	.	.	.	.	.	.
*Xped	*	*	*	*	*	*	*	*
8A/J	8aa/J	.	.	.	.	.	.	.
=61	=61	=61	=61	=61	=61	=61	=61	=61
8d\L)	8ddd\L)	.	8DD/]	.	8D/]	.	8d/]	.
*ped	*	*	*	*	*	*	*	*
(8D\	(8dd\	.	8r	.	8r	.	8r	.
8F#X\	8ff#X\	.	(8D/L	p >	(8d\L	p >	(4b-\	p >
8B-\	8bb-\	.	8C/	.	8e-\	.	.	.
8D\	8dd\	.	8BB-/	.	8d\	.	4f#X/	.
*Xped	*	*	*	*	*	*	*	*
8F#\J	8ff#\J	.	8AA/J	.	8c\J	.	.	.
=62	=62	=62	=62	=62	=62	=62	=62	=62
8B-\)	8bb-\)	.	8GG/)	]	8B-/)	]	8g/)	]
8r	8r	.	8r	.	8r	.	8r	.
!	!	!	!	!	!	!	!LO:TX:a:i:t=legg.	!
(8G\L	(>8g/L	.	4GG'/	.	4r	.	4g 4B-'/	.
8D\	8d/	.	.	.	.	.	.	.
8G\	8g/	.	4GG'/	.	4r	.	4g 4B-'/	.
8B-\J	8b-/J	.	.	.	.	.	.	.
!!LO:LB:g=original
=63	=63	=63	=63	=63	=63	=63	=63	=63
8.c#X\L)	8.cc#X/L)	<	4GG/	.	4r	.	4g 4B-/	.
(16G\Jk	(16g/Jk	.	.	.	.	.	.	.
[2d\)	[2dd\)	[[	4GG/	.	(8G/L	p	4g 4B-/	.
.	.	.	.	.	8D/	.	.	.
.	.	.	4GG/	.	8G/	.	4g 4B-/	.
.	.	.	.	.	8B-/J)	.	.	.
=64	=64	=64	=64	=64	=64	=64	=64	=64
8d\]	8dd\]	.	4GG/	.	8.c#X/L	.	4g 4B-/	.
8r	8r	.	.	.	.	.	.	.
.	.	.	.	.	(16G/Jk	<	.	.
(8B-\L	(8b-\L	<	4GG/	.	[2d\)	[	4g 4B-/	.
8f\	8ff\	.	.	.	.	.	.	.
8e-\	8ee-\	.	4GG/	.	.	.	4g 4B-/	.
8d\J	8dd\J	[[	.	.	.	.	.	.
=65	=65	=65	=65	=65	=65	=65	=65	=65
8.c#X\L)	8.cc#X/L)	.	4GG/	.	4d\]	.	4g 4B-/	.
(16G\Jk	(16g/Jk	<	.	.	.	.	.	.
[2d\)	[2dd\)	[	4GG/	.	(8B-\L	<	4g 4B-/	.
.	.	.	.	.	8f\	.	.	.
.	.	.	4GG/	.	8e-\	.	4g 4B-/	.
.	.	.	.	.	8d\J	.	.	.
=66	=66	=66	=66	=66	=66	=66	=66	=66
4d\]	4dd\]	.	4GG/	.	8.c#X/L)	[	4g 4B-/	.
.	.	.	.	.	(16G/Jk	.	.	.
!	!	!LO:HP:t=poco cresc.	!	!	!	!	!	!
(8cn\L	(8ccn/L	<	4GG/	.	[2d\)	.	4g 4B-/	.
8B-\	8b-/	.	.	.	.	.	.	.
8A\	8a/	.	4GG/	.	.	.	4g 4B-/	.
8G\J	8g/J	.	.	.	.	.	.	.
=67	=67	=67	=67	=67	=67	=67	=67	=67
4f\)	4ff\)	.	8GG/	.	8d\]	.	8g 8B-/	.
.	.	.	8r	.	8r	.	8r	.
(8e-\L	(8ee-\L	.	(8GG/L	<	(8G/L	<	(8G/L	<
8B-\J	8b-\J	.	8AA/	.	8A/	.	8A/	.
[4d\	[4dd\	.	8BB-/	.	8B-/	.	8B-/	.
.	.	.	8C/J	.	8c/J	.	8c/J	.
=68	=68	=68	=68	=68	=68	=68	=68	=68
4d\])	4dd\])	.	4D\)	.	4d\)	.	4d/)	.
8c\L	(8cc/L	.	(8E-\L	.	(8e-\L	.	(8e-/L	.
8B-\	8b-/	.	8D\	.	8d\	.	8d/	.
8A\	8a/	.	8C\	.	8c\	.	8c/	.
8G\J	8g/J	.	8D\J	[	8d\J	[	8d/J	[
=69	=69	=69	=69	=69	=69	=69	=69	=69
8f\L	8ff\L	.	8BB-/L	>	8B-/L	>	8B-/L	>
8e-\	8ee-\	.	8C/J	.	8c/J	.	8c/J	.
8B-\J	8b-\	.	8D\)	]	8d\)	]	8d/)	]
8d\	8dd\	.	8r	.	8r	.	8r	.
8r	8b-\	.	4r	.	4r	.	4r	.
8r	8g\J	.	.	.	.	.	.	.
!!LO:PB:g=original
=70	=70	=70	=70	=70	=70	=70	=70	=70
*^	*^	*	*	*	*	*	*	*
*ped	*	*	*	*	*	*	*	*	*	*
!	!	!	!LO:TX:t=P:problem:mixed beam	!LO:DY:b=2	!	!	!	!	!	!
8ryy	16ryy	8e-/	16e-\LL)	f	4r	.	4r	.	4r	.
.	[8.F#X\	.	(16F#X</	.	.	.	.	.	.	.
[<8A-X\	.	8r	16A-X</	.	.	.	.	.	.	.
.	.	.	16B-</JJ	.	.	.	.	.	.	.
!	!	!	!LO:TX:t=P:problem:mixed beam	!	!	!	!	!	!	!
!	!	!	!LO:N:vis=2	!	!	!	!	!	!	!
[2c 2A-_ 2F#\_<	2ryy	16r	16c</LL	.	[2AA-X^/	sfz	[2c^\	sfz	[2f#X^/	sfz
.	.	16ryy	16e-\	.	.	.	.	.	.	.
.	.	8ryy	16b-\	.	.	.	.	.	.	.
.	.	.	16ee-\JJ	.	.	.	.	.	.	.
*Xped	*	*	*	*	*	*	*	*	*	*
.	.	4bb- 4b-\)	4ryy	.	.	.	.	.	.	.
*v	*v	*	*	*	*	*	*	*	*	*
=71	=71	=71	=71	=71	=71	=71	=71	=71	=71
8c] 8A-] 8F#\]	16r	16ryy	.	8AA-/]	.	8c\]	.	8f#/]	.
.	(8bb-/	16bb-\LL	p	.	.	.	.	.	.
8r	.	16ff#X\	.	8r	.	8r	.	8r	.
.	16ryy	16ee-\JJ	.	.	.	.	.	.	.
!LO:TX:t=P:problem:mixed beam	!	!	!	!LO:TX:a:t=pizz.	!	!LO:TX:a:t=pizz.	!	!LO:TX:a:t=pizz.	!
16b->\LL	8b-/	2ryy	.	4DD/	p	4c\	p	4f#X/	p
16f#X/	.	.	.	.	.	.	.	.	.
16e-/	8ryy	.	.	.	.	.	.	.	.
16c/JJ	.	.	.	.	.	.	.	.	.
8B-\	8gg 8dd 8g'\)	.	.	4GG/	.	4B-/	.	4g/	.
8r	8r	.	.	.	.	.	.	.	.
*	*v	*v	*	*	*	*	*	*	*
=72	=72	=72	=72	=72	=72	=72	=72	=72
*^	*	*	*	*	*	*	*	*
!	!	!	!	!LO:TX:a:t=arco	!	!LO:TX:a:t=arco	!	!LO:TX:a:t=arco	!
8ryy	16ryy	16r<	.	[2.AA-X^/	sfz	[2.c^\	sfz	[2.f#X^/	sfz
!	!	!	!LO:DY:b=2	!	!	!	!	!	!
.	[8.F#X\	(16F#X</LL	f	.	.	.	.	.	.
[8A-X\	.	16A-X</	.	.	.	.	.	.	.
.	.	16B-</JJ	.	.	.	.	.	.	.
!	!	!LO:TX:t=P:problem:mixed beam	!	!	!	!	!	!	!
!	!	!LO:N:vis=2	!	!	!	!	!	!	!
[>2c 2A-_> 2F#\_	2ryy	16c</LL	.	.	.	.	.	.	.
.	.	16e-\	.	.	.	.	.	.	.
.	.	16b-\	.	.	.	.	.	.	.
.	.	16ee-\JJ	.	.	.	.	.	.	.
.	.	[4bb- [4b-\)	.	.	.	.	.	.	.
*v	*v	*	*	*	*	*	*	*	*
=73	=73	=73	=73	=73	=73	=73	=73	=73
*	*^	*	*	*	*	*	*	*
8c] 8A-] 8F#\]	(<16bb-]LL 16b-\]	16ryy	.	8AA-/]	.	8c\]	.	8f#/]	.
.	(16aan\	8aan/	p	.	.	.	.	.	.
8r	16ff#X\	.	.	8r	.	8r	.	8r	.
.	16ee-\JJ	16ryy	.	.	.	.	.	.	.
!	!	!LO:TX:t=P:problem:mixed beam	!	!LO:TX:a:t=pizz.	!	!LO:TX:a:t=pizz.	!	!LO:TX:a:t=pizz.	!
4ryy	8an/	16a\LL	.	4DD/	p	4c\	p	4f#X/	p
.	.	16f#X</	.	.	.	.	.	.	.
.	8r	16e-</	.	.	.	.	.	.	.
.	.	16c</JJ	.	.	.	.	.	.	.
8ryy	8gg 8dd 8g'\)	8B-<\)	.	4GG/	.	4B-/	.	4g/	.
8r	8r	8ryy	.	.	.	.	.	.	.
*clefG2	*	*	*	*	*	*	*	*	*
*	*v	*v	*	*	*	*	*	*	*
!!LO:LB:g=original
=74	=74	=74	=74	=74	=74	=74	=74	=74
*^	*	*	*	*	*	*	*	*
!	!	!	!	!LO:TX:a:t=arco	!	!LO:TX:a:t=arco	!	!LO:TX:a:t=arco	!
8ryy	16ryy	16r<	.	[2.D-X^\	.	[2.Bn^/	.	[2.fn^/	.
!	!	!	!LO:DY:b=2	!	!	!	!	!	!
.	[8.Bn\	(16Bn</LL	f	.	.	.	.	.	.
[8d-X\	.	16d-X</	.	.	.	.	.	.	.
.	.	16e-</JJ	.	.	.	.	.	.	.
!	!	!LO:N:vis=2	!	!	!	!	!	!	!
!	!	!LO:TX:t=P:problem:mixed beam	!	!	!	!	!	!	!
2ryy	2f 2d-] 2B\]	16f<LL 16d-</	.	.	.	.	.	.	.
.	.	16a-X\	.	.	.	.	.	.	.
.	.	16ee-\	.	.	.	.	.	.	.
.	.	16aa-X\JJ	.	.	.	.	.	.	.
.	.	[4eee- [4ee-\)	.	.	.	.	.	.	.
*v	*v	*	*	*	*	*	*	*	*
=75	=75	=75	=75	=75	=75	=75	=75	=75
*	*^	*	*	*	*	*	*	*
2.ryy	16eee-]LL 16ee-\]	16ryy	.	8D-\]	.	8B/]	.	8f/]	.
.	(16dddn\	(<8ddd/	p	.	.	.	.	.	.
.	16bbn\	.	.	8r	.	8r	.	8r	.
.	16aa-X\JJ	16ryy	.	.	.	.	.	.	.
!	!	!LO:TX:t=P:problem:mixed beam	!	!LO:TX:a:t=pizz.	!	!LO:TX:a:t=pizz.	!	!LO:TX:a:t=pizz.	!
.	8dd/	16dd\LL	.	4GG/	p	4Bn/	p	4f/	p
.	.	16bn</	.	.	.	.	.	.	.
.	8r	16a-X</	.	.	.	.	.	.	.
.	.	16f</JJ	.	.	.	.	.	.	.
.	8ccc 8gg 8cc\)	8e-</)	.	4CC/	.	4c\	.	4e-/	.
.	8r	8r<	.	.	.	.	.	.	.
=76	=76	=76	=76	=76	=76	=76	=76	=76	=76
2.ryy	16r	16ryy	.	4C/	.	4e-\	.	4f#X/	.
.	(8bb-X/	(<16bb-\LL	.	.	.	.	.	.	.
.	.	16ff#X\	.	.	.	.	.	.	.
.	16ryy	16ee-\JJ	.	.	.	.	.	.	.
!	!	!LO:TX:t=P:problem:mixed beam	!	!	!	!	!	!	!
.	8b-X/	16b-\LL	.	4r	.	4r	.	4r	.
.	.	16f#X</	.	.	.	.	.	.	.
.	8ryy	16e-</	.	.	.	.	.	.	.
.	.	16d-X</JJ	.	.	.	.	.	.	.
.	8aan 8ee- 8an\)	8c</)	.	4FF#X/	.	4e-\	.	4a/	.
.	8r	8ryy	.	.	.	.	.	.	.
=77	=77	=77	=77	=77	=77	=77	=77	=77	=77
16r	8ddd 8gg 8dd\	16ryy	.	4BB-/	.	4d\	.	4dd\	.
8.B-\	.	(16B-</LL	.	.	.	.	.	.	.
.	8r	16dn</	.	.	.	.	.	.	.
.	.	16f#X</JJ	.	.	.	.	.	.	.
!	!LO:TX:t=P:problem:mixed beam	!	!	!	!	!	!	!	!
4ryy	16b-</LL	4ryy	.	4GG/	.	4d\	.	4b-\	.
.	16gg\	.	.	.	.	.	.	.	.
.	16dd\	.	.	.	.	.	.	.	.
.	16g\JJ	.	.	.	.	.	.	.	.
4e- 4c'/	8bb-L 8b-\)	4ee-/	.	4C/	.	4e-\	.	4g/	.
.	8aaJ 8a'\	.	.	.	.	.	.	.	.
!!LO:LB:g=original
=78	=78	=78	=78	=78	=78	=78	=78	=78	=78
16r	8ddd 8gg 8dd\	16ryy	.	4BB-/	.	4d\	.	4dd\	.
8.B-\	.	(16B-</LL	.	.	.	.	.	.	.
.	8r	16d</	.	.	.	.	.	.	.
.	.	16f#X</JJ	.	.	.	.	.	.	.
!	!LO:TX:t=P:problem:mixed beam	!	!	!	!	!	!	!	!
4ryy	16b-</LL	4ryy	.	4r	.	4r	.	4r	.
.	16gg\	.	.	.	.	.	.	.	.
.	16dd\	.	.	.	.	.	.	.	.
.	16g\JJ	.	.	.	.	.	.	.	.
*clefF4	*	*	*	*	*	*	*	*	*
4B- 4C#X'\	8ffL 8fny\)	[4b-/	.	4C#X/	.	4e-\	.	4g/	.
.	8ee-J 8e-'\	.	.	.	.	.	.	.	.
=79	=79	=79	=79	=79	=79	=79	=79	=79	=79
16r	8dd 8b-] 8d/	16ryy	.	4D\	.	4d\	.	4b-\	.
8D\	.	(16D</LL	.	.	.	.	.	.	.
.	8r	16G</	.	.	.	.	.	.	.
16ryy	.	16B-</JJ	.	.	.	.	.	.	.
!	!LO:TX:t=P:problem:mixed beam	!	!	!	!	!	!	!	!
2ryy	16c#X</LL	2ryy	.	4r	.	4r	.	4r	.
.	16dd\	.	.	.	.	.	.	.	.
.	16b-\	.	.	.	.	.	.	.	.
.	16g\JJ	.	.	.	.	.	.	.	.
!	!LO:TX:t=P:problem:mixed beam	!	!	!	!	!	!	!	!
.	16d\LL	.	.	4r	.	4r	.	4r	.
.	16d\	.	.	.	.	.	.	.	.
.	16B-</	.	.	.	.	.	.	.	.
.	16G</JJ	.	.	.	.	.	.	.	.
*	*v	*v	*	*	*	*	*	*	*
=80	=80	=80	=80	=80	=80	=80	=80	=80
16D\LL	8D</	.	4r	.	4r	.	4r	.
16DD\	.	.	.	.	.	.	.	.
16GG\	8ryy	.	.	.	.	.	.	.
16BB-\JJ	.	.	.	.	.	.	.	.
!	!LO:TX:t=P:problem:mixed beam	!	!	!	!	!	!	!
4ryy	16D</LL	.	4r	.	4r	.	4r	.
.	16G\	.	.	.	.	.	.	.
.	16B-\	.	.	.	.	.	.	.
.	16e-\JJ	.	.	.	.	.	.	.
!	!LO:S:s=3:note:problem:note-level slur	!	!	!	!	!	!	!
!	!LO:S:s=2:note:problem:note-level slur	!	!	!	!	!	!	!
[<4D (<4DD\	(>4f#X (>4c (>4F#X</	.	4D\	.	4c\	.	4f#X/	.
=81	=81	=81	=81	=81	=81	=81	=81	=81
8D] 8GG\)	8g) 8B-) 8G</))	.	4GG/	.	4B-/	.	4g/	.
8r	8r	.	.	.	.	.	.	.
4GGG'/	4r	.	4r	.	4r	.	4r	.
!	!	!	!LO:TX:a:t=arco	!	!LO:TX:a:t=arco	!LO:DY:rj	!LO:TX:a:t=arco	!LO:DY:rj
4r	4r	.	[4E-^\	f	[4G^/	f	[4B-^/	f
!!LO:PB:g=original
=82||	=82||	=82||	=82||	=82||	=82||	=82||	=82||	=82||
!!!key: E-
*k[b-e-a-]	*k[b-e-a-]	*	*k[b-e-a-]	*	*k[b-e-a-]	*	*k[b-e-a-]	*
!	!	!	!	!	!	!	!LO:TX:a:B:t=29:rj	!
2.r	2.r	.	4E-\]	.	4G/]	.	4B-/]	.
.	.	.	(4C/	p	(2G/	p	(4e-/	p
.	.	.	4BB-/	.	.	.	4d/	.
=83	=83	=83	=83	=83	=83	=83	=83	=83
2.r	2.r	.	4GG/)	.	2B-/)	.	2g/)	.
.	.	.	(4BB-/	<	.	.	.	.
.	.	.	4BBn/	.	(4A-/	<	(4f/	<
=84	=84	=84	=84	=84	=84	=84	=84	=84
2.r	2.r	.	4C/)	.	4G/)	.	4e-/)	.
.	.	.	(4F\	.	(4A-/	.	(8c/L	.
.	.	.	.	.	.	.	8d/J	.
.	.	.	[4C/	.	[4G/	.	[4e-/)	.
=85	=85	=85	=85	=85	=85	=85	=85	=85
2.r	2.r	.	4C/])	.	4G/])	.	4e-/]	.
.	.	.	(4BB-/	.	(4G/	.	(8d/L	.
.	.	.	.	.	.	.	8c/J	.
.	.	.	8C/L	.	4F#X/	.	[4B-/	.
.	.	.	8D/J	.	.	.	.	.
=86	=86	=86	=86	=86	=86	=86	=86	=86
*	*^	*	*	*	*	*	*	*
4E- 4EE-/	4r	4ryy	.	4E-\)	.	4G/)	.	4B-/])	.
!	!	!	!	!	!LO:DY:rj	!	!	!	!
[4e- [4B- [4E-\	4.gg/	[4b- [4g\	f	[2EE-^/	f >	4r	.	4r	.
8e-] 8B-] 8E-\]	.	8b-] 8g\]	.	.	.	4r	.	4r	.
8r	(8ff/	8r	.	.	.	.	.	.	.
*clefG2	*	*	*	*	*	*	*	*	*
*	*v	*v	*	*	*	*	*	*	*
=87	=87	=87	=87	=87	=87	=87	=87	=87
4r	8ee-\L	.	4EE-/]	]	4r	.	4r	.
.	8cc\	.	.	.	.	.	.	.
8r	8b-\	>	(4E-\	p <	(4G/	p <	(4B-/	p <
(8b-/L	8gg\	.	.	.	.	.	.	.
8a-/	8ff\	.	4AA-/	[[	4A-/	[[	4c/	[[
8e-/J	8cc\J	.	.	.	.	.	.	.
=88	=88	=88	=88	=88	=88	=88	=88	=88
8d/)	8b-/L	.	[2.BB-/	>	[2.F/	>	[2.d/	>
8r	8a-/	.	.	.	.	.	.	.
8r	8f/	.	.	.	.	.	.	.
(8f/L	8dd/	.	.	.	.	.	.	.
8e-/	8cc/	.	.	.	.	.	.	.
8c/J	8a-/J	]]	.	.	.	.	.	.
=89	=89	=89	=89	=89	=89	=89	=89	=89
8B-/)	8g/L	.	4BB-/])	]	4F/])	]	4d/])	]
8r	8f/	.	.	.	.	.	.	.
8r	8d/	>	4r	.	4r	.	4r	.
(8B-/L	8g/	.	.	.	.	.	.	.
8A-/	8f/	.	[4BB-^/	f	[4F^/	f	[4d^/	f
8F/J	8d/J	.	.	.	.	.	.	.
=90	=90	=90	=90	=90	=90	=90	=90	=90
8E-/)	8B-/)	.	4BB-/]	.	4F/]	.	4d/]	.
8r	8r	]	.	.	.	.	.	.
4r	4r	.	(4BB-/	p	(2F/	p	(4d/	p
4r	4r	.	4AA-/	.	.	.	4c/	.
*clefF4	*	*	*	*	*	*	*	*
!!LO:LB:g=original
=91	=91	=91	=91	=91	=91	=91	=91	=91
2.r	2.r	.	4FF/)	<	2A-/)	<	2f/)	<
.	.	.	(4AA-/	.	.	.	.	.
.	.	.	4AAn/	.	(4G/	.	(4e-/	.
=92	=92	=92	=92	=92	=92	=92	=92	=92
2.r	2.r	.	4BB-/)	.	4F/)	.	4d/)	.
.	.	.	(4E-\	.	(4G/	.	(8B-/L	.
.	.	.	.	.	.	.	8c/J	.
.	.	.	4D\	.	4F#X/	.	4d/	.
=93	=93	=93	=93	=93	=93	=93	=93	=93
2.r	2.r	.	4C/)	.	4G/)	.	8e-/L	.
.	.	.	.	.	.	.	8d/J	.
.	.	.	4E-\	.	(4G-X/	.	4c/)	.
.	.	.	4FF/	.	8F/L	.	(8d/L	.
.	.	.	.	.	8E-/J	.	8c/J	.
=94	=94	=94	=94	=94	=94	=94	=94	=94
*^	*^	*	*	*	*	*	*	*
4BB- 4BBB-/	4ryy	4r	4ryy	f	4BB-/	.	4D/)	.	4B-/)	.
*clefG2	*	*	*	*	*	*	*	*	*	*
4.g/	[>2B- [2A-\	4.gg/	4.dd 4.b-\	.	[2BB-^/	f	4r	.	4r	.
.	.	.	.	.	.	.	4r	.	4r	.
(8f/	.	(8ff/	8r	.	.	.	.	.	.	.
*	*	*v	*v	*	*	*	*	*	*	*
=95	=95	=95	=95	=95	=95	=95	=95	=95	=95
8d/L	8B-] 8A-\]	8dd\L	>	2.BB-/_	p <	4r	.	4r	.
8c/	8ryy	8cc\	.	.	.	.	.	.	.
8B-/)	2ryy	8b-\	.	.	.	(4B-/	p <	(4d/	p <
(8a-/	.	8ff\	.	.	.	.	.	.	.
8g/	.	8ee-\	.	.	.	4c\	.	4e-/	.
8e-/J	.	8cc\J	.	.	.	.	.	.	.
*v	*v	*	*	*	*	*	*	*	*
=96	=96	=96	=96	=96	=96	=96	=96	=96
8d/)	8b-/L	.	2.BB-/_	[	2d\	[	2f/	[
8r	8a-/	.	.	.	.	.	.	.
8r	8f/	.	.	.	.	.	.	.
(8f/L	8dd/	.	.	.	.	.	.	.
8e-/	8cc/	.	.	.	4e-\	>	4cc\	>
8c/J	8a-/J	.	.	.	.	.	.	.
=97	=97	=97	=97	=97	=97	=97	=97	=97
8B-/)	8g/L	.	4BB-/]	.	4d\)	]	4b-\)	]
8r	8f/	.	.	.	.	.	.	.
8r	8d/	.	4r	.	4r	.	4r	.
(8B-/L	8g/	.	.	.	.	.	.	.
8G/	8e-/	.	[4E-^\	f	[4G^/	f	[4B-^/	f
8E-/J	8c/J	.	.	.	.	.	.	.
=98	=98	=98	=98	=98	=98	=98	=98	=98
8G/)	8B-/)	]	4E-\]	.	4G/]	.	4B-/]	.
8r	8r	.	.	.	.	.	.	.
4r	4r	.	(4C/	p	[2G/	p	(4e-/	p
4r	4r	.	4BBn/	.	.	.	4d/	.
=99	=99	=99	=99	=99	=99	=99	=99	=99
2.r	2.r	.	4BB-/)	.	4G/]	.	2g/)	.
.	.	.	(4AAn/	<	(4c\	<	.	<
.	.	.	4AA-X/	.	4c-X\	.	(4f/	.
*clefF4	*	*	*	*	*	*	*	*
!!LO:LB:g=original
=100	=100	=100	=100	=100	=100	=100	=100	=100
!	!	!	!	!	!LO:TX:b:t=P:problem:koniec łuku na dole	!	!	!
2.r	2.r	.	4GG/)	.	4B-/)	.	4e-/)	.
.	.	.	4E-\	.	(4G/	.	(8B-/L	.
.	.	.	.	.	.	.	8c/J	.
.	.	.	[4BB-/	.	4G-X/	.	[4d-X/	.
=101	=101	=101	=101	=101	=101	=101	=101	=101
2.r	2.r	.	4BB-/]	.	4F/)	.	4d-/])	.
.	.	.	(4AA-/	.	(2En/	.	(8c/L	.
.	.	.	.	.	.	.	8B-/J	.
.	.	.	8BB-/L	.	.	.	[4A-/	.
.	.	.	8C/J	.	.	.	.	.
=102	=102	=102	=102	=102	=102	=102	=102	=102
*	*^	*	*	*	*	*	*	*
4D-X 4DD-X/	4r	4ryy	f	4D-X\)	.	4F/)	.	4A-/])	.
!	!	!	!	!	!LO:DY:rj	!	!	!	!
[4d-X [4A- [4D-\	4.ff/	4a- [4f\	.	[2DD-X^/	f	4r	.	4r	.
8d-] 8A-] 8D-\]	.	8a- 8f\]	.	.	.	4r	.	4r	.
8r	(8ee-/	8r	.	.	.	.	.	.	.
*	*v	*v	*	*	*	*	*	*	*
=103	=103	=103	=103	=103	=103	=103	=103	=103
4r	8dd-X\L	>	2.DD-/_	p <	4r	.	4r	.
.	8b-\	.	.	.	.	.	.	.
8r	8a-\	.	.	.	(4A-/	p <	(4cc-X\	p <
*clefG2	*	*	*	*	*	*	*	*
(8g-X/L	8ee-\	.	.	.	.	.	.	.
8e-/	8cc-X\	.	.	.	4c-X\	.	4a-/	.
8d-X/J	8b-\J	.	.	.	.	.	.	.
=104	=104	=104	=104	=104	=104	=104	=104	=104
8c-X/)	8a-/L	.	2.DD-/_	[	2e-\)	[	2cc-X\)	[
8r	8g-X/	.	.	.	.	.	.	.
8r	8e-/	.	.	.	.	.	.	.
(8e-/L	8cc-X/	.	.	.	.	.	.	.
8c-X/	8a-/	.	.	>	(4c-X\	>	(4a-/	>
8B-/J	8g-/J	.	.	.	.	.	.	.
=105	=105	=105	=105	=105	=105	=105	=105	=105
8A-/)	8f/L	.	4DD-/]	]	4A-/)	]	4f/)	]
8r	8e-/	.	.	.	.	.	.	.
8r	8d-X/	.	4r	.	4r	.	4r	.
*clefF4	*	*	*	*	*	*	*	*
(8d-X\L	8b-/	.	.	.	.	.	.	.
8B-\	8g-X/	.	[4G-X^\	f	[4B-^/	f	[4d-X^/	f
8G-X\J	8e-/J	.	.	.	.	.	.	.
=106	=106	=106	=106	=106	=106	=106	=106	=106
8B-\)	8d-X/)	]	4G-\]	.	4B-/]	.	4d-/]	.
8r	8r	.	.	.	.	.	.	.
4r	4r	.	(4E-\	p	[2B-/	p	(4g-X/	p
4r	4r	.	4Dn\	.	.	.	4f/	.
=107	=107	=107	=107	=107	=107	=107	=107	=107
2.r	2.r	.	4D-X\)	<	4B-/]	<	2b-\)	<
.	.	.	(4Cn/	.	(4e-\	.	.	.
.	.	.	4C-X/	.	4e--\	.	(4a-/	.
!!LO:PB:g=original
=108	=108	=108	=108	=108	=108	=108	=108	=108
2.r	2.r	.	4BB-/)	.	4d-X\)	.	4g-X/)	.
.	.	.	(4G-X\	.	(4B-/	.	(8d-X/L	.
.	.	.	.	.	.	.	8e-/J	.
.	.	.	4D-X\	.	[4An/	.	[4f/	.
=109	=109	=109	=109	=109	=109	=109	=109	=109
2.r	2.r	.	4C-X/)	.	4A/])	.	8f/L]	.
.	.	.	.	.	.	.	8e-/J	.
.	.	.	(4BB-/	.	(2A-X/	.	4dn/)	.
.	.	.	8Cn/L	.	.	.	(4f/	.
.	.	.	8D/J	.	.	.	.	.
=110	=110	=110	=110	=110	=110	=110	=110	=110
4E- 4EE-/	4r	f	4E-\)	.	4G/)	.	4B-/)	.
4e- 4B- 4E-'\	4gg 4b- 4g'\	.	4r	.	4r	.	4r	.
4d 4B- 4A-'\	4ff 4b- 4f'\	.	4A-'\	f	4b- 4f'\	f	4b-'\	f
=111	=111	=111	=111	=111	=111	=111	=111	=111
4e- 4B- 4G\	2bb- 2ee- 2b-\	.	4G'\	.	4b- 4e-'\	.	2bb- 2b-^\	.
8GGL 8GGG/	.	<	(<8GG/L	<	(8B-\L	<	.	.
8AA- 8AAA-/	.	.	8AA-/	.	8c\	.	.	.
8BB- 8BBB-/	4aa- 4dd 4a-\	.	8BB-/	.	8d\	.	4aa-'\	<
8BBnJ 8BBBn/	.	.	8BBn/J	.	8f\J	.	.	.
=112	=112	=112	=112	=112	=112	=112	=112	=112
*	*^	*	*	*	*	*	*	*
8CL 8CC/	4.gg 4.ee- 4.g\	2ryy	.	8C\L)	.	8e-\L)	.	4.gg\	.
8D 8DD/	.	.	.	(8D\	.	(8f\	.	.	.
8E- 8EE-/	.	.	.	8E-\	.	8g\	.	.	.
8FJ 8FF/	8ff 8dd 8f\	.	.	8F\J	.	8a-\J	.	(8ff\L	.
4G 4GG'/	(8ee-/L	4b- 4e-\	[	4G\	[[	[4b-\	[[	8ee-\	.
.	8dd-X/J)	.	.	.	.	.	.	8dd-X\J	.
=113	=113	=113	=113	=113	=113	=113	=113	=113	=113
4A- 4AA-'\	4cc 4b- 4c'/	2ryy	.	4A-\)	.	4b-\])	.	4cc\)	[
4C 4CC'/	4ee- 4a- 4e-'/	.	.	4C'/	.	4a-'\	.	4ee-'\	.
4A- 4AA-'\	(8g/L	4d 4c-X\	.	4A-'\	.	4d'\	.	(8g/L	.
.	8f/J)	.	.	.	.	.	.	8f/J)	.
=114	=114	=114	=114	=114	=114	=114	=114	=114	=114
4G 4GG'/	4b- 4e- 4B-'/	4ryy	.	4G'\	.	4e-'\	.	4b-'\	.
4B- 4BB-'\	(8a-/L	4en 4d-X\	.	4B-'\	.	4en'\	.	(8a-/L	.
.	8g/J)	.	.	.	.	.	.	8g/J)	.
4A- 4AA-'\	4cc 4f 4c'/	4ryy	.	4A-'\	.	4f'\	.	4cc'\	.
=115	=115	=115	=115	=115	=115	=115	=115	=115	=115
4c 4C'\	(8b-/L	4f#X 4e-\	.	4c'\	.	4f#X'\	.	(8b-/L	.
.	8an/J)	.	.	.	.	.	.	8an/J)	.
4B- 4BB-'\	4dd 4g 4d'/	4ryy	.	4B-'\	.	4g'\	.	4dd'\	.
4EE- 4EEE-'/	(8ffnL 8fn/	4dd-X\	.	4d-X'\	.	4g'\	.	(8ff\L	.
.	8ee-J 8e-/)	.	.	.	.	.	.	8ee-X\J)	.
!!LO:LB:g=original
=116	=116	=116	=116	=116	=116	=116	=116	=116	=116
4AA-X 4AAA-X'/	4ee- 4cc 4e-'/	4ryy	.	4c'\	.	4a-'\	.	8ee-\	.
.	.	.	.	.	.	.	.	8r	.
[2a- [2e- [2A-\	4.ccc/	[2ee- [2cc\	f	[2E- [2AA-^/	f	[2A-^/	f	[2e- [2c^/	f
.	(8bb-/	.	.	.	.	.	.	.	.
=117	=117	=117	=117	=117	=117	=117	=117	=117	=117
8a-] 8e-] 8A-\]	8aa-/L	8ee-] 8cc\]	.	4E-] 4AA-/]	.	4A-/]	.	4e-] 4c/]	.
8r	8ee-/	8ryy	.	.	.	.	.	.	.
8r	8cc/	2ryy	>	[2FF^>/	>	[2E-^>/	>	[2a- [2c^>/	>
(8a-\L	8ff/	.	.	.	.	.	.	.	.
8f\	8dd/	.	.	.	.	.	.	.	.
8e-\J	8cc/J	.	.	.	.	.	.	.	.
*	*v	*v	*	*	*	*	*	*	*
=118	=118	=118	=118	=118	=118	=118	=118	=118
8c\)	8b-/L	.	2.FF/_	]	2.E-/_	]	2.a-_ 2.c/_	]
8r	8a-/	]	.	.	.	.	.	.
8r	8f/	.	.	.	.	.	.	.
(8f\L	8dd/	.	.	.	.	.	.	.
8e-\	8cc/	.	.	.	.	.	.	.
8c\J	8a-/J)	.	.	.	.	.	.	.
=119	=119	=119	=119	=119	=119	=119	=119	=119
8A-\)	(8g/L	.	2.FF/_	.	2.E-/_	.	2.a-_ 2.c/_	.
!	!	!LO:HP:t=dim.	!	!	!	!	!	!
8r	8f/	>	.	.	.	.	.	.
8r	8c/	.	.	.	.	.	.	.
!	!	!	!	!LO:HP:t=dim.	!	!LO:HP:t=dim.	!	!LO:HP:t=dim.
(8B-\L	8g/	.	.	>	.	>	.	>
8A-\	8f/	.	.	.	.	.	.	.
8E-\J	8c/J	.	.	.	.	.	.	.
=120	=120	=120	=120	=120	=120	=120	=120	=120
8B-\L	8g/L	.	4FF/]	.	4E-/]	.	4a-] 4c/]	.
8A-\	8f/	.	.	.	.	.	.	.
8E-\	8c/	.	4r	.	4r	.	4r	.
8B-\	8g/	.	.	.	.	.	.	.
8A-\	8f/	.	[4BB-^/	.	[4A-^/	.	(>[4e- (4c^/	.
8E-\J	8c/J	.	.	.	.	.	.	.
=121	=121	=121	=121	=121	=121	=121	=121	=121
*^	*^	*	*	*	*	*	*^	*
8B-\L	2ryy	8g/L)	4ryy	.	(2.BB-/]	p	2.A-/_	p	2e-/]	[2.B-\)	p
8A-\	.	(>8f/	.	.	.	.	.	.	.	.	.
8E-\	.	8c/	4.c\	.	.	.	.	.	.	.	.
8B-\J	.	8g/J	.	.	.	.	.	.	.	.	.
4A-/	8A-\L	4f/	.	.	.	.	.	.	4d/	.	.
.	8BB-\J	.	8d\	.	.	.	.	.	.	.	.
*v	*v	*	*	*	*	*	*	*	*v	*v	*
*	*v	*v	*	*	*	*	*	*	*
=122	=122	=122	=122	=122	=122	=122	=122	=122
!	!	!	!	!	!	!	!LO:TX:a:B:t=30:rj	!
8G 8E-\)	8e- 8B-/)	.	8E-\)	.	8A-/]	.	8e- 8B-/])	.
8r	8r	.	8r	.	8r	.	8r	.
[2EE- [2EEE-^/	[2E-^/	.	[2EE-^/	p	4r	.	8r	.
.	.	.	.	.	.	.	(8bb-\L	p
.	.	.	.	.	4r	.	8gg\	.
.	.	.	.	.	.	.	8ff\J	.
=123	=123	=123	=123	=123	=123	=123	=123	=123
8EE-] 8EEE-/]	8E-/]	.	2.EE-/_	.	4r	.	8ee-\L	.
8r	8r	.	.	.	.	.	8cc\	.
[2BB- [2EE-/	8r	.	.	.	8r	.	8b-\)	.
.	(8A-/L	p	.	.	(8a-\L	p	(8ff\	.
.	8c/	.	.	.	8g\	.	8ee-\	.
.	8e-/J	.	.	.	8e-\J	.	8cc\J	.
!!LO:LB:g=original
=124	=124	=124	=124	=124	=124	=124	=124	=124
4BB-] 4EE-/]	8f/)	.	2.EE-/_	>	8d\)	.	8b-/L	.
.	8r	.	.	.	8r	.	8a-/	.
[2BB- [2EE-/	8r	.	.	.	8r	.	8f/)	.
.	(8F/L	.	.	.	(8f\L	>	(8dd/	>
.	8A-/	.	.	.	8e-\	.	8cc/	.
.	8c/J	.	.	.	8c\J	.	8a-/J	.
=125	=125	=125	=125	=125	=125	=125	=125	=125
4BB-] 4EE-/]	8d/)	.	2.EE-/_	.	8B-/)	.	8g/L	.
.	8r	.	.	.	8r	.	8f/	.
[2BB- [2EE-/	4r	.	.	.	8r	.	8d/	.
.	.	.	.	.	(8d/L	.	8b-/	.
.	(4B-/	.	.	.	8c/	.	8a-/	.
.	.	.	.	]]	8A-/J)	]]	8f/J)	]]
=126	=126	=126	=126	=126	=126	=126	=126	=126
4BB-] 4EE-/]	4b-\)	.	2.EE-/_	.	[2.G/	.	[2.e-/	.
[2BB- [2EE-/	8r	.	.	.	.	.	.	.
.	(8bb-\L	pp <	.	.	.	.	.	.
.	8gg\	.	.	.	.	.	.	.
.	8ff\J	.	.	.	.	.	.	.
=127	=127	=127	=127	=127	=127	=127	=127	=127
4BB-] 4EE-/]	8ee-\L	.	2.EE-/_	.	2.G/]	.	4e-/]	.
.	8cc\	.	.	.	.	.	.	.
8r	8b-\	.	.	.	.	.	(4B-/	pp
*clefG2	*	*	*	*	*	*	*	*
(8a-/L	8ff\	.	.	.	.	.	.	.
8g/	8ee-\	.	.	.	.	.	4e-/	.
8e-/J)	8cc\J	.	.	.	.	.	.	.
=128	=128	=128	=128	=128	=128	=128	=128	=128
8d/	8b-/L)	.	2.EE-/_	<[	[2.A-/	<[	2f/)	<
8r	(>8a-/	.	.	.	.	.	.	.
8r	8f/	.	.	.	.	.	.	.
(8f/L	8dd/	.	.	.	.	.	.	.
8e-/	8cc/	.	.	.	.	.	(4e-/	.
8c/J	8a-/J	[[	.	.	.	.	.	[[
=129	=129	=129	=129	=129	=129	=129	=129	=129
8B-/)	8g/L	.	2.EE-/_	.	2.A-/]	.	4d/)	.
8r	8f/	.	.	.	.	.	.	.
8r	8d/	.	.	.	.	.	(4g/	.
*clefF4	*	*	*	*	*	*	*	*
(8d\L	8b-/	.	.	.	.	.	.	.
8c\	8a-/	.	.	.	.	.	4c/	.
8A-\J	8f/J	.	.	.	.	.	.	.
=130	=130	=130	=130	=130	=130	=130	=130	=130
8G\)	8e-/L)	.	2.EE-/_	.	[2.G/	.	[2.e-/)	.
8r	(8c/	.	.	.	.	.	.	.
4r	8B-/	.	.	.	.	.	.	.
.	8g/	.	.	.	.	.	.	.
4r	8e-/	.	.	.	.	.	.	.
.	8c/J	.	.	.	.	.	.	.
!!LO:PB:g=original
=131	=131	=131	=131	=131	=131	=131	=131	=131
4r	8B-/L	.	2.EE-/_	>	2.G/_	>	2.e-/_	>
.	8e-/	.	.	.	.	.	.	.
8r	8c/	.	.	.	.	.	.	.
(8BB-/L	8B-/	.	.	.	.	.	.	.
8GG/	8G/	.	.	.	.	.	.	.
8FF/J	8F/J	.	.	.	.	.	.	.
*	*clefF4	*	*	*	*	*	*	*
=132	=132	=132	=132	=132	=132	=132	=132	=132
8EE-/L)	8E-\L)	.	8EE-/]	]	8G/]	]	8e-/]	]
(8BB-/	(8B-\	<	8r	.	8r	.	8r	.
8GG/	8G\	.	4r	.	4r	.	4r	.
8FF/	8F\	.	.	.	.	.	.	.
8EE-/	8E-\	.	4r	.	4r	.	4r	.
8BB-/J	8B-\J	.	.	.	.	.	.	.
=133	=133	=133	=133	=133	=133	=133	=133	=133
8GG/L	8G\L	.	2.r	.	2.r	.	2.r	.
8FF/	8F\	.	.	.	.	.	.	.
8EE-/	8E-\	.	.	.	.	.	.	.
8GG/	8G\	.	.	.	.	.	.	.
8EE-/	8E-\	.	.	.	.	.	.	.
8DD-X/J	8D-X\J	.	.	.	.	.	.	.
=134	=134	=134	=134	=134	=134	=134	=134	=134
8CC/)	8C/)	.	2.r	.	2.r	.	2.r	.
8ryy	8r	.	.	.	.	.	.	.
2ryy	(<16CC</LL	ff	.	.	.	.	.	.
.	16EE-</	.	.	.	.	.	.	.
.	16AA-</	.	.	.	.	.	.	.
.	16BB-</JJ	.	.	.	.	.	.	.
.	16C\LL	<	.	.	.	.	.	.
.	16E-\	.	.	.	.	.	.	.
.	16A-\	.	.	.	.	.	.	.
.	16B-\JJ	.	.	.	.	.	.	.
*	*clefG2	*	*	*	*	*	*	*
=135	=135	=135	=135	=135	=135	=135	=135	=135
4r	16c/LL	.	4r	.	4r	.	4r	.
.	16e-/	.	.	.	.	.	.	.
.	16a-/	.	.	.	.	.	.	.
.	16b-/JJ	.	.	.	.	.	.	.
4r	16cc\LL	.	[2AA- [2CC^>/	.	[2a- [2A-^\	.	[2ee- [2e-^>/	f
.	16ee-\	.	.	.	.	.	.	.
.	16aa-X\	[	.	.	.	.	.	.
.	16bb-\JJ	.	.	.	.	.	.	.
*	*8va	*	*	*	*	*	*	*
16r	16ccc\LL	.	.	.	.	.	.	.
16C/LL	16eee-\	.	.	.	.	.	.	.
16AA-X/	16aaa-X\	.	.	.	.	.	.	.
16EE-/JJ	16bbb-\JJ	.	.	.	.	.	.	.
!!LO:LB:g=original
=136	=136	=136	=136	=136	=136	=136	=136	=136
8.CC/L	8cccc\L)	.	4AA-] 4CC/]	.	4a-] 4A-\]	.	4ee-] 4e-/]	.
*	*X8va	*	*	*	*	*	*	*
.	16r	.	.	.	.	.	.	.
16A-/Jk	16aa-Jk 16a-\	.	.	.	.	.	.	.
[2e-\	[2eee- [2ee-\	.	4r	.	4r	.	4r	.
!	!	!	!LO:TX:a:t=pizz.	!	!LO:TX:a:t=pizz.	!LO:DY:rj	!LO:TX:a:t=pizz.	!LO:DY:rj
.	.	.	4C/	p	4E-/	p	4e- 4A-/	p
=137	=137	=137	=137	=137	=137	=137	=137	=137
8e-\L]	8eee-]L 8ee-\]	.	4CC/	.	4e-\	.	4a- 4A-/	.
(16e-\L	(16ee-\L	p	.	.	.	.	.	.
16d\JJ	16dd\JJ	.	.	.	.	.	.	.
8c\L)	8cc\L)	.	4r	.	4r	.	4r	.
8B-'\	8b-'\	.	.	.	.	.	.	.
8A-'\	8a-'\	.	4r	.	4r	.	4r	.
8G'\J	8g'\J	.	.	.	.	.	.	.
=138||	=138||	=138||	=138||	=138||	=138||	=138||	=138||	=138||
!!!key: g
*k[b-e-]	*k[b-e-]	*	*k[b-e-]	*	*k[b-e-]	*	*k[b-e-]	*
8.F#X'\L	8.f#X'/L	.	4r	.	4r	.	4r	.
(16D\K	(16d/K	.	.	.	.	.	.	.
8F#\	8f#/	.	4F#X 4AAn 4DD/	mf	4d 4c 4D/	mf	4dd 4f#X 4An/	mf
8An\J)	8an/J	.	.	.	.	.	.	.
[4d\	[4dd\)	.	4r	.	4r	.	4r	.
=139	=139	=139	=139	=139	=139	=139	=139	=139
8d\L]	8dd\L]	.	4r	.	4r	.	4r	.
(8c#X\	(8cc#X\	.	.	.	.	.	.	.
!	!	!	!LO:TX:a:t=arco	!	!LO:TX:a:t=arco	!	!LO:TX:a:t=arco	!
8A-X\	8a-X\	<	(4C/	p <	(4a-X\	p <	(4cc\	p <
8cn\	8ccn\	.	.	.	.	.	.	.
8Bn\	8bn\	.	4D-X\	.	[4g\	.	[4bn\	.
8G\J	8g\J	.	.	.	.	.	.	.
=140	=140	=140	=140	=140	=140	=140	=140	=140
8Bn\)	8bn\)	[	8Dn\)	.	8g\])	.	8b\])	.
8r	8r	.	8r	.	8r	.	8r	.
!	!	!LO:HP:t=poco cresc.	!	!	!	!	!	!
(8G-X\L	(>8g-X/L	<	(4E-\	.	(4g-X\	.	(4b-X\	.
8B-X\	8b-X/	.	.	.	.	.	.	.
8An\	8an/	.	4F\	[	4f\	[[	[4an/	[
8F\J	8f/J	.	.	.	.	.	.	.
=141	=141	=141	=141	=141	=141	=141	=141	=141
8A\L	8a/L	.	8C/)	.	8e-\)	.	8a/])	.
8Gn\	8gn/	.	8r	.	8r	.	8r	.
8E-\	8e-/	.	4r	.	4r	.	4r	.
8A\	8a/	.	.	.	.	.	.	.
8G\	8g/	.	4r	.	4r	.	4r	.
8E-\J	8e-/J	.	.	.	.	.	.	.
!!LO:LB:g=original
=142	=142	=142	=142	=142	=142	=142	=142	=142
8.D/L)	8.d/L)	.	4r	.	4r	.	4r	.
(16C#X/Jk	(16c#X/Jk	.	.	.	.	.	.	.
!	!	!	!LO:TX:a:t=pizz.	!	!LO:TX:a:t=pizz.	!	!LO:TX:a:t=pizz.	!
[2AA/)	[2A/)	.	4AA/	.	4c#X\	.	4a/	.
.	.	.	4E-\	.	4c#\	.	4g/	.
=143	=143	=143	=143	=143	=143	=143	=143	=143
8AA/L]	8A/L]	.	4D\	.	4d\	.	4f#X/	.
(8DD/	(8d/	p	.	.	.	.	.	.
!	!	!	!LO:TX:a:t=arco	!	!LO:TX:a:t=arco	!	!LO:TX:a:t=arco	!
8AA/	8a/	.	[2DD^/	.	[2D^/	.	[2d^/	.
8D/	8dd/	.	.	.	.	.	.	.
8D/	8dd/	.	.	.	.	.	.	.
8A/J	8aa/J	.	.	.	.	.	.	.
=144	=144	=144	=144	=144	=144	=144	=144	=144
8d\L)	8ddd\L)	.	8DD/]	.	8D/]	.	8d/]	.
(8D\	(8dd\	.	8r	.	8r	.	8r	.
8F#X\	8ff#X\	.	(8D/L	p >	(8c\L	p >	(4b-\	p >
8B-\	8bb-\	.	8C/	.	8e-\	.	.	.
8D\	8dd\	.	8BB-/	.	8d\	.	4f#X/	.
8F#\J	8ff#\J	.	8AA/J	.	8c\J	.	.	.
=145	=145	=145	=145	=145	=145	=145	=145	=145
8B-\)	8bb-\)	.	8GG/)	]	8B-/)	]	8g/)	]
8r	8r	.	8r	.	8r	.	8r	.
!	!	!	!LO:TX:a:i:t=legg.	!	!	!	!LO:TX:a:i:t=legg.	!
(8G\L	(8g/L	p	4GG/	.	4r	.	4d 4G/	.
8D\	8d/	.	.	.	.	.	.	.
8G\	8g/	.	4GG/	.	4r	.	4d 4G/	.
8B-\J	8b-/J	.	.	.	.	.	.	.
=146	=146	=146	=146	=146	=146	=146	=146	=146
8.c#X\L)	8.cc#X/L)	.	4GG/	.	(4E-^T/	.	4d 4G/	.
(16G\Jk	(16g/Jk	.	.	.	.	.	.	.
[2d\)	[2dd\)	.	4GG/	.	[2D/)	.	4d 4G/	.
.	.	.	4GG/	.	.	.	4d 4G/	.
=147	=147	=147	=147	=147	=147	=147	=147	=147
8d\]	8dd\]	.	4GG/	.	8D/]	.	4d 4G/	.
8r	8r	.	.	.	8r	.	.	.
(8B-\L	(8b-\L	.	4GG/	.	4r	.	4d 4G/	.
8f\	8ff\	<	.	.	.	.	.	.
8e-\	8ee-\	.	4GG/	.	4r	.	4d 4G/	.
8d\J	8dd\J	.	.	.	.	.	.	.
=148	=148	=148	=148	=148	=148	=148	=148	=148
8.c#X\L)	8.cc#X\L)	.	4GG/	.	(4E-T/	.	4d 4G/	.
(16G\Jk	(16g\Jk	[	.	.	.	.	.	.
[2d\)	[2dd\)	.	4GG/	.	[2D/)	.	4d 4G/	.
.	.	.	4GG/	.	.	.	4d 4G/	.
=149	=149	=149	=149	=149	=149	=149	=149	=149
4d\]	4dd\]	.	4GG/	.	8D/]	.	4d 4G/	.
.	.	.	.	.	8r	.	.	.
!	!	!LO:HP:t=poco cresc.	!	!	!	!	!	!
(8cn\L	(8ccn/L	<	4GG/	.	4r	.	4d 4G/	.
8B-\	8b-/	.	.	.	.	.	.	.
8A\	8a/	.	4GG/	.	4r	.	4d 4G/	.
8G\J	8g/J	.	.	.	.	.	.	.
!!LO:PB:g=original
=150	=150	=150	=150	=150	=150	=150	=150	=150
4f\)	4ff\)	.	8GG/	.	4r	.	8d 8G/	.
.	.	.	8r	.	.	.	8r	.
(8e-\L	(8ee-\L	.	(8GG/L	<	(8G/L	<	(8G/L	<
8B-\J	8b-\J	.	8AA/	.	8A/	.	8A/	.
[4d\	[4dd\	.	8BB-/	.	8B-/	.	8B-/	.
.	.	.	8C/J	.	8c/J	.	8c/J	.
=151	=151	=151	=151	=151	=151	=151	=151	=151
4d\])	4dd\])	.	4D\)	[	4d\)	[	4d/)	[
(8c\L	(8cc/L	.	(8E-\L	>	(8e-\L	>	(8e-/L	>
8B-\	8b-/	.	8D\	.	8d\	.	8d/	.
8A\	8a/	.	8C\	.	8c\	.	8c/	.
8G\J	8g/J	.	8D\J	.	8d\J	.	8d/J	.
=152	=152	=152	=152	=152	=152	=152	=152	=152
8f\L	8ff\L	.	8BB-/L	.	8B-/L	.	8B-/L	.
8e-\	8ee-\	.	8C/J	]	8c/J	]	8c/J	]
8B-\J)	8b-\	>	8D\)	.	8d\)	.	8d/)	.
8r	8dd\	.	8r	.	8r	.	8r	.
4r	8b-\	.	4r	.	4r	.	4r	.
.	8g\J	]]	.	.	.	.	.	.
=153	=153	=153	=153	=153	=153	=153	=153	=153
*^	*^	*	*	*	*	*	*	*
*ped	*	*	*	*	*	*	*	*	*	*
!	!	!	!LO:TX:t=P:problem:mixed beam	!	!	!	!	!	!	!
8ryy	16ryy	8e-/)	16e-\LL	.	4r	.	4r	.	4r	.
!	!	!	!	!LO:DY:b=2	!	!	!	!	!	!
.	N[8.F#X\	.	(16F#X</	f	.	.	.	.	.	.
[<8A-X\	.	8ryy	16A-X</	.	.	.	.	.	.	.
.	.	.	16B-</JJ	.	.	.	.	.	.	.
!	!	!LO:N:vis=2	!	!	!	!	!	!	!	!
!	!	!LO:TX:t=P:problem:mixed beam	!	!	!	!	!	!	!	!
2A-_ 2F#\_	2ryy	N[16c</LL	2ryy	.	[2AA-X^>/	sfz	[2c^\	sfz	[2f#X^>/	sfz
.	.	16e-\	.	.	.	.	.	.	.	.
.	.	16b-\	.	.	.	.	.	.	.	.
.	.	16ee-\JJ)	.	.	.	.	.	.	.	.
.	.	[4bb- [4b-^\	.	.	.	.	.	.	.	.
*v	*v	*	*	*	*	*	*	*	*	*
=154	=154	=154	=154	=154	=154	=154	=154	=154	=154
*^	*	*	*	*	*	*	*	*	*
8c/N]	8A-] 8F#\]	16bb-]LL 16b-\]	16ryy	.	8AA-/]	.	8c\]	.	8f#/]	.
.	.	(16aan\	8aa/	.	.	.	.	.	.	.
8ryy	8ryy	16ff#X\	.	.	8r	.	8r	.	8r	.
.	.	16ee-\JJ	16ryy	.	.	.	.	.	.	.
!	!	!LO:TX:t=P:problem:mixed beam	!	!	!LO:TX:a:t=pizz.	!	!LO:TX:a:t=pizz.	!	!LO:TX:a:t=pizz.	!
2ryy	4ryy	16an\LL	2ryy	.	4DD/	p	4c\	p	4f#X/	p
.	.	16f#X</	.	.	.	.	.	.	.	.
.	.	16e-</	.	.	.	.	.	.	.	.
.	.	16c</JJ	.	.	.	.	.	.	.	.
.	8B-\	8gg 8dd 8g\)	.	.	4GG/	.	4B-/	.	4g/	.
.	8r	8r	.	.	.	.	.	.	.	.
=155	=155	=155	=155	=155	=155	=155	=155	=155	=155	=155
!	!	!	!	!	!LO:TX:a:t=arco	!	!LO:TX:a:t=arco	!	!LO:TX:a:t=arco	!
8ryy	16r	4r	16ryy	.	[2.AA-X^/	.	[2.c^\	.	[2.f#X^/	.
!	!	!	!	!LO:DY:b=2	!	!	!	!	!	!
.	[8.F#X\	.	(16F#X</LL	f	.	.	.	.	.	.
[<8A-X\	.	.	16A-X</	.	.	.	.	.	.	.
.	.	.	16B-</JJ	.	.	.	.	.	.	.
[2c/	2A-_> 2F#\_	16r	2ryy	.	.	.	.	.	.	.
.	.	16e-\LL	.	.	.	.	.	.	.	.
.	.	16b-\	.	.	.	.	.	.	.	.
.	.	16ee-\JJ)	.	.	.	.	.	.	.	.
.	.	[4bb- [4b-\	.	.	.	.	.	.	.	.
*v	*v	*	*	*	*	*	*	*	*	*
*	*v	*v	*	*	*	*	*	*	*
!!LO:LB:g=original
=156	=156	=156	=156	=156	=156	=156	=156	=156
!	!	!LO:DY:b=2	!	!	!	!	!	!
8c] 8A-X] 8F#X\]	16bb-]LL 16b-/]	p	8AA-X/]	.	8c\]	.	8f#X/]	.
.	(16aan/	.	.	.	.	.	.	.
8r	16ff#X/	.	8r	.	8r	.	8r	.
.	16ee-/JJ	.	.	.	.	.	.	.
!LO:TX:t=P:problem:mixed beam	!	!	!LO:TX:a:t=pizz.	!	!LO:TX:a:t=pizz.	!	!LO:TX:a:t=pizz.	!
16a>\LL	8an/	.	4DD/	p	4c\	p	4f#/	p
16f#X/	.	.	.	.	.	.	.	.
16e-/	8ryy	.	.	.	.	.	.	.
16c/JJ	.	.	.	.	.	.	.	.
8B-\	8gg 8dd 8g\)	.	4GG/	.	4B-/	.	4g/	.
8r	8r	.	.	.	.	.	.	.
!!LO:LB:g=original
*clefG2	*	*	*	*	*	*	*	*
=157	=157	=157	=157	=157	=157	=157	=157	=157
*^	*	*	*	*	*	*	*	*
!	!	!	!	!LO:TX:a:t=arco	!	!LO:TX:a:t=arco	!	!LO:TX:a:t=arco	!
8ryy	16r	16ryy	.	[2.D-X^\	.	[2.Bn^/	.	[2.fn^/	.
!	!	!	!LO:DY:b=2	!	!	!	!	!	!
.	[8.Bn\	(16Bn</LL	f	.	.	.	.	.	.
[8d-X\	.	16d-X</	.	.	.	.	.	.	.
.	.	16e-</JJ	.	.	.	.	.	.	.
!	!	!LO:TX:t=P:problem:mixed beam	!	!	!	!	!	!	!
!	!	!LO:N:vis=2	!	!	!	!	!	!	!
2d-] 2B\]	2ryy	16f</LL	.	.	.	.	.	.	.
.	.	16a-X\	.	.	.	.	.	.	.
.	.	16ee-\	.	.	.	.	.	.	.
.	.	16aa-X\JJ)	.	.	.	.	.	.	.
.	.	[4eee- [4ee-\	.	.	.	.	.	.	.
*v	*v	*	*	*	*	*	*	*	*
=158	=158	=158	=158	=158	=158	=158	=158	=158
*	*^	*	*	*	*	*	*	*
4ryy	16eee-]LL 16ee-\]	16ryy	.	8D-\]	.	8B/]	.	8f/]	.
.	(16ddd\	8ddd/	p	.	.	.	.	.	.
.	16bbn\	.	.	8r	.	8r	.	8r	.
.	16aa-X\JJ	16ryy	.	.	.	.	.	.	.
!LO:TX:t=P:problem:mixed beam	!	!	!	!LO:TX:a:t=pizz.	!	!LO:TX:a:t=pizz.	!	!LO:TX:a:t=pizz.	!
16dd>\LL	8dd/	2ryy	.	4GG/	p	4Bn/	p	4f/	p
16bn\	.	.	.	.	.	.	.	.	.
16a-X/	8ryy	.	.	.	.	.	.	.	.
16f/JJ	.	.	.	.	.	.	.	.	.
8e-/	8ccc 8gg 8cc\)	.	.	4CC/	.	4c\	.	4e-/	.
8r	8r	.	.	.	.	.	.	.	.
*	*v	*v	*	*	*	*	*	*	*
=159	=159	=159	=159	=159	=159	=159	=159	=159
16ryy	16r	.	4C/	.	4e-\	.	4f#X/	.
16bb->\LL	(8bb-X/	.	.	.	.	.	.	.
16ff#X>\	.	.	.	.	.	.	.	.
16ee->\JJ	16ryy	.	.	.	.	.	.	.
!LO:TX:t=P:problem:mixed beam	!	!	!	!	!	!	!	!
16b->\LL	8b-/	.	4r	.	4r	.	4r	.
16f#X/	.	.	.	.	.	.	.	.
16e-/	8ryy	.	.	.	.	.	.	.
16d-X/JJ	.	.	.	.	.	.	.	.
8c/	8aa 8ee- 8a\)	.	4FF#X/	.	4e-\	.	4a/	.
8r	8r	.	.	.	.	.	.	.
!!LO:LB:g=original
=160	=160	=160	=160	=160	=160	=160	=160	=160
*	*^	*	*	*	*	*	*	*
16r	8ddd 8gg 8dd'\	16ryy	.	4BB-/	.	4d\	.	4dd\	.
8B-\	.	(16B-</LL	.	.	.	.	.	.	.
.	8r	16d</	.	.	.	.	.	.	.
16ryy	.	16f#X</JJ	.	.	.	.	.	.	.
!	!LO:TX:t=P:problem:mixed beam	!	!	!	!	!	!	!	!
4ryy	16b-</LL	4ryy	.	4GG/	.	4d\	.	4b-\	.
.	16gg\	.	.	.	.	.	.	.	.
.	16dd\	.	.	.	.	.	.	.	.
.	16g\JJ	.	.	.	.	.	.	.	.
4e- 4c'/	8bb-L 8b-\)	4ee-/	.	4C/	.	4e-\	.	4g/	.
.	8aaJ 8a'\	.	.	.	.	.	.	.	.
=161	=161	=161	=161	=161	=161	=161	=161	=161	=161
16r	8ddd 8gg 8dd\	16ryy	.	4BB-/	.	4d\	.	4dd\	.
8B-\	.	(16B-</LL	.	.	.	.	.	.	.
.	8r	16d</	.	.	.	.	.	.	.
16ryy	.	16f#X</JJ	.	.	.	.	.	.	.
!	!LO:TX:t=P:problem:mixed beam	!	!	!	!	!	!	!	!
4ryy	16b-</LL	4ryy	.	4r	.	4r	.	4r	.
.	16gg\	.	.	.	.	.	.	.	.
.	16dd\	.	.	.	.	.	.	.	.
.	16g\JJ	.	.	.	.	.	.	.	.
*clefF4	*	*	*	*	*	*	*	*	*
4B- 4C#X'\	8ffnL 8fn\)	4b-/	.	4C#X/	.	4e-\	.	4g/	.
.	8ee-J 8e-'\	.	.	.	.	.	.	.	.
=162	=162	=162	=162	=162	=162	=162	=162	=162	=162
16r	8dd 8b- 8d'>/	16ryy	.	4D\	.	4d\	.	4b-\	.
8.D\	.	(<16D</LL	.	.	.	.	.	.	.
.	8r	16G</	.	.	.	.	.	.	.
.	.	16B-</JJ	.	.	.	.	.	.	.
!	!LO:TX:t=P:problem:mixed beam	!	!	!	!	!	!	!	!
2ryy	16c#X</LL	2ryy	.	4r	.	4r	.	4r	.
.	16dd\	.	.	.	.	.	.	.	.
.	16b-\	.	.	.	.	.	.	.	.
.	16g\JJ	.	.	.	.	.	.	.	.
.	16d/LL	.	.	4r	.	4r	.	4r	.
.	16d/	.	.	.	.	.	.	.	.
.	16B-/	.	.	.	.	.	.	.	.
.	16G/JJ)	.	.	.	.	.	.	.	.
=163	=163	=163	=163	=163	=163	=163	=163	=163	=163
2ryy	8D</	16D<\LL	.	4r	.	4r	.	4r	.
.	.	(16DD<\	.	.	.	.	.	.	.
.	8ryy	16GG<\	.	.	.	.	.	.	.
.	.	16BB-<\JJ	.	.	.	.	.	.	.
!	!LO:TX:t=P:problem:mixed beam	!	!	!	!	!	!	!	!
.	16D</LL	2ryy	.	4r	.	4r	.	4r	.
.	16G\	.	.	.	.	.	.	.	.
.	16B-\	.	.	.	.	.	.	.	.
.	16e-\JJ)	.	.	.	.	.	.	.	.
!	!LO:S:s=2:note:problem:note-level slur	!	!	!	!	!	!	!	!
[4D (4DD/	(4f#X (4c (4F#X/	.	.	4D\	.	4c\	.	4f#X/	.
*	*v	*v	*	*	*	*	*	*	*
=164	=164	=164	=164	=164	=164	=164	=164	=164
!	!	!	!	!	!	!	!LO:TX:a:B:t=31	!
8D] 8GG/)	8g) 8B-) 8G/)	.	4GG/	.	4B-/	.	4g/	.
8r	8r	.	.	.	.	.	.	.
4GGG'/	4r	.	4r	.	8r	.	4r	.
!	!	!	!	!	!LO:TX:b:i:t=legg.	!	!	!
!	!	!	!	!	!LO:TX:a:t=arco	!	!	!
.	.	.	.	.	16D'/LL	.	.	.
.	.	.	.	.	16En'/JJ	.	.	.
4r	4r	.	4r	.	16D'/LL	.	4r	.
.	.	.	.	.	16E'/	.	.	.
.	.	.	.	.	16D'/	.	.	.
.	.	.	.	.	16E'/JJ	.	.	.
!!LO:PB:g=original
=165||	=165||	=165||	=165||	=165||	=165||	=165||	=165||	=165||
!!!key: G
*k[f#]	*k[f#]	*	*k[f#]	*	*k[f#]	*	*k[f#]	*
!	!	!	!LO:TX:b:i:t=legg.	!	!	!	!	!
4GG 4GGG/	4r	p	8GG'/L	.	16D'/LL	.	2.r	.
.	.	.	.	.	16E'/	.	.	.
.	.	.	8D'/	.	16D'/	.	.	.
.	.	.	.	.	16E'/JJ	.	.	.
*clefG2	*	*	*	*	*	*	*	*
(4d 4G/	(4bb 4dd\	.	8GG'/	.	16D'/LL	.	.	.
.	.	.	.	.	16E'/	.	.	.
.	.	.	8D'/	.	16D'/	.	.	.
.	.	.	.	.	16E'/JJ	.	.	.
4g 4B/	4gg 4b\	.	8GG'/	.	16D'/LL	.	.	.
.	.	.	.	.	16E'/	.	.	.
.	.	.	8D'/J	.	16F#'/	.	.	.
.	.	.	.	.	16G'/JJ	.	.	.
=166!|:	=166!|:	=166!|:	=166!|:	=166!|:	=166!|:	=166!|:	=166!|:	=166!|:
*>B	*>B	*>B	*>B	*>B	*>B	*>B	*>B	*>B
*	*	*	*tremolo	*	*	*	*	*
4e 4c/)	4ee 4cc\)	.	8GG/L	.	16A'/LL	.	2.r	.
.	.	.	.	.	16B'/	.	.	.
.	.	.	8D/	.	16A'/	.	.	.
.	.	.	.	.	16B'/JJ	.	.	.
4e 4A'/	4aa 4cc'\	.	8GG/	.	16A'/LL	.	.	.
.	.	.	.	.	16B'/	.	.	.
.	.	.	8D/	.	16A'/	.	.	.
.	.	.	.	.	16B'/JJ	.	.	.
4r	4r	.	8GG/	.	16A'/LL	.	.	.
.	.	.	.	.	16B'/	.	.	.
.	.	.	8D/J	.	16c'/	.	.	.
.	.	.	.	.	16d'/JJ	.	.	.
*clefF4	*	*	*	*	*	*	*	*
=167	=167	=167	=167	=167	=167	=167	=167	=167
4GG 4GGG/	4r	.	8GG/L	.	8c/L	.	8r	.
!	!	!	!	!	!	!	!LO:TX:b:i:t=legg.	!
!	!	!	!	!	!	!	!LO:TX:a:t=arco	!
.	.	.	8D/	.	16c/L	.	16e/LL	.
.	.	.	.	.	16A/JJ	.	16f#/JJ	.
*clefG2	*	*	*	*	*	*	*	*
(4e 4A/	(4aa 4cc\	.	8GG/	.	16c/LL	.	16e/LL	.
.	.	.	.	.	16A/	.	16f#/	.
.	.	.	8D/	.	16c/	.	16e/	.
.	.	.	.	.	16A/JJ	.	16f#/JJ	.
4a 4c/	4ee 4cc\	.	8GG/	.	16c/LL	.	16e/LL	.
.	.	.	.	.	16A/	.	16f#/	.
.	.	.	8D/J	.	16c/	.	16g/	.
.	.	.	.	.	16A/JJ	.	16a/JJ	.
=168	=168	=168	=168	=168	=168	=168	=168	=168
4d 4B/)	4dd 4b\)	.	8GG/L	.	8d\L	.	16b\LL	.
.	.	.	.	.	.	.	16cc\	.
.	.	.	8D/	.	16g\L	.	16b\	.
.	.	.	.	.	16a\JJ	.	16cc\JJ	.
4d 4G'/	4gg 4b'\	.	8GG/	.	16b\LL	.	16dd\LL	.
.	.	.	.	.	16g\	.	16ee\	.
.	.	.	8D/	.	16b\	.	16dd\	.
.	.	.	.	.	16g\JJ	.	16ee\JJ	.
4r	4r	.	8GG/	.	16b\LL	.	16dd\LL	.
.	.	.	.	.	16g\	.	16ee\	.
.	.	.	8D/J	.	16b\	.	16ff#\	.
.	.	.	.	.	16g\JJ	.	16gg\JJ	.
*clefF4	*	*	*Xtremolo	*	*	*	*	*
=169	=169	=169	=169	=169	=169	=169	=169	=169
8r	8r	.	4DD/	.	8f#\	.	8aa\	.
!	!LO:TX:b:i:t=legg.	!	!	!	!	!	!	!
(16F#\LL	(>16A/LL	.	.	.	8r	.	8r	.
16D\JJ	16B/JJ	.	.	.	.	.	.	.
*tremolo	*	*	*	*	*clefG2	*	*	*
16F#\LL	16A/LL	.	4r	.	8r	.	(4fff#\	pp
16D\	16B/	.	.	.	.	.	.	.
16F#\	16A/	.	.	.	(8a\L	pp	.	.
16D\	16B/JJ	.	.	.	.	.	.	.
16F#\	16A/LL	.	4r	.	8dd\	.	4ddd\	.
16D\	16B/	.	.	.	.	.	.	.
16F#\	16c#X/	.	.	.	8ff#\J	.	.	.
16D\JJ	16d/JJ	.	.	.	.	.	.	.
*Xtremolo	*	*	*	*	*	*	*	*
!!LO:LB:g=original
=170	=170	=170	=170	=170	=170	=170	=170	=170
8G\)	16e/LL	.	4r	.	8gg\L	.	4bb\	.
.	16f#/	<	.	.	.	.	.	.
(16d\LL	16e/	.	.	.	8ff#\J	.	.	.
16B\JJ	16f#/JJ	.	.	.	.	.	.	.
*tremolo	*	*	*	*	*	*	*	*
!	!	!	!LO:TX:a:t=pizz.	!	!	!	!	!
16d\LL	16e/LL	.	8GG\L	p <	4ee\)	.	4eee\)	.
16B\	16f#/	.	.	.	.	.	.	.
16d\	16e/	.	8D\	.	.	.	.	.
16B\	16f#/JJ	.	.	.	.	.	.	.
16d\	16e/LL	.	8G\	.	4r	.	4r	.
16B\	16f#/	.	.	.	.	.	.	.
16d\	16g/	.	8A\J	.	.	.	.	.
16B\JJ	16a/JJ)	[	.	.	.	.	.	.
*Xtremolo	*	*	*	*	*	*	*	*
=171	=171	=171	=171	=171	=171	=171	=171	=171
8G\)	8b/L	.	8B\L	.	4r	.	4r	.
(16DD/LL	(16bL 16g/	.	8A\J	[	.	.	.	.
16AA/JJ	16cc#XJJ 16e/	.	.	.	.	.	.	.
*tremolo	*	*	*	*	*	*	*	*
!	!	!LO:HP:t=poco cresc.	!	!	!	!	!	!
16DD/LL	16bLL 16g/	<	8G\	.	(8e/L	.	(4eee\	.
16AA/	16cc# 16e/	.	.	.	.	.	.	.
16DD/	16b 16g/	.	8r	.	8g/	.	.	.
16AA/	16cc#JJ 16e/	.	.	.	.	.	.	.
16DD/	16ddLL 16b\	.	4r	.	8b/	.	4bb\	.
16AA/	16ee 16g\	.	.	.	.	.	.	.
16DD/	16dd 16b\	.	.	.	8dd/J	.	.	.
16AA/JJ	16eeJJ 16g\	.	.	.	.	.	.	.
=172	=172	=172	=172	=172	=172	=172	=172	=172
16DD/LL	16ff#LL 16dd\	.	4r	.	8ff#\L	.	4aa\	.
16AA/	16gg 16a\	.	.	.	.	.	.	.
16DD/	16ff# 16dd\	.	.	.	8ee\J	.	.	.
16AA/	16ggJJ 16a\	.	.	.	.	.	.	.
16DD/	16ff#LL 16dd\	.	8D\L	.	4dd\)	.	4ddd\)	.
16AA/	16gg 16a\	.	.	.	.	.	.	.
16DD/	16ff# 16dd\	.	8A\	<	.	.	.	.
16AA/	16ggJJ 16a\	.	.	.	.	.	.	.
16DD/	16aaLL 16ff#\	.	8d\	.	4r	.	4r	.
16AA/	16bb 16dd\	.	.	.	.	.	.	.
16DD/	16aa 16ff#\	.	8e\J	[	.	.	.	.
16AA/JJ	16bbJJ 16dd\	.	.	.	.	.	.	.
*Xtremolo	*	*	*	*	*	*	*	*
=173	=173	=173	=173	=173	=173	=173	=173	=173
*	*^	*	*	*	*	*	*	*
8DD/L)	8aa 8ff#\)	8ryy	.	4f#\	.	2.r	.	4r	.
(16BBB/L	[8ddd/	16ff#\LL	p	.	.	.	.	.	.
16BB/JJ	.	16ee#X\JJ	.	.	.	.	.	.	.
*tremolo	*	*tremolo	*	*	*	*	*	*	*
16BBB/LL	2ddd/_	16ff#\LL	.	4r	.	.	.	4r	.
16BB/	.	16ee#\	.	.	.	.	.	.	.
16BBB/	.	16ff#\	.	.	.	.	.	.	.
16BB/	.	16ee#\	.	.	.	.	.	.	.
!	!	!	!	!LO:TX:a:t=arco	!	!	!	!	!
16BBB/	.	16ff#\	<	[4f#^\	.	.	.	[4ddd^\	.
16BB/	.	16ee#\	.	.	.	.	.	.	.
16BBB/	.	16ff#\	.	.	.	.	.	.	.
16BB/JJ	.	16ee#\JJ	.	.	.	.	.	.	.
*	*	*Xtremolo	*	*	*	*clefC3	*	*	*
!!LO:LB:g=original
=174	=174	=174	=174	=174	=174	=174	=174	=174	=174
16BBB/LL	4ddd/]	16ff#\LL	.	4f#\]	.	4r	.	4ddd\]	.
16BB/	.	16ee#X\	.	.	.	.	.	.	.
16BBB/	.	16ff#\	.	.	.	.	.	.	.
16BB/	.	16ee#\JJ	.	.	.	.	.	.	.
16BBB/	(4ccc#X/	16een\LL	.	[2f#\	<	(4C#X/	<	(4ccc#X\	<
16BB/	.	16dd\	.	.	.	.	.	.	.
16BBB/	.	16ee\	.	.	.	.	.	.	.
16BB/	.	16dd\JJ	[	.	.	.	.	.	.
16BBB/	4bb/	16dd\LL	.	.	[[	4D/	.	4bb\	[
16BB/	.	16cc#X\	.	.	.	.	.	.	.
16BBB/	.	16dd\	.	.	.	.	[	.	.
16BB/JJ)	.	16cc#\JJ	.	.	.	.	.	.	.
=175	=175	=175	=175	=175	=175	=175	=175	=175	=175
16BBB/LL	4aa/)	16ccn\LL	<	4f#\]	.	4D#X/)	.	4aa\)	.
16BB/	.	16b\	.	.	.	.	.	.	.
16BBB/	.	16cc\	.	.	.	.	.	.	.
16BB/	.	16b\JJ	.	.	.	.	.	.	.
16BBB/	(4gg/	16b\LL	.	(4e\	.	(4E/	.	(4gg\	<
16BB/	.	16a\	.	.	.	.	.	.	.
16BBB/	.	16b\	.	.	.	.	.	.	.
16BB/	.	16a\JJ	[	.	.	.	.	.	.
16BBB/	4ff#/	16a\LL	.	4d#X\	.	4F#/	.	4ff#\	[[
16BB/	.	16g\	.	.	.	.	.	.	.
16BBB/	.	16a\	.	.	.	.	.	.	.
16BB/JJ	.	16g\JJ	.	.	.	.	.	.	.
*Xtremolo	*	*	*	*	*	*	*	*	*
=176	=176	=176	=176	=176	=176	=176	=176	=176	=176
16BBB/LL	4ee/)	16g\LL	<	4e\)	.	4G/)	.	4ee\)	.
16BB/	.	16f#\	.	.	<	.	<	.	<
16BBB/	.	16g\	.	.	.	.	.	.	.
16BB/JJ	.	16f#\JJ	.	.	.	.	.	.	.
*tremolo	*	*tremolo	*	*	*	*	*	*	*
16EE/LL	(4dd/	16f#\LL	.	(4B\	.	(2G#X/	.	(4dd\	.
16BB/	.	16e\	.	.	.	.	.	.	.
16EE/	.	16f#\	.	.	.	.	.	.	.
16BB/	.	16e\	.	.	.	.	.	.	.
16EE/	4b/)	16f#\	.	4dn\	.	.	.	4b\)	.
16BB/	.	16e\	.	.	.	.	.	.	.
16EE/	.	16f#\	.	.	.	.	.	.	.
16BB/JJ	.	16e\JJ	.	.	.	.	.	.	.
=177	=177	=177	=177	=177	=177	=177	=177	=177	=177
16AAA/LL	(2b/	16e\LL	.	2F#\)	.	2A/)	.	(2b\	.
16AA/	.	16d\	.	.	.	.	.	.	.
16AAA/	.	16e\	.	.	.	.	.	.	.
16AA/	.	16d\	.	.	.	.	.	.	.
16AAA/	.	16e\	.	.	.	.	.	.	.
16AA/	.	16d\	.	.	.	.	.	.	.
16AAA/	.	16e\	.	.	.	.	.	.	.
16AA/	.	16d\JJ	.	.	.	.	.	.	.
*	*	*Xtremolo	*	*	*	*	*	*	*
16AAA/	4f#/	16cn\LL	.	[4D#X\	.	(4A/	.	4f#/	.
16AA/	.	16B\	.	.	.	.	.	.	.
16AAA/	.	16c\	.	.	.	.	.	.	.
16AA/JJ	.	16B\JJ	.	.	.	.	.	.	.
=178	=178	=178	=178	=178	=178	=178	=178	=178	=178
*	*	*tremolo	*	*	*	*	*	*	*
16AAA/LL	4a/)	16cn\LL	.	4D#\]	.	4f#\)	.	4a/)	.
16AA/	.	16B\	.	.	.	.	.	.	.
16AAA/	.	16c\	.	.	.	.	.	.	.
16AA/	.	16B\	.	.	.	.	.	.	.
16AAA/	(4g/	16c\	>	(4E\	>	(4e\	>	(4g/	>
16AA/	.	16B\	.	.	.	.	.	.	.
16AAA/	.	16c\	.	.	.	.	.	.	.
16AA/	.	16B\JJ	.	.	.	.	.	.	.
*	*	*Xtremolo	*	*	*	*	*	*	*
16AAA/	4f#/	16B-X\LL	]	4F#\	]]	[4d\	]]	4f#/	]]
16AA/	.	16A\	.	.	.	.	.	.	.
16AAA/	.	16B-\	.	.	.	.	.	.	.
16AA/JJ	.	16A\JJ	.	.	.	.	.	.	.
!!LO:PB:g=original
=179	=179	=179	=179	=179	=179	=179	=179	=179	=179
16DD/LL	[4e/)	16B-X\LL	.	[2.G\)	.	4d\])	.	4.e/)	.
16AA/	.	16A\	.	.	.	.	.	.	.
16DD/	.	16B-\	.	.	.	.	.	.	.
16AA/	.	16A\JJ	.	.	.	.	.	.	.
16DD/	8e/L]	8B-\L	p	.	.	(2c#X\	.	.	.
16AA/	.	.	.	.	.	.	.	.	.
16DD/	(8f#/	16f#\L	.	.	.	.	.	(8f#/L	p
16AA/	.	16B-\JJ	.	.	.	.	.	.	.
16DD/	8e/	16e\LL	.	.	.	.	.	8e/	.
16AA/	.	16c#X\	.	.	.	.	.	.	.
16DD/	8f#/J	16f#\	.	.	.	.	.	8f#/J	.
16AA/JJ	.	16B-\JJ	.	.	.	.	.	.	.
=180||	=180||	=180||	=180||	=180||	=180||	=180||	=180||	=180||	=180||
!LO:TX:t=1.	!	!	!	!	!	!	!	!	!
*>B1	*>B1	*>B1	*>B1	*>B1	*>B1	*>B1	*>B1	*>B1	*>B1
16DD/LL	8Bn/L	16B\LL	.	(4G\]	.	(4Bn/)	.	[4d/)	.
16AA/	.	16G\	.	.	.	.	.	.	.
16DD/	8d/J	16d\	.	.	.	.	.	.	.
16AA/	.	16E\JJ	.	.	.	.	.	.	.
16DD/	8A 8F#/)	2ryy	.	8F#\)	.	8A/L)	.	8d/]	.
16AA/	.	.	.	.	.	.	.	.	.
16DD/	8r	.	.	8r	.	(16A/L	.	8r	.
16AA/JJ	.	.	.	.	.	16B/JJ	.	.	.
*Xtremolo	*	*	*	*	*	*	*	*	*
!	!LO:S:s=2:note:problem:note-level slur	!	!	!	!	!	!	!	!
16DD/LL	(4ccn (4f# (4cn/	.	>	(4DD/	.	16A/LL	.	4r	.
16D/	.	.	.	.	.	16cn/	.	.	.
16DD/	.	.	.	.	.	16B/	.	.	.
16D/JJ	.	.	.	.	.	16A/JJ	.	.	.
*	*v	*v	*	*	*	*	*	*	*
=181	=181	=181	=181	=181	=181	=181	=181	=181
8GG/	8b) 8g) 8B/)	]	8GG/L)	.	8G/L)	.	2.r	.
!	!	!	!LO:TX:a:i:t=legg.	!	!LO:TX:a:i:t=legg.	!	!	!
8r	8r	.	8D/	.	16D/L	.	.	.
.	.	.	.	.	16E/JJ	.	.	.
*clefG2	*	*	*	*	*	*	*	*
(4d 4G/	(4bb 4dd\	p	8GG/	.	16D/LL	.	.	.
.	.	.	.	.	16E/	.	.	.
.	.	.	8D/	.	16D/	.	.	.
.	.	.	.	.	16E/JJ	.	.	.
4g 4B/)	4gg 4b\)	.	8GG/	.	16D/LL	.	.	.
.	.	.	.	.	16E/	.	.	.
.	.	.	8D/J	.	16F#/	.	.	.
.	.	.	.	.	16G/JJ	.	.	.
*clefF4	*	*	*	*	*	*	*	*
=182:|!	=182:|!	=182:|!	=182:|!	=182:|!	=182:|!	=182:|!	=182:|!	=182:|!
!LO:TX:t=2.	!	!	!	!	!	!	!	!
*>B2	*>B2	*>B2	*>B2	*>B2	*>B2	*>B2	*>B2	*>B2
*	*^	*	*	*	*	*	*	*
*tremolo	*	*	*	*	*	*	*	*	*
(16DD/LL	(8Bn/L	16B\LL	.	(4G\]	.	(4Bn/)	.	[4d/)	.
16AA/	.	16G\	.	.	.	.	.	.	.
16DD/	8d/J	16d\	.	.	.	.	.	.	.
16AA/	.	16E\JJ	.	.	.	.	.	.	.
16DD/	8A 8F#/)	2ryy	.	8F#\)	.	8A/L)	.	8d/]	.
16AA/	.	.	.	.	.	.	.	.	.
16DD/	8r	.	.	8r	.	(16A/L	.	8r	.
16AA/	.	.	.	.	.	16B/JJ	.	.	.
16DD/	4r	.	.	[4DD^/	.	16A/LL	.	4r	.
16AA/	.	.	.	.	.	16G/	.	.	.
16DD/	.	.	.	.	.	16F#/	.	.	.
16AA/JJ	.	.	.	.	.	16E/JJ	.	.	.
*Xtremolo	*	*	*	*	*	*	*	*	*
*	*v	*v	*	*	*	*	*	*	*
!!LO:LB:g=original
=183	=183	=183	=183	=183	=183	=183	=183	=183
*>C	*>C	*>C	*>C	*>C	*>C	*>C	*>C	*>C
8DD/)	4r	.	8DD/L]	.	8D/L)	.	2.r	.
!	!	!	!LO:TX:b:i:t=legg.	!	!LO:TX:b:i:t=legg.	!	!	!
8r	.	.	8AA'/	.	16D/L	.	.	.
.	.	.	.	.	16E/JJ	.	.	.
*clefG2	*	*	*	*	*	*	*	*
(4a 4d/	(4fff# 4aa\	p	8DD'/	.	16D/LL	.	.	.
.	.	.	.	.	16E/	.	.	.
.	.	.	8AA'/	.	16D/	.	.	.
.	.	.	.	.	16E/JJ	.	.	.
4dd 4f#/	4ddd 4ff#\	.	8DD'/	.	16D/LL	.	.	.
.	.	.	.	.	16E/	.	.	.
.	.	.	8AA'/J	.	16F#/	.	.	.
.	.	.	.	.	16G/JJ	.	.	.
=184	=184	=184	=184	=184	=184	=184	=184	=184
*	*	*	*tremolo	*	*	*	*	*
4a 4e/	4eee 4gg\	.	8DD/L	.	16A/LL	.	8r	.
.	.	.	.	.	16B/	.	.	.
!	!	!	!	!	!	!	!LO:TX:a:i:t=legg.	!
.	.	.	8AA/	.	16A/	.	16c#X/LL	.
.	.	.	.	.	16B/JJ	.	16e/JJ	.
*	*	*	*	*	*tremolo	*	*tremolo	*
4cc#X 4g/)	4aa 4ee\)	.	8DD/	.	16A/LL	.	16c#/LL	.
.	.	.	.	.	16G/	.	16e/	.
.	.	.	8AA/	.	16A/	.	16c#/	.
.	.	.	.	.	16G/	.	16e/	.
4r	4r	.	8DD/	.	16A/	.	16c#/	.
.	.	.	.	.	16G/	.	16e/	.
.	.	.	8AA/J	.	16A/	.	16c#/	.
.	.	.	.	.	16G/JJ	.	16e/JJ	.
*clefF4	*	*	*	*	*Xtremolo	*	*Xtremolo	*
=185	=185	=185	=185	=185	=185	=185	=185	=185
8DD/	4r	.	8DD/L	.	8F#/L	.	8d/L	.
8r	.	.	8AA/	.	16F#/L	.	16d/L	.
.	.	.	.	.	16G/JJ	.	16e/JJ	.
*clefG2	*	*	*	*	*	*	*	*
(4a 4d/	(4ddd 4ff#\	.	8DD/	.	16F#/LL	.	16d/LL	.
.	.	.	.	.	16G/	.	16e/	.
.	.	.	8AA/	.	16F#/	.	16d/	.
.	.	.	.	.	16G/JJ	.	16e/JJ	.
4dd 4f#/	4aa 4ff#\	.	8DD/	.	16F#/LL	.	16d/LL	.
.	.	.	.	.	16G/	.	16e/	.
.	.	.	8AA/J	.	16F#/	.	16f#/	.
.	.	.	.	.	16E/JJ	.	16g/JJ	.
*	*	*	*Xtremolo	*	*	*	*	*
=186	=186	=186	=186	=186	=186	=186	=186	=186
*	*	*	*	*	*	*	*tremolo	*
4a 4d/	4ddd 4ffn\	.	8DD/L	.	8D\L	.	16a/LL	.
.	.	.	.	.	.	.	16b/	.
.	.	.	8D/	.	16fn\L	.	16a/	.
.	.	.	.	.	16d\JJ	.	16b/	.
4b 4g/)	4gg 4ff\)	.	8GG/	.	16f\LL	.	16a/	.
.	.	.	.	.	16d\	.	16b/	.
.	.	.	8D/	.	16f\	.	16a/	.
.	.	.	.	.	16d\JJ	.	16b/JJ	.
*	*	*	*	*	*	*	*Xtremolo	*
4r	4r	.	8GG/	.	16f\LL	.	16a\LL	.
.	.	.	.	.	16d\	.	16b\	.
.	.	.	8D/J	.	16f\	.	16ccn\	.
.	.	.	.	.	16d\JJ	.	16dd\JJ	.
*clefF4	*	*	*	*	*	*	*	*
=187	=187	=187	=187	=187	=187	=187	=187	=187
8r	8r	.	4CC/	.	16g\LL	.	4ee\	.
.	.	.	.	.	16a\	.	.	.
(16CC/LL	(16gLL 16e/	pp	.	.	16g\	.	.	.
16GG/JJ	16aJJ 16c/	.	.	.	16a\JJ	.	.	.
*tremolo	*tremolo	*	*	*	*	*	*	*
16CC/LL	16gLL 16e/	.	4r	.	8g\L	.	(4eee\	pp
16GG/	16a 16c/	.	.	.	.	.	.	.
16CC/	16g 16e/	.	.	.	(8g\	pp	.	.
16GG/	16a 16c/	.	.	.	.	.	.	.
16CC/	16g 16e/	.	4r	.	8cc\	.	4ccc\	.
16GG/	16a 16c/	.	.	.	.	.	.	.
16CC/	16g 16e/	.	.	.	8ee\J	.	.	.
16GG/JJ	16aJJ 16c/	.	.	.	.	.	.	.
=188	=188	=188	=188	=188	=188	=188	=188	=188
16CC/LL	16aLL 16fn/	.	4r	.	8ffn\L	.	4aa\	.
16GG/	16b 16d/	.	.	.	.	.	.	.
16CC/	16a 16f/	.	.	.	8ee\J	.	.	.
16GG/	16b 16d/	.	.	.	.	.	.	.
!	!	!	!LO:TX:a:t=pizz.	!	!	!	!	!
16CC/	16a 16f/	.	8D\L	.	8dd\)	.	8ddd\)	.
16GG/	16b 16d/	.	.	.	.	.	.	.
16CC/	16a 16f/	.	8A\	<	8r	.	8r	.
16GG/	16b 16d/	.	.	.	.	.	.	.
16CC/	16a 16f/	.	8d\	.	4r	.	4r	.
16GG/	16b 16d/	.	.	.	.	.	.	.
16CC/	16a 16f/	.	8e\J	[[	.	.	.	.
16GG/JJ)	16bJJ 16d/)	.	.	.	.	.	.	.
=189	=189	=189	=189	=189	=189	=189	=189	=189
(16CC/LL	(16aLL 16fn/	.	8fn\L	.	4r	.	4r	.
16GG/	16b 16d/	.	.	.	.	.	.	.
16CC/	16a 16f/	.	8e\J	.	.	.	.	.
16GG/	16b 16d/	.	.	.	.	.	.	.
16CC/	16a 16f/	.	4d\	.	(8d\L	.	(4ddd\	.
16GG/	16b 16d/	.	.	.	.	.	.	.
16CC/	16a 16f/	.	.	.	8fn\	.	.	.
16GG/	16b 16d/	.	.	.	.	.	.	.
16CC/	16a 16f/	.	4r	.	8a\	.	4aa\	.
16GG/	16b 16d/	.	.	.	.	.	.	.
16CC/	16a 16f/	.	.	.	8dd\J	.	.	.
16GG/JJ	16bJJ 16d/	.	.	.	.	.	.	.
*	*Xtremolo	*	*	*	*	*	*	*
!!LO:LB:g=original
=190	=190	=190	=190	=190	=190	=190	=190	=190
16CC/LL	16ccLL 16g/	.	4r	.	8ee\L	.	4gg\	.
16C/	16dd 16e/	.	.	.	.	.	.	.
16CC/	16cc 16g/	.	.	.	8dd\J	.	.	.
16C/	16ddJJ 16e/	.	.	.	.	.	.	.
16CC/	16eeLL 16cc\	.	8C\L	.	8cc\)	.	8ccc\)	.
16C/	16ffn 16g\	.	.	.	.	.	.	.
16CC/	16ee 16cc\	.	8G\	<	8r	.	8r	.
16C/	16ffJJ 16g\	.	.	.	.	.	.	.
16CC/	16ggLL 16ee\	.	8c\	.	4r	.	4r	.
16C/	16aa 16b-X\	.	.	.	.	.	.	.
16CC/	16gg 16ee\	.	8d\J	[[	.	.	.	.
16C/JJ)	16aaJJ 16b-\)	.	.	.	.	.	.	.
=191	=191	=191	=191	=191	=191	=191	=191	=191
*	*tremolo	*	*	*	*	*	*	*
(16FFn/LL	(16ggLL 16ee-X\	<	8e-X\L	.	4r	.	4r	.
16C/	16aa 16cc\	.	.	.	.	.	.	.
16FF/	16gg 16ee-\	.	8d\J	.	.	.	.	.
16C/	16aa 16cc\	.	.	.	.	.	.	.
16FF/	16gg 16ee-\	.	4c\	.	(8c\L	<	(4eee-X\	.
16C/	16aa 16cc\	.	.	.	.	.	.	.
16FF/	16gg 16ee-\	.	.	.	8e-X\	.	.	.
16C/	16aa 16cc\	.	.	.	.	.	.	.
16FF/	16gg 16ee-\	.	4r	.	8g\	.	4gg\	.
16C/	16aa 16cc\	.	.	.	.	.	.	.
16FF/	16gg 16ee-\	.	.	.	8cc\J	.	.	.
16C/JJ	16aaJJ 16cc\	.	.	.	.	.	.	.
=192	=192	=192	=192	=192	=192	=192	=192	=192
16FFn/LL	16ggLL 16ee-X\	.	4r	.	8ee-X\L	.	2ccc\)	.
16C/	16aa 16cc\	.	.	.	.	.	.	.
16FF/	16gg 16ee-\	.	.	.	8dd\J	[	.	.
16C/	16aa 16cc\	.	.	.	.	.	.	.
16FF/	16gg 16ee-\	.	8FFn/L	.	8cc\)	.	.	.
16C/	16aa 16cc\	.	.	.	.	.	.	.
16FF/	16gg 16ee-\	.	8C/	.	8r	.	.	.
16C/	16aaJJ 16cc\	.	.	.	.	.	.	.
*	*Xtremolo	*	*	*	*	*	*	*
16FF/	16cccLL 16aa\	[	8Fn/	.	(4ee-X\	.	(4ffn\	.
16C/	16ddd 16ee-\	.	.	.	.	.	.	.
16FF/	16ccc 16aa\	.	8A/J	.	.	.	.	.
16C/JJ	16dddJJ 16ee-\	.	.	.	.	.	.	.
*Xtremolo	*	*	*	*	*	*	*	*
=193	=193	=193	=193	=193	=193	=193	=193	=193
*	*^	*	*	*	*	*	*	*
!	!	!	!	!	!	!	!	!LO:TX:a:B:t=32:rj	!
8BB-X/L)	8bb-X 8dd\)	8ryy	.	4B-X\	.	[2.dd\)	.	[2.fffn\)	.
!	!	!	!LO:HP:t=poco cresc.	!	!	!	!	!	!
(16BBB-X/L	[8ddd/	16ffn\LL	<	.	.	.	.	.	.
16BB-/JJ	.	16een\JJ	.	.	.	.	.	.	.
*tremolo	*	*tremolo	*	*	*	*	*	*	*
16BBB-/LL	2ddd/_	16ff\LL	.	4r	.	.	<	.	<
16BB-/	.	16ee\	.	.	.	.	.	.	.
16BBB-/	.	16ff\	.	.	.	.	.	.	.
16BB-/	.	16ee\	.	.	.	.	.	.	.
16BBB-/	.	16ff\	.	4r	.	.	.	.	.
16BB-/	.	16ee\	.	.	.	.	.	.	.
16BBB-/	.	16ff\	.	.	.	.	.	.	.
16BB-/JJ	.	16ee\JJ	.	.	.	.	.	.	.
=194	=194	=194	=194	=194	=194	=194	=194	=194	=194
16BBB-X/LL	2ddd/]	16ffn\LL	.	4r	.	2dd\]	.	2fff\]	.
16BB-/	.	16ee\	.	.	.	.	.	.	.
16BBB-/	.	16ff\	.	.	.	.	.	.	.
16BB-/	.	16ee\	.	.	.	.	.	.	.
!	!	!	!	!LO:TX:a:t=arco	!	!	!	!	!
16BBB-/	.	16ff\	.	(4BB-X/	<	.	.	.	.
16BB-/	.	16ee\	.	.	.	.	.	.	.
16BBB-/	.	16ff\	.	.	.	.	.	.	.
16BB-/	.	16ee\JJ	.	.	.	.	.	.	.
*	*	*Xtremolo	*	*	*	*	*	*	*
16BBB-/	(4ccc/	16ee-X\LL	.	4Cn/	.	(4cc\	[	(4aa\	[
16BB-/	.	16dd\	.	.	.	.	.	.	.
16BBB-/	.	16ee-\	.	.	.	.	.	.	.
16BB-X/JJ)	.	16dd\JJ	.	.	.	.	.	.	.
=195	=195	=195	=195	=195	=195	=195	=195	=195	=195
*	*	*tremolo	*	*	*	*	*	*	*
(16BBB-X/LL	2bb-X/)	16dd\LL	.	4D\)	.	2b-X\)	.	2ddd\)	.
16BB-/	.	16cc\	.	.	.	.	.	.	.
16BBB-/	.	16dd\	.	.	[	.	.	.	.
16BB-/	.	16cc\	.	.	.	.	.	.	.
!	!	!	!	!	!LO:HP:t=poco cresc.	!	!LO:HP:t=poco cresc.	!	!LO:HP:t=poco cresc.
16BBB-/	.	16dd\	.	(4En\	<	.	<	.	<
16BB-/	.	16cc\	.	.	.	.	.	.	.
16BBB-/	.	16dd\	.	.	.	.	.	.	.
16BB-/	.	16cc\	.	.	.	.	.	.	.
16BBB-/	(4aa/	16dd\	.	4F#X\	.	(4a\	.	(4dd\	.
16BB-/	.	16cc\	.	.	.	.	.	.	.
16BBB-/	.	16dd\	.	.	.	.	.	.	.
16BB-X/JJ	.	16cc\JJ	.	.	.	.	.	.	.
!!LO:PB:g=original
=196	=196	=196	=196	=196	=196	=196	=196	=196	=196
16BBB-X/LL	2gg/)	16b-X\LL	.	2G\)	.	2g\)	.	2bb-X\)	.
16BB-/	.	16a\	.	.	.	.	.	.	.
16BBB-/	.	16b-\	.	.	.	.	.	.	.
16BB-/	.	16a\	.	.	.	.	.	.	.
16BBB-/	.	16b-\	<	.	.	.	.	.	.
16BB-/	.	16a\	.	.	.	.	.	.	.
16BBB-/	.	16b-\	.	.	.	.	.	.	.
16BB-X/JJ	.	16a\JJ	.	.	.	.	.	.	.
*Xtremolo	*	*Xtremolo	*	*	*	*	*	*	*
16BBBn/LL	(4ffn/	16a-X\LL	.	(4BBn/	<	(4fn\	<	(4dd\	<
16BBn/	.	16g\	.	.	.	.	.	.	.
16BBB/	.	16a-\	.	.	.	.	.	.	.
16BB/JJ)	.	16g\JJ	[	.	.	.	.	.	.
=197	=197	=197	=197	=197	=197	=197	=197	=197	=197
*tremolo	*	*tremolo	*	*	*	*	*	*	*
16CC/LL	2ee-X/)	16g\LL	.	2C/)	[	2e-X\)	[	2gg\)	[
16C/	.	16f#\	.	.	.	.	.	.	.
16CC/	.	16g\	.	.	.	.	.	.	.
16C/	.	16f#\	.	.	.	.	.	.	.
16CC/	.	16g\	.	.	.	.	.	.	.
16C/	.	16f#\	.	.	.	.	.	.	.
16CC/	.	16g\	.	.	.	.	.	.	.
16C/JJ	.	16f#\JJ	.	.	.	.	.	.	.
*Xtremolo	*	*Xtremolo	*	*	*	*	*	*	*
16DD/LL	[4dd/	16g\LL	.	(4D\	.	(4d\	.	(4bn\	.
16D/	.	16f#\	.	.	.	.	.	.	.
16DD/	.	16g\	.	.	.	.	.	.	.
16D/JJ	.	16f#\JJ	.	.	.	.	.	.	.
=198	=198	=198	=198	=198	=198	=198	=198	=198	=198
16EE-X/LL	4dd/]	16g\LL	.	[2.E-X\)	.	[2.g\)	.	4dd\	.
16E-X/	.	16fn\	.	.	.	.	.	.	.
16E-/	.	16g\	.	.	<	.	<	.	<
16G/JJ	.	16f\JJ	.	.	.	.	.	.	.
*tremolo	*	*	*	*	*	*	*	*	*
16E-\LL	(4cc/	16e-X\LL	<	.	.	.	.	4cc\	.
16G\	.	16d\	.	.	.	.	.	.	.
16E-\	.	16e-\	.	.	.	.	.	.	.
16G\	.	16d\JJ	.	.	.	.	.	.	.
16E-\	[4b-X/	16e-\LL	.	.	.	.	.	[4b-X\	.
16G\	.	16d\	.	.	.	.	.	.	.
16E-\	.	16e-\	.	.	.	.	.	.	.
16G\JJ	.	16d\JJ	.	.	.	.	.	.	.
=199	=199	=199	=199	=199	=199	=199	=199	=199	=199
*	*	*tremolo	*	*	*	*	*	*	*
16E-X\LL	4b-/])	16d\LL	.	4E-\]	.	4g\]	.	4b-\])	.
16G\	.	16c\	.	.	.	.	.	.	.
16E-\	.	16d\	.	.	.	.	.	.	.
16G\	.	16c\	.	.	.	.	.	.	.
16E-\	(4b-X/	16d\	.	[2E-X\	.	(4G/	.	(4b-X\	.
16G\	.	16c\	.	.	.	.	.	.	.
16E-\	.	16d\	.	.	.	.	.	.	.
16G\	.	16c\	.	.	.	.	.	.	.
16E-\	[4a/	16d\	.	.	.	4A/	.	[4a/	.
16G\	.	16c\	.	.	.	.	.	.	.
16E-\	.	16d\	.	.	.	.	.	.	.
16G\JJ	.	16c\JJ	.	.	.	.	.	.	.
*	*	*Xtremolo	*	*	*	*	*	*	*
=200	=200	=200	=200	=200	=200	=200	=200	=200	=200
16E-X\LL	4a/])	16d\LL	.	2E-\]	.	4B-X/)	.	4a/])	.
16G\	.	16c\	.	.	.	.	.	.	.
16E-\	.	16d\	.	.	.	.	.	.	.
16G\	.	16c\JJ	.	.	.	.	.	.	.
16E-\	(4f#X/	16c\LL	.	.	.	(4A/	.	(4f#X/	.
16G\	.	16B\	.	.	.	.	.	.	.
16E-\	.	16c\	.	.	.	.	.	.	.
16G\	.	16B\JJ	.	.	.	.	.	.	.
16E-\	4g/	16c\LL	.	(4EE-X/	.	4G/	.	4g/	.
16G\	.	16B\	.	.	.	.	.	.	.
16E-\	.	16c\	.	.	.	.	.	.	.
16G\JJ	.	16c#X\JJ	.	.	.	.	.	.	.
*Xtremolo	*	*	*	*	*	*	*	*	*
!!LO:LB:g=original
=201	=201	=201	=201	=201	=201	=201	=201	=201	=201
8AL 8D/	4f# 4d/)	4ryy	.	4DD/)	.	4A/)	.	4f#/)	.
16DD/L	.	.	.	.	.	.	.	.	.
16AA/JJ	.	.	.	.	.	.	.	.	.
*tremolo	*	*	*	*	*	*	*	*	*
16DD/LL	8r	8ryy	.	(4A\	>	(2c#X\	>	8r	.
16AA/	.	.	.	.	.	.	.	.	.
16DD/	(8f#/L	16f#\LL	.	.	.	.	.	(8f#/L	>
16AA/	.	16B-X\	.	.	.	.	.	.	.
16DD/	8e/	16e\	.	4G\	.	.	.	8e/	.
16AA/	.	16c\	.	.	.	.	.	.	.
16DD/	8f#/J	16f#\	.	.	.	.	.	8f#/J	.
16AA/JJ	.	16G\JJ	.	.	.	.	.	.	.
=202	=202	=202	=202	=202	=202	=202	=202	=202	=202
16DD/LL	4d 4F#/)	4ryy	.	4F#\)	]	4A/)	]	4d/)	]
16AA/	.	.	.	.	.	.	.	.	.
16DD/	.	.	.	.	.	.	.	.	.
16AA/	.	.	.	.	.	.	.	.	.
16DD/	8r	8ryy	.	4r	.	4r	.	4r	.
16AA/	.	.	.	.	.	.	.	.	.
16DD/	(8d/L	16d\LL	.	.	.	.	.	.	.
16AA/	.	16E\	.	.	.	.	.	.	.
16DD/	8B-X/	16B-\	.	(4G\	.	(4B-X/	.	[4d/	.
16AA/	.	16E\	.	.	.	.	.	.	.
16DD/	8d/J	16d\	.	.	.	.	.	.	.
16AA/JJ	.	16E\JJ	.	.	.	.	.	.	.
=203	=203	=203	=203	=203	=203	=203	=203	=203	=203
16DD/LL	4A 4F#/)	4ryy	.	4F#\)	.	4A/)	.	4d/]	.
16AA/	.	.	.	.	.	.	.	.	.
16DD/	.	.	.	.	.	.	.	.	.
16AA/	.	.	.	.	.	.	.	.	.
16DD/	8r	8ryy	.	8r	.	4r	.	8r	.
16AA/	.	.	.	.	.	.	.	.	.
16DD/	(8f#/L	16f#\LL	.	(8A\L	pp <	.	.	(>8f#/L	pp
16AA/	.	16B-X\	.	.	.	.	.	.	.
16DD/	8e/	16e\	.	8G\	.	[4c#X\	pp <	8e/	<
16AA/	.	16c#X\	.	.	.	.	.	.	.
16DD/	8f#/J	16f#\	.	8A\J	.	.	.	8f#/J	.
16AA/JJ	.	16B-\JJ	.	.	.	.	.	.	.
=204	=204	=204	=204	=204	=204	=204	=204	=204	=204
16DD/LL	8e/L	16e\LL	.	8G\L	.	(2.c#\]	[	8e/L	.
16AA/	.	16c#X\	.	.	.	.	.	.	.
16DD/	8f#/	16f#\	.	8A\	[	.	.	8f#/	[
16AA/	.	16B-X\JJ	.	.	.	.	.	.	.
16DD/	8e/	16e\LL	.	8G\	.	.	.	8e/	.
16AA/	.	16c#\	.	.	.	.	.	.	.
16DD/	8f#/	16f#\	.	8F#\	>	.	.	8a/	>
16AA/	.	16B-\JJ	.	.	.	.	.	.	.
16DD/	8e/	16e\LL	.	8G\	.	.	.	8e/	.
16AA/	.	16c#\	.	.	.	.	.	.	.
16DD/	8f#/J	16f#\	.	8A\J	]]	.	.	8f#/J	]]
16AA/JJ	.	16B-\JJ	.	.	.	.	.	.	.
!!LO:LB:g=original
=205	=205	=205	=205	=205	=205	=205	=205	=205	=205
16DD/LL	8f#/L	16f#\LL	.	4F#\)	.	4A/)	.	4d/)	.
16AA/	.	16d\	.	.	.	.	.	.	.
16DD/	8g/J	16g\	.	.	.	.	.	.	.
16AA/	.	16A\JJ	.	.	.	.	.	.	.
16DD/	8f#/L	16f#\LL	.	4r	.	4r	.	4r	.
16AA/	.	16d\	.	.	.	.	.	.	.
16DD/	8e/	16e\	.	.	.	.	.	.	.
16AA/	.	16A\JJ	.	.	.	.	.	.	.
!	!	!	!LO:HP:t=dimin.	!	!LO:HP:t=dimin.	!	!LO:HP:t=dimin.	!	!LO:HP:t=dimin.
16DD/	8d/	16d\LL	>	(4GG/	>	(4D/	>	(4B-X/	>
16AA/	.	16E\	.	.	.	.	.	.	.
16DD/	8B-X/J	16B-\	.	.	.	.	.	.	.
16AA/JJ	.	16E\JJ	.	.	.	.	.	.	.
=206	=206	=206	=206	=206	=206	=206	=206	=206	=206
16DD\LL	8A/L	16A\LL	.	[2.DD/)	.	[2.F#/)	.	[2.A/)	.
16AA\	.	16F#</	.	.	.	.	.	.	.
16DD\	8B/J	16B\	.	.	.	.	.	.	.
16AA\	.	16D</JJ	.	.	.	.	.	.	.
16DD\	8d/L	16d\LL	.	.	.	.	.	.	.
16AA\	.	16A</	.	.	.	.	.	.	.
16DD\	8e/J	16e\	.	.	.	.	.	.	.
16AA\	.	16F#</JJ	.	.	.	.	.	.	.
16DD\	8f#/L	16f#\LL	.	.	.	.	.	.	.
16AA\	.	16d\	.	.	.	.	.	.	.
16DD\	8g/J	16g\	.	.	.	.	.	.	.
16AA\JJ	.	16A\JJ)	.	.	.	.	.	.	.
=207	=207	=207	=207	=207	=207	=207	=207	=207	=207
16DD/LL	(8a/L	16a\LL	.	2.DD/_	.	2.F#/_	.	2.A/_	.
16AA/	.	16f#\	.	.	.	.	.	.	.
16DD/	8b/J	16b\	.	.	.	.	.	.	.
16AA/	.	16d\JJ	.	.	.	.	.	.	.
16DD/	8dd/L	16dd\LL	.	.	.	.	.	.	.
16AA/	.	16a\	.	.	.	.	.	.	.
16DD/	8ee/J	16ee\	.	.	.	.	.	.	.
16AA/	.	16f#\JJ	.	.	.	.	.	.	.
16DD/	8ff#/L	16ff#\LL	.	.	.	.	.	.	.
16AA/	.	16dd\	.	.	.	.	.	.	.
16DD/	8gg/J	16gg\	.	.	.	.	.	.	.
16AA/JJ	.	16a\JJ	.	.	.	.	.	.	.
=208	=208	=208	=208	=208	=208	=208	=208	=208	=208
16DD/LL	8aa/L	16aa\LL	.	8DD/L]	.	8F#/L]	.	8A/]	.
16AA/	.	16ff#\	.	.	.	.	.	.	.
16DD/	8bb/J	16bb\	.	(8DD/	pp	(8D/J	pp	8r	.
16AA/	.	16dd\JJ	.	.	.	.	.	.	.
16DD/	8aa/L	16aa\LL	.	8FF#/	.	8F#/L	.	4r	.
16AA/	.	16ff#\	.	.	.	.	.	.	.
16DD/	8bb/J	16bb\	.	8AA/	.	8A/	.	.	.
16AA/	.	16dd\JJ	.	.	.	.	.	.	.
16DD/	8aa/L	16aa\LL	>	8D/	.	8d/	.	4r	.
16AA/	.	16ff#\	.	.	.	.	.	.	.
16DD/	8bb/J	16bb\	.	8F#/J	.	8f#/J	.	.	.
16AA/JJ	.	16dd\JJ	.	.	.	.	.	.	.
*Xtremolo	*	*	*	*	*	*	*	*	*
*	*v	*v	*	*	*	*	*	*	*
!!LO:PB:g=original
=209	=209	=209	=209	=209	=209	=209	=209	=209
8DD/	16aa\LL	.	8A\L)	.	8a\L)	.	4r	.
.	16ff#\	.	.	.	.	.	.	.
8r	16ddd\	.	(8AA\J	.	(8A\J	.	.	.
.	16aa\JJ	.	.	.	.	.	.	.
4r	16ff#\LL	.	8D\)	.	8d\)	.	8r	.
.	16dd\)	]	.	.	.	.	.	.
.	(16dd\	.	8r	.	8r	.	(8dd\L	pp
.	16a\JJ	.	.	.	.	.	.	.
!	!LO:TX:t=P:problem:mixed beam	!	!	!	!	!	!	!
4r	16f#\LL	.	4r	.	4r	.	8ff#\	.
.	16d\	.	.	.	.	.	.	.
.	16A</	.	.	.	.	.	8aa\J	.
.	16F#</JJ	.	.	.	.	.	.	.
=210	=210	=210	=210	=210	=210	=210	=210	=210
!	!LO:TX:t=P:problem:mixed beam	!	!	!	!	!	!	!
8r	8D</L)	.	4r	.	4r	.	8ddd\L)	.
*	*	*	*	*	*	*	*tremolo	*
!	!	!	!	!	!	!	!LO:TX:b:i:t=legg.	!
(<8DD/L	(8d\	.	.	.	.	.	16dd\L	.
.	.	.	.	.	.	.	16dd\	.
8AA/	8a\	pp	[2DD^/	.	[2d [2D^/	.	16ddd\	.
.	.	.	.	.	.	.	16ddd\	.
8D/	8dd\	.	.	.	.	.	16dd\	.
.	.	.	.	.	.	.	16dd\	.
8D/	8dd\	.	.	.	.	.	16ddd\	.
.	.	.	.	.	.	.	16ddd\	.
8A/J	8aa\J	.	.	.	.	.	16dd\	.
.	.	.	.	.	.	.	16dd\JJ	.
=211	=211	=211	=211	=211	=211	=211	=211	=211
8d\L)	8ddd\L)	.	4DD/]	.	4d] 4D/]	.	16ddd\LL	.
.	.	.	.	.	.	.	16ddd\	.
(8D\	(8dd\	.	.	.	.	.	16dd\	.
.	.	.	.	.	.	.	16dd\	.
8F#\	8ff#\	.	(8D/L	>	(8d\L	>	16ddd\	.
.	.	.	.	.	.	.	16ddd\	.
8B-X\	8bb-X\	.	8C/	.	8e-X\	.	16dd\	.
.	.	.	.	.	.	.	16dd\	.
8D\	8dd\	.	8BB/	.	8d\	.	16ddd\	.
.	.	.	.	.	.	.	16ddd\	.
8F#\J	8ff#\J	.	8AA/J	.	8c\J	.	16dd\	.
.	.	.	.	.	.	.	16dd\JJ	.
=212||	=212||	=212||	=212||	=212||	=212||	=212||	=212||	=212||
!!!key: g
*k[b-e-]	*k[b-e-]	*	*k[b-e-]	*	*k[b-e-]	*	*k[b-e-]	*
8B-\)	8bb-\)	.	8GG/)	]	8B-/)	]	16ddd\LL	.
.	.	.	.	.	.	.	16ddd\	.
8r	8r	.	8r	.	8r	.	16dd\	.
.	.	.	.	.	.	.	16dd\	.
(8G\L	(8g/L	.	4GG'/	pp	4d 4G'/	pp	16ddd\	.
.	.	.	.	.	.	.	16ddd\	.
8D\	8d/	.	.	.	.	.	16dd\	.
.	.	.	.	.	.	.	16dd\	.
8G\	8g/	.	4GG'/	.	4d 4G'/	.	16ddd\	.
.	.	.	.	.	.	.	16ddd\	.
8B-\J	8b-/J	.	.	.	.	.	16dd\	.
.	.	.	.	.	.	.	16dd\JJ	.
=213	=213	=213	=213	=213	=213	=213	=213	=213
8.c#X\L)	8.cc#X\L)	.	4GG'/	.	4d 4G'/	.	16ddd\LL	.
.	.	.	.	.	.	.	16ddd\	.
.	.	.	.	.	.	.	16dd\	.
(16G\Jk	(16g\Jk	.	.	.	.	.	16dd\	.
!	!LO:TX:a:i:t=sempre leggiero	!	!	!	!	!	!	!
[2d\)	[2dd\)	.	4GG'/	.	4d 4G'/	.	16ddd\	.
.	.	.	.	.	.	.	16ddd\	.
.	.	.	.	.	.	.	16dd\	.
.	.	.	.	.	.	.	16dd\	.
.	.	.	4GG'/	.	4d 4G'/	.	16ddd\	.
.	.	.	.	.	.	.	16ddd\	.
.	.	.	.	.	.	.	16dd\	.
.	.	.	.	.	.	.	16dd\JJ	.
=214	=214	=214	=214	=214	=214	=214	=214	=214
4d\]	4dd\]	.	4GG'/	.	4d 4G'/	.	16ddd\LL	.
.	.	.	.	.	.	.	16ddd\	.
.	.	.	.	.	.	.	16dd\	.
.	.	.	.	.	.	.	16dd\	.
(8B-\L	(8b-\L	.	4GG'/	.	4d 4G'/	.	16ddd\	.
.	.	.	.	.	.	.	16ddd\	.
8f\	8ff\	.	.	.	.	.	16dd\	.
.	.	.	.	.	.	.	16dd\	.
8e-\	8ee-\	.	4GG'/	.	4d 4G'/	.	16ddd\	.
.	.	.	.	.	.	.	16ddd\	.
8d\J	8dd\J	.	.	.	.	.	16dd\	.
.	.	.	.	.	.	.	16dd\JJ	.
!!LO:LB:g=original
=215	=215	=215	=215	=215	=215	=215	=215	=215
8.c#X\L)	8.cc#X\L)	.	4GG'/	.	4d 4G'/	.	16ddd\LL	.
.	.	.	.	.	.	.	16ddd\	.
.	.	.	.	.	.	.	16dd\	.
(16G\Jk	(16g\Jk	.	.	.	.	.	16dd\	.
[2d\)	[2dd\)	.	4GG'/	.	4d 4G'/	.	16ddd\	.
.	.	.	.	.	.	.	16ddd\	.
.	.	.	.	.	.	.	16dd\	.
.	.	.	.	.	.	.	16dd\	.
.	.	.	4GG'/	.	4d 4G'/	.	16ddd\	.
.	.	.	.	.	.	.	16ddd\	.
.	.	.	.	.	.	.	16dd\	.
.	.	.	.	.	.	.	16dd\JJ	.
=216	=216	=216	=216	=216	=216	=216	=216	=216
4d\]	4dd\]	.	4GG'/	.	4d 4G'/	.	16ddd\LL	.
.	.	.	.	.	.	.	16ddd\	.
.	.	.	.	.	.	.	16dd\	.
.	.	.	.	.	.	.	16dd\	.
(8cn\L	(8ccn\L	.	4GG'/	.	4d 4G'/	.	16ddd\	.
.	.	.	.	.	.	.	16ddd\	.
8B-\	8b-\	.	.	.	.	.	16dd\	.
.	.	.	.	.	.	.	16dd\	.
8A\	8a\	.	4GG'/	.	4d 4G'/	.	16ddd\	.
.	.	.	.	.	.	.	16ddd\	.
8G\J	8g\J	.	.	.	.	.	16dd\	.
.	.	.	.	.	.	.	16dd\JJ	.
=217	=217	=217	=217	=217	=217	=217	=217	=217
4f\)	4ff\)	.	4GG'/	.	4d 4G'/	.	16ddd\LL	.
.	.	.	.	.	.	.	16ddd\	.
.	.	.	.	.	.	.	16dd\	.
.	.	.	.	.	.	.	16dd\	.
(8e-\L	(8ee-\L	<	(8GG/L	<	(8G/L	<	16ddd\	.
.	.	.	.	.	.	.	16ddd\	.
8B-\J	8b-\J	.	8AA/	.	8A/	.	16dd\	.
.	.	.	.	.	.	.	16dd\	.
[4d\	[4dd\	.	8BB-/	.	8B-/	.	16ddd\	.
.	.	.	.	.	.	.	16ddd\	.
.	.	.	8C/J	.	8c/J	.	16dd\	.
.	.	.	.	.	.	.	16dd\JJ	.
=218	=218	=218	=218	=218	=218	=218	=218	=218
4d\])	4dd\])	[	4D\)	[	4d\)	[	16ddd\LL	.
.	.	.	.	.	.	.	16ddd\	.
.	.	.	.	.	.	.	16dd\	.
.	.	.	.	.	.	.	16dd\	.
(8c\L	(8cc\L	.	(8E-\L	.	(8e-\L	.	16ddd\	.
.	.	.	.	.	.	.	16ddd\	.
8B-\	8b-\	.	8D\	>	8d\	>	16dd\	.
.	.	.	.	.	.	.	16dd\	.
8A\	8a\	>	8C\	.	8c\	.	16ddd\	.
.	.	.	.	.	.	.	16ddd\	.
8G\J	8g\J	.	8D\J	.	8d\J	.	16dd\	.
.	.	.	.	.	.	.	16dd\JJ	.
=219	=219	=219	=219	=219	=219	=219	=219	=219
8f\L	8ff\L	.	8BB-/L	.	8B-/L	.	16ddd\LL	.
.	.	.	.	.	.	.	16ddd\	.
8e-\	8ee-\	.	8C/J	.	8c/J	.	16dd\	.
.	.	.	.	.	.	.	16dd\JJ	.
*	*	*	*	*	*	*	*Xtremolo	*
8B-\J)	8b-\)	]	8D\)	]	8d\)	]	8ddd\	.
8r	(8dd\	.	8r	.	8r	.	8r	.
4r	8b-\	.	4r	.	4r	.	4r	.
.	8g\J	.	.	.	.	.	.	.
=220	=220	=220	=220	=220	=220	=220	=220	=220
*^	*^	*	*	*	*	*	*	*
*ped	*	*	*	*	*	*	*	*	*	*
8ryy	16ryy	8e-/)	16ryy	.	4r	.	4r	.	4r	.
.	[8.F#X\	.	(16F#X</LL	<	.	.	.	.	.	.
[<8A-X\	.	8r	16A-X</	.	.	.	.	.	.	.
.	.	.	16B-</JJ	.	.	.	.	.	.	.
!	!	!LO:TX:t=P:problem:mixed beam	!	!	!	!	!	!	!	!
!	!	!LO:N:vis=2	!	!	!	!	!	!	!	!
2c 2A-] 2F#\]	2ryy	16c</LL	4ryy	.	[2AA-X^>/	sf	[2c^\	sf	[2f#X^>/	sf
.	.	16e-/	.	.	.	.	.	.	.	.
.	.	16b-/	.	.	.	.	.	.	.	.
.	.	16ee-/JJ	.	.	.	.	.	.	.	.
.	.	[4bb- [4b-\)	4ryy	[[	.	.	.	.	.	.
*v	*v	*	*	*	*	*	*	*	*	*
=221	=221	=221	=221	=221	=221	=221	=221	=221	=221
4ryy	16bb-]LL 16b-\]	16ryy	.	4AA-/]	.	4c\]	.	4f#/]	.
.	(16aan\	8aan/	p	.	.	.	.	.	.
.	16ff#X\	.	.	.	.	.	.	.	.
.	16ee-\JJ	16ryy	.	.	.	.	.	.	.
!LO:TX:t=P:problem:mixed beam	!	!	!	!LO:TX:a:t=pizz.	!	!LO:TX:a:t=pizz.	!	!LO:TX:a:t=pizz.	!
16an>\LL	8an/	2ryy	.	4DD/	.	4c\	.	4f#X/	.
16f#X/	.	.	.	.	.	.	.	.	.
16e-/	8ryy	.	.	.	.	.	.	.	.
16c/JJ	.	.	.	.	.	.	.	.	.
8B-\	8gg 8dd 8g\)	.	.	4GG/	.	4B-/	.	4g/	.
8r	8r	.	.	.	.	.	.	.	.
*	*v	*v	*	*	*	*	*	*	*
!!LO:LB:g=original
=222	=222	=222	=222	=222	=222	=222	=222	=222
*^	*	*	*	*	*	*	*	*
!	!	!	!	!LO:TX:a:t=arco	!	!LO:TX:a:t=arco	!	!LO:TX:a:t=arco	!
8ryy	16r	16ryy	.	[2.AA-X^>/	.	[2.c^\	.	[2.f#X^>/	.
.	[8.F#X/	(16F#X<\LL	<	.	.	.	.	.	.
[8A-X/	.	16A-X<\	.	.	.	.	.	.	.
.	.	16B-<\JJ	.	.	.	.	.	.	.
!	!	!LO:N:vis=2	!	!	!	!	!	!	!
!	!	!LO:TX:t=P:problem:mixed beam	!	!	!	!	!	!	!
[>2c 2A-_ 2F#\_	2ryy	16c</LL	.	.	.	.	.	.	.
.	.	16e-\	.	.	.	.	.	.	.
.	.	16b-\	.	.	.	.	.	.	.
.	.	16ee-\JJ	.	.	.	.	.	.	.
.	.	[4bb- [4b-\)	[	.	.	.	.	.	.
*v	*v	*	*	*	*	*	*	*	*
=223	=223	=223	=223	=223	=223	=223	=223	=223
*	*^	*	*	*	*	*	*	*
8c] 8A-] 8F#\]	16bb-]LL 16b-\]	16ryy	.	4AA-/]	.	4c\]	.	4f#/]	.
.	(16aan\	8.aan/	p	.	.	.	.	.	.
8r	16ff#X\	.	.	.	.	.	.	.	.
.	16ee-\JJ	.	.	.	.	.	.	.	.
!	!LO:TX:t=P:problem:mixed beam	!	!	!LO:TX:a:t=pizz.	!	!LO:TX:a:t=pizz.	!	!LO:TX:a:t=pizz.	!
4ryy	16an\LL	2ryy	.	4DD/	.	4c\	.	4f#X/	.
.	16f#X</	.	.	.	.	.	.	.	.
.	16e-</	.	.	.	.	.	.	.	.
.	16c</JJ	.	.	.	.	.	.	.	.
8B-\	8gg 8dd 8g\)	.	.	4GG/	.	4B-/	.	4g/	.
8r	8r	.	.	.	.	.	.	.	.
*clefG2	*	*	*	*	*	*	*	*	*
=224	=224	=224	=224	=224	=224	=224	=224	=224	=224
*^	*	*	*	*	*	*	*	*	*
!	!	!	!	!	!LO:TX:a:t=arco	!	!LO:TX:a:t=arco	!	!LO:TX:a:t=arco	!
8ryy	16r	4r	16ryy	.	[2.D-X^\	.	[2.Bn^>/	.	[2.fn^>/	.
.	[8.Bn\	.	(16Bn</LL	<	.	.	.	.	.	.
[<8d-X\	.	.	16d-X</	.	.	.	.	.	.	.
.	.	.	16e-</JJ	.	.	.	.	.	.	.
!	!	!LO:N:vis=2	!	!	!	!	!	!	!	!
!	!	!LO:TX:t=P:problem:mixed beam	!	!	!	!	!	!	!	!
[>2f 2d-_> 2B\_	2ryy	16f</LL	2ryy	.	.	.	.	.	.	.
.	.	16a-X\	.	.	.	.	.	.	.	.
.	.	16ee-\	.	.	.	.	.	.	.	.
.	.	16aa-X\JJ	.	.	.	.	.	.	.	.
.	.	[4eee- [4ee-\)	.	[	.	.	.	.	.	.
*v	*v	*	*	*	*	*	*	*	*	*
=225	=225	=225	=225	=225	=225	=225	=225	=225	=225
8f] 8d-] 8B/]	16eee-]LL 16ee-\]	16ryy	.	4D-\]	.	4B/]	.	4f/]	.
.	(16dddn\	8ddd/	p	.	.	.	.	.	.
8ryy	16bbn\	.	.	.	.	.	.	.	.
.	16aa-X\JJ	16ryy	.	.	.	.	.	.	.
!LO:TX:t=P:problem:mixed beam	!	!	!	!LO:TX:a:t=pizz.	!	!LO:TX:a:t=pizz.	!	!LO:TX:a:t=pizz.	!
16dd>\LL	8dd/	2ryy	.	4GG/	.	4Bn/	.	4f/	.
16bn/	.	.	.	.	.	.	.	.	.
16a-X/	8ryy	.	.	.	.	.	.	.	.
16f/JJ	.	.	.	.	.	.	.	.	.
8e-/	8ccc 8gg 8cc\)	.	.	4CC/	.	4c\	.	4e-/	.
8r	8r	.	.	.	.	.	.	.	.
*	*v	*v	*	*	*	*	*	*	*
!!LO:PB:g=original
=226	=226	=226	=226	=226	=226	=226	=226	=226
4ryy	16ryy	.	4C/	.	4e-\	.	4f#X/	.
.	(16bb-X\LL	.	.	.	.	.	.	.
!	!LO:TX:b:i:t=legg.	!	!	!	!	!	!	!
.	16ff#X\	.	.	.	.	.	.	.
.	16ee-\JJ	.	.	.	.	.	.	.
!LO:TX:t=P:problem:mixed beam	!	!	!	!	!	!	!	!
16b->\LL	8b-/	.	4r	.	4r	.	4r	.
16f#X/	.	.	.	.	.	.	.	.
16e-/	8ryy	.	.	.	.	.	.	.
16d-X/JJ	.	.	.	.	.	.	.	.
8c/	8aa 8ee- 8a\)	.	4FF#X/	.	4e-\	.	4a/	.
8r	8r	.	.	.	.	.	.	.
=227	=227	=227	=227	=227	=227	=227	=227	=227
*	*^	*	*	*	*	*	*	*
2ryy	8ddd 8gg 8dd'\	16ryy	.	4BB-/	.	4d\	.	4dd\	.
.	.	(16B-</LL	.	.	.	.	.	.	.
.	8r	16d</	.	.	.	.	.	.	.
.	.	16f#X</JJ	.	.	.	.	.	.	.
!	!LO:TX:t=P:problem:mixed beam	!	!	!	!	!	!	!	!
.	16b-</LL	4ryy	.	4GG/	.	4d\	.	4b-\	.
.	16gg\	.	.	.	.	.	.	.	.
.	16dd\	.	.	.	.	.	.	.	.
.	16g\JJ	.	.	.	.	.	.	.	.
4e- 4c'/	4ee-/	8bb-L 8b-\)	.	4C/	.	4e-\	.	4g/	.
.	.	8aaJ 8a'>\	.	.	.	.	.	.	.
=228	=228	=228	=228	=228	=228	=228	=228	=228	=228
2ryy	8ddd 8dd'\	16ryy	.	4BB-/	.	4d\	.	4dd\	.
.	.	(16B-</LL	.	.	.	.	.	.	.
.	8r	16d</	.	.	.	.	.	.	.
.	.	16f#X</JJ	.	.	.	.	.	.	.
!	!LO:TX:t=P:problem:mixed beam	!	!	!	!	!	!	!	!
.	16b-</LL	4ryy	.	4r	.	4r	.	4r	.
.	16gg\	.	.	.	.	.	.	.	.
.	16dd\	.	.	.	.	.	.	.	.
.	16g\JJ	.	.	.	.	.	.	.	.
*clefF4	*	*	*	*	*	*	*	*	*
4B- 4C#X'\	4b-/	8ffnL 8fn\)	.	4C#X/	.	4e-\	.	4g/	.
.	.	8ee-J 8e-'>\	.	.	.	.	.	.	.
=229	=229	=229	=229	=229	=229	=229	=229	=229	=229
16r	8dd 8b- 8d'>/	16ryy	.	4D\	.	4d\	.	4b-\	.
8D\	.	(16D</LL	.	.	.	.	.	.	.
.	8r	16G</	.	.	.	.	.	.	.
16ryy	.	16B-</JJ	.	.	.	.	.	.	.
!	!LO:TX:t=P:problem:mixed beam	!	!	!	!	!	!	!	!
2ryy	16c#X</LL	2ryy	.	4r	.	4r	.	4r	.
.	16dd\	.	.	.	.	.	.	.	.
.	16b-\	.	.	.	.	.	.	.	.
.	16g\JJ	.	.	.	.	.	.	.	.
.	16d/LL	.	.	4r	.	4r	.	4r	.
.	16d/	.	.	.	.	.	.	.	.
.	16B-</	.	.	.	.	.	.	.	.
.	16G</JJ)	.	.	.	.	.	.	.	.
!!LO:LB:g=original
=230	=230	=230	=230	=230	=230	=230	=230	=230	=230
2ryy	8D</	(16D<\LL	.	4r	.	4r	.	4r	.
.	.	16DD<\	.	.	.	.	.	.	.
.	8ryy	16GG<\	.	.	.	.	.	.	.
.	.	16BB-<\JJ	.	.	.	.	.	.	.
!	!LO:TX:t=P:problem:mixed beam	!	!	!	!	!	!	!	!
.	16D</LL	8D<\	.	4r	.	4r	.	4r	.
.	16G\	.	>	.	.	.	.	.	.
.	16B-\	8ryy	.	.	.	.	.	.	.
.	16e-\JJ)	.	.	.	.	.	.	.	.
!	!LO:S:s=2:note:problem:note-level slur	!	!	!	!	!	!	!	!
(4D (4DD/	(4f#X (4c (4F#X/	4ryy	]]	4D\	.	4c\	.	4f#X/	.
*	*v	*v	*	*	*	*	*	*	*
=231	=231	=231	=231	=231	=231	=231	=231	=231
4GG/))	4g) 4B-) 4G/)	.	4GG/	.	4B-/	.	4g/	.
4r	(>8fn/L	.	4r	.	8r	.	4r	.
!	!	!	!	!	!LO:TX:a:t=arco	!	!	!
.	8e-/J	.	.	.	(16D/LL	<	.	.
.	.	.	.	.	16E-/JJ	.	.	.
([>4GG/	([4g 4B-/	.	4r	.	16D/LL	.	4r	.
.	.	.	.	.	16F/	[	.	.
.	.	.	.	.	16E-/	.	.	.
.	.	.	.	.	16D/JJ	.	.	.
=232	=232	=232	=232	=232	=232	=232	=232	=232
!	!	!	!LO:TX:a:t=arco	!	!	!	!LO:TX:a:t=arco	!
4GG] 4GGG/)	4g] 4A/))	.	[2.GG/	>	16E-/LL	>	([2.g 2.A/	.
.	.	.	.	.	16F/	.	.	>
.	.	.	.	.	16E-/	.	.	.
.	.	.	.	.	16D/JJ	.	.	.
4r	(>8f/L	.	.	.	8C/)	]	.	.
.	8e-/J	.	.	.	8r	.	.	.
([>4GG/	([4g 4A/	.	.	]]	4r	.	.	]]
=233	=233	=233	=233	=233	=233	=233	=233	=233
4GG] 4GGG/)	4g] 4B-/))	.	2.GG/_	.	8r	.	(2.g_ 2.B-/)	.
.	.	.	.	.	(16D/LL	.	.	.
.	.	.	.	.	16E-/JJ	<	.	.
4r	(>8f/L	.	.	.	16D/LL	.	.	.
.	.	.	.	.	16E-/	.	.	.
.	8e-/J	.	.	.	16D/	.	.	.
.	.	.	.	.	16E-/JJ	.	.	.
([>4GG/	([4g 4B-/	.	.	.	16D/LL	.	.	.
.	.	.	.	.	16F/	.	.	.
.	.	.	.	.	16E-/	.	.	.
.	.	.	.	.	16D/JJ)	[	.	.
=234	=234	=234	=234	=234	=234	=234	=234	=234
4GG] 4GGG/)	4g] 4A/))	.	2.GG/_	.	(16E-/LL	>	(2.g_ 2.A^>/)	.
.	.	.	.	.	16F/	.	.	.
.	.	.	.	.	16E-/	.	.	.
.	.	.	.	.	16D/JJ	]	.	.
4r	(>8f/L	.	.	.	8C/)	.	.	.
.	8e-/J	.	.	.	8r	.	.	.
([>4GG/	([4g 4A/	.	.	.	4r	.	.	.
=235	=235	=235	=235	=235	=235	=235	=235	=235
8GG] 8GGG/)	8g]L 8B-/))	.	2.GG/_	.	4r	.	2.g_ [2.B-/)	.
8r	(8e-/	.	.	.	.	.	.	.
8r	8d/J)	.	.	.	8r	.	.	.
8G'\L	8g'/L	.	.	.	(16D/LL	.	.	.
.	.	.	.	.	16E-/JJ	.	.	.
8D'\	8d'/	.	.	.	16D/LL	.	.	.
.	.	.	.	.	16E-/	.	.	.
8BB-'\J	8B-'/J	.	.	.	16D/	.	.	.
.	.	.	.	.	16E-/JJ	.	.	.
!!LO:LB:g=original
=236	=236	=236	=236	=236	=236	=236	=236	=236
*	*	*	*	*	*tremolo	*	*	*
4GG'/	4G'/	.	4GG/_	.	16D/LL	.	4g_ 4B-/_	.
.	.	.	.	.	16E-/	.	.	.
.	.	.	.	.	16D/	.	.	.
.	.	.	.	.	16E-/	.	.	.
4r	4r	.	8GG/]	.	16D/	.	8g] 8B-/]	.
.	.	.	.	.	16E-/	.	.	.
.	.	.	8r	.	16D/	.	8r	.
.	.	.	.	.	16E-/	.	.	.
4r	4r	.	4r	.	16D/	.	4r	.
.	.	.	.	.	16E-/	.	.	.
.	.	.	.	.	16D/	.	.	.
.	.	.	.	.	16E-/JJ	.	.	.
*	*	*	*	*	*Xtremolo	*	*	*
=237||	=237||	=237||	=237||	=237||	=237||	=237||	=237||	=237||
!!!key: G
*k[f#]	*k[f#]	*	*k[f#]	*	*k[f#]	*	*k[f#]	*
4GG 4GGG/	4r	.	8GG'/L	.	8D/L)	.	2.r	.
.	.	.	8D'/	.	16D/L	pp	.	.
.	.	.	.	.	16E/JJ	.	.	.
*clefG2	*	*	*	*	*	*	*	*
(4d 4G/	(4bb 4dd\	pp	8GG'/	.	16D/LL	.	.	.
.	.	.	.	.	16E/	.	.	.
.	.	.	8D'/	.	16D/	.	.	.
.	.	.	.	.	16E/JJ	.	.	.
4g 4B/	4gg 4b\	.	8GG'/	.	16D/LL	.	.	.
.	.	.	.	.	16E/	.	.	.
.	.	.	8D'/J	.	16F#/	.	.	.
.	.	.	.	.	16G/JJ	.	.	.
=238	=238	=238	=238	=238	=238	=238	=238	=238
4e 4c/)	4ee 4cc\)	.	8GG'/L	.	16A/LL	.	2.r	.
.	.	.	.	.	16B/	.	.	.
.	.	.	8D'/	.	16A/	.	.	.
.	.	.	.	.	16B/JJ	.	.	.
4e 4A'/	4aa 4cc'\	.	8GG'/	.	16A/LL	.	.	.
.	.	.	.	.	16B/	.	.	.
.	.	.	8D'/	.	16A/	.	.	.
.	.	.	.	.	16B/JJ	.	.	.
4r	4r	.	8GG'/	.	16A/LL	.	.	.
.	.	.	.	.	16B/	.	.	.
.	.	.	8D'/J	.	16c/	.	.	.
.	.	.	.	.	16d/JJ	.	.	.
*clefF4	*	*	*	*	*	*	*	*
=239	=239	=239	=239	=239	=239	=239	=239	=239
4GG 4GGG/	4r	.	8GG'/L	.	8c/L	.	8r	.
!	!	!	!	!	!	!	!LO:TX:a:i:t=legg.	!
.	.	.	8D'/	.	16c/L	.	16e/LL	pp
.	.	.	.	.	16A/JJ	.	16f#/JJ	.
*clefG2	*	*	*	*	*	*	*	*
(4e 4A/	(4aa 4cc\	.	8GG'/	.	16c/LL	.	16e/LL	.
.	.	.	.	.	16A/	.	16f#/	.
.	.	.	8D'/	.	16c/	.	16e/	.
.	.	.	.	.	16A/JJ	.	16f#/JJ	.
4a 4c/	4ee 4cc\	.	8GG'/	.	16c/LL	.	16e/LL	.
.	.	.	.	.	16A/	.	16f#/	.
.	.	.	8D'/J	.	16B/	.	16g/	.
.	.	.	.	.	16c/JJ	.	16a/JJ	.
=240	=240	=240	=240	=240	=240	=240	=240	=240
4d 4B/)	4dd 4b\)	.	8GG'/L	.	8d\L	.	16b\LL	.
.	.	.	.	.	.	.	16cc\	.
.	.	.	8D'/	.	16g\L	.	16b\	.
.	.	.	.	.	16a\JJ	.	16cc\JJ	.
4d 4G'/	4gg 4b'\	.	8GG'/	.	16b\LL	.	16dd\LL	.
.	.	.	.	.	16g\	.	16ee\	.
.	.	.	8D'/	.	16b\	.	16dd\	.
.	.	.	.	.	16g\JJ	.	16ee\JJ	.
4r	4r	.	8GG'/	.	16b\LL	.	16dd\LL	.
.	.	.	.	.	16g\	.	16ee\	.
.	.	.	8D'/J	.	16b\	.	16dd\	.
.	.	.	.	.	16g\JJ	.	16ee\JJ	.
*clefF4	*	*	*	*	*	*	*	*
!!LO:PB:g=original
=241	=241	=241	=241	=241	=241	=241	=241	=241
*	*^	*	*	*	*	*	*	*
8r	8r	8r	.	[2.GG/	.	8b\	.	8dd\	.
!	!	!	!LO:HP:t=poco cresc.	!	!	!	!	!	!
(16GGG/LL	[8ddd/	16ffn\LL	<	.	<	8r	.	8r	.
16GG/JJ	.	16ee\JJ	.	.	.	.	.	.	.
*tremolo	*	*tremolo	*	*	*	*	*	*	*
16GGG/LL	2ddd/_	16ff\LL	.	.	.	4r	.	4r	.
16GG/	.	16ee\	.	.	.	.	.	.	.
16GGG/	.	16ff\	.	.	.	.	.	.	.
16GG/	.	16ee\	.	.	.	.	.	.	.
!	!	!	!	!	!	!	!	!	!LO:HP:t=poco cresc.
16GGG/	.	16ff\	.	.	[[	4r	.	(4gg\	<
16GG/	.	16ee\	.	.	.	.	.	.	.
16GGG/	.	16ff\	.	.	.	.	.	.	.
16GG/JJ	.	16ee\JJ	.	.	.	.	.	.	.
*	*	*Xtremolo	*	*	*	*	*	*	*
=242	=242	=242	=242	=242	=242	=242	=242	=242	=242
16GGG/LL	4ddd/]	16ffn\LL	.	2.GG/_	.	4r	.	[2.ggg\)	.
16GG/	.	16ee\	.	.	.	.	.	.	.
16GGG/	.	16ff\	.	.	.	.	.	.	.
16GG/	.	16ee\JJ	.	.	.	.	.	.	.
*	*	*tremolo	*	*	*	*	*	*	*
16GGG/	(4aa/	16ee-X\LL	.	.	.	(4cc\	<	.	.
16GG/	.	16dd\	.	.	.	.	.	.	.
16GGG/	.	16ee-\	.	.	.	.	.	.	.
16GG/	.	16dd\	.	.	.	.	.	.	.
16GGG/	4bb/	16ee-\	.	.	.	4b\	[[	.	.
16GG/	.	16dd\	.	.	.	.	.	.	.
16GGG/	.	16ee-\	.	.	.	.	.	.	.
16GG/JJ	.	16dd\JJ	.	.	.	.	.	.	.
*	*	*Xtremolo	*	*	*	*	*	*	*
=243	=243	=243	=243	=243	=243	=243	=243	=243	=243
16GGG/LL	4gg/)	16cc#X\LL	.	2.GG/_	.	4b-X\)	.	2ggg\]	.
16GG/	.	16ccn\	.	.	.	.	.	.	.
16GGG/	.	16cc#X\	.	.	.	.	.	.	.
16GG/	.	16ccn\JJ	.	.	.	.	.	.	.
*	*	*tremolo	*	*	*	*	*	*	*
!	!	!	!	!	!	!	!LO:HP:t=poco cresc.	!	!
16GGG/	[2aa/	16cc#X\LL	.	.	.	(4a\	<	.	.
16GG/	.	16b\	.	.	.	.	.	.	.
16GGG/	.	16cc#\	.	.	.	.	.	.	.
16GG/	.	16b\	.	.	.	.	.	.	.
16GGG/	.	16cc#\	.	.	.	4g\	.	(4dd\	.
16GG/	.	16b\	.	.	.	.	.	.	.
16GGG/	.	16cc#\	.	.	.	.	.	.	.
16GG/JJ)	.	16b\JJ	.	.	.	.	.	.	.
=244	=244	=244	=244	=244	=244	=244	=244	=244	=244
(16GGG/LL	4aa/]	16ccn\LL	.	2.GG/_	.	4f#\	.	[2.ddd\)	.
16GG/	.	16b\	.	.	.	.	.	.	.
16GGG/	.	16cc\	.	.	.	.	.	.	.
16GG/	.	16b\	.	.	.	.	.	.	.
16GGG/	(4ee/	16cc\	.	.	.	4a\	.	.	.
16GG/	.	16b\	.	.	.	.	.	.	.
16GGG/	.	16cc\	.	.	.	.	.	.	.
16GG/	.	16b\JJ	.	.	.	.	.	.	.
*	*	*Xtremolo	*	*	*	*	*	*	*
16GGG/	4ff#/	16cc\LL	.	.	.	4e-X\	.	.	.
16GG/	.	16a\	.	.	.	.	.	.	.
16GGG/	.	16cc\	.	.	.	.	.	.	.
16GG/JJ	.	16a\JJ	.	.	.	.	.	.	.
=245	=245	=245	=245	=245	=245	=245	=245	=245	=245
16GGG/LL	4gg 4b/)	4ryy	.	2.GG/_	.	4d\)	.	2ddd\]	.
16GG/	.	.	.	.	.	.	.	.	.
16GGG/	.	.	.	.	.	.	.	.	.
16GG/	.	.	.	.	.	.	.	.	.
*	*	*tremolo	*	*	*	*	*	*	*
16GGG/	[2dd/	16fn\LL	.	.	.	(4A/	.	.	.
16GG/	.	16e\	.	.	.	.	.	.	.
16GGG/	.	16f\	.	.	.	.	.	.	.
16GG/	.	16e\	.	.	.	.	.	.	.
16GGG/	.	16f\	.	.	.	4B/	.	(4g/	.
16GG/	.	16e\	.	.	.	.	.	.	.
16GGG/	.	16f\	.	.	.	.	.	.	.
16GG/JJ	.	16e\JJ	.	.	.	.	.	.	.
*	*	*Xtremolo	*	*	*	*	*	*	*
=246	=246	=246	=246	=246	=246	=246	=246	=246	=246
16GGG/LL	4dd/]	16fn\LL	.	4GG/]	.	4G/)	.	[2.gg\)	.
16GG/	.	16e\	.	.	.	.	.	.	.
16GGG/	.	16f\	.	.	.	.	.	.	.
16GG/	.	16e\JJ	.	.	.	.	.	.	.
*	*	*tremolo	*	*	*	*	*	*	*
16GGG/	(4a/	16e-X\LL	.	(4c\	>	(4f#\	>	.	>
16GG/	.	16d\	.	.	.	.	.	.	.
16GGG/	.	16e-\	.	.	.	.	.	.	.
16GG/	.	16d\	.	.	.	.	.	.	.
16GGG/	4b/	16e-\	.	4B\	.	4g\	.	.	.
16GG/	.	16d\	.	.	.	.	.	.	.
16GGG/	.	16e-\	.	.	.	.	.	.	.
16GG/JJ	.	16d\JJ	.	.	.	.	.	.	.
*	*	*Xtremolo	*	*	*	*	*	*	*
!!LO:LB:g=original
=247	=247	=247	=247	=247	=247	=247	=247	=247	=247
16GGG/LL	4g/)	16c#X\LL	.	4B-X\	.	4e\	.	2gg\]	.
16GG/	.	16cn\	.	.	.	.	.	.	.
16GGG/	.	16c#X\	.	.	.	.	.	.	.
16GG/	.	16cn\JJ	.	.	.	.	.	.	.
*	*	*tremolo	*	*	*	*	*	*	*
16GGG/	[2a/	16c#X\LL	.	4A\	.	4f#\	.	.	.
16GG/	.	16B\	.	.	.	.	.	.	.
16GGG/	.	16c#\	.	.	.	.	.	.	.
16GG/	.	16B\	.	.	.	.	.	.	.
!	!	!	!	!	!LO:HP:t=dim.	!	!LO:HP:t=dim.	!	!LO:HP:t=dim.
16GGG/	.	16c#\	.	4G\	] >	4e\	] >	(4a/	] >
16GG/	.	16B\	.	.	.	.	.	.	.
16GGG/	.	16c#\	.	.	.	.	.	.	.
16GG/JJ	.	16B\JJ	.	.	.	.	.	.	.
=248	=248	=248	=248	=248	=248	=248	=248	=248	=248
16GGG/LL	4a/]	16cn\LL	.	4F#\	.	4d\)	.	[2.dd\)	.
16GG/	.	16B\	.	.	.	.	.	.	.
16GGG/	.	16c\	.	.	.	.	.	.	.
16GG/	.	16B\	.	.	.	.	.	.	.
!	!	!	!LO:HP:t=dim.	!	!	!	!	!	!
16GGG/	(4e/	16c\	>	4A\)	.	4r	.	.	.
16GG/	.	16B\	.	.	.	.	.	.	.
16GGG/	.	16c\	.	.	.	.	.	.	.
16GG/	.	16B\JJ	.	.	.	.	.	.	.
*	*	*Xtremolo	*	*	*	*	*	*	*
16GGG/	4f#/	16c\LL	.	(4E-X\	.	(4F#/	.	.	.
16GG/	.	16A\	.	.	.	.	.	.	.
16GGG/	.	16c\	.	.	.	.	.	.	.
*Xtremolo	*	*	*	*	*	*	*	*	*
16GG/JJ	.	16A\JJ	.	.	.	.	.	.	.
=249	=249	=249	=249	=249	=249	=249	=249	=249	=249
16GGG/LL	4g 4B/)	4ryy	.	4D\)	.	4B/)	.	2.dd\_	.
16GG/	.	.	.	.	.	.	.	.	.
16GGG/	.	.	.	.	.	.	.	.	.
16GG/JJ	.	.	.	.	.	.	.	.	.
8GGG/L)	8r	8ryy	.	8r	.	8r	.	.	.
(16GG/L	(8e/L	16B\LL	.	(8G\L	.	(8e\L	.	.	.
16D/JJ	.	16G\JJ	.	.	.	.	.	.	.
16GG/LL	8d/	16B\LL	.	8B\	.	8d\	.	.	.
16D/	.	16G\	.	.	.	.	.	.	.
16GG/	8e/J	16B\	.	8G\J	.	8e\J	.	.	.
16D/JJ	.	16G\JJ	.	.	.	.	.	.	.
=250	=250	=250	=250	=250	=250	=250	=250	=250	=250
16GG/LL	8d 8B/)	4ryy	.	4B\)	.	4d\)	.	4dd\]	.
16D/	.	.	.	.	.	.	.	.	.
16GG/	8r	.	.	.	.	.	.	.	.
16D/JJ	.	.	.	.	.	.	.	.	.
8GG/L)	8r	8ryy	.	4r	.	4r	.	4r	.
*	*clefF4	*	*	*	*	*	*	*	*
(16GGG/L	(8B/L	16F#\LL	.	.	.	.	.	.	.
16GG/JJ	.	16E-X\JJ	.	.	.	.	.	.	.
!	!	!	!	!LO:TX:a:t=pizz.	!	!LO:TX:a:t=pizz.	!	!LO:TX:a:t=pizz.	!
16GGG/LL	8A/	16F#\LL	.	4G\	.	4c\	.	4f#/	.
16GG/	.	16E-\	.	.	.	.	.	.	.
16GGG/	8B/J	16F#\	.	.	.	.	.	.	.
16GG/JJ	.	16E-\JJ	.	.	.	.	.	.	.
*	*v	*v	*	*	*	*	*	*	*
!!LO:LB:g=original
=251	=251	=251	=251	=251	=251	=251	=251	=251
8GGG/)	8B 8G\)	.	4GG/	.	4B/	.	4g/	.
8r	8r	.	.	.	.	.	.	.
*	*clefG2	*	*	*	*	*	*	*
!	!LO:TX:t=P:problem:mixed beam	!	!	!	!	!	!	!
8c#X\	16c#X</LL	.	4r	.	4r	.	4r	.
!	!LO:TX:a:i:t=leggierissimo	!	!	!	!	!	!	!
.	16a 16d\	.	.	.	.	.	.	.
8ryy	16g\	.	.	.	.	.	.	.
.	16B\JJ	.	.	.	.	.	.	.
*clefG2	*	*	*	*	*	*	*	*
!	!LO:TX:t=P:problem:mixed beam	!	!	!	!	!	!	!
8f#X\	16f#X</LL	.	4D\	.	4B/	.	4g/	.
.	16ccn 16g\	.	.	.	.	.	.	.
8ryy	16b\	.	.	.	.	.	.	.
.	16d\JJ	.	.	.	.	.	.	.
=252	=252	=252	=252	=252	=252	=252	=252	=252
!	!LO:TX:t=P:problem:mixed beam	!	!LO:TX:a:i:t=leggierissimo	!	!LO:TX:a:i:t=leggierissimo	!	!LO:TX:a:i:t=leggierissimo	!
8a#X\	16a#X</LL	.	4G\	.	4d\	.	4b\	.
.	16ee 16b\	.	.	.	.	.	.	.
8ryy	16dd\	.	.	.	.	.	.	.
.	16g\JJ	.	.	.	.	.	.	.
!	!LO:TX:t=P:problem:mixed beam	!	!	!	!	!	!	!
8cc#X\	16cc#X</LL	.	4B\	.	4g\	.	4dd\	.
.	16aan 16dd\	.	.	.	.	.	.	.
8ryy	16gg\	.	.	.	.	.	.	.
.	16b\JJ	.	.	.	.	.	.	.
!	!LO:TX:t=P:problem:mixed beam	!	!	!	!	!	!	!
8ff#\	16ff#</LL	.	4d\	.	4b\	.	4gg\	.
.	16cccn 16gg\	.	.	.	.	.	.	.
8ryy	16bb\	.	.	.	.	.	.	.
.	16dd\JJ	.	.	.	.	.	.	.
=253	=253	=253	=253	=253	=253	=253	=253	=253
!	!LO:TX:t=P:problem:mixed beam	!	!	!	!	!	!	!
8aa#X\	16aa#X</LL	.	4g\	.	4dd\	.	4bb\	.
.	16eee 16bb\	.	.	.	.	.	.	.
8ryy	16ddd\	.	.	.	.	.	.	.
.	16gg\JJ	.	.	.	.	.	.	.
!	!LO:TX:t=P:problem:mixed beam	!	!	!	!	!	!	!
8ff#\	16ff#</LL	.	4r	.	4r	.	4r	.
.	16ccc 16gg\	.	.	.	.	.	.	.
8ryy	16bb\	.	.	.	.	.	.	.
.	16dd\JJ	.	.	.	.	.	.	.
!	!LO:TX:t=P:problem:mixed beam	!	!	!	!	!	!	!
8aa#\	16aa#</LL	.	4r	.	4r	.	4r	.
.	16eee 16bb\	.	.	.	.	.	.	.
8ryy	16ddd\	.	.	.	.	.	.	.
.	16gg\JJ	.	.	.	.	.	.	.
=254	=254	=254	=254	=254	=254	=254	=254	=254
4ggg\	4r	.	4r	.	4r	.	4r	.
4r	4r	.	4r	.	4r	.	4r	.
*clefF4	*	*	*	*	*	*	*	*
4D\	4d/	.	4D\	.	4d\	.	4d/	.
=255	=255	=255	=255	=255	=255	=255	=255	=255
4GG/	4G/	.	4GG/	.	4G/	.	4G/	.
4r	4r	.	4r	.	4r	.	4r	.
4r	4r	.	4r	.	4r	.	4r	.
==	==	==	==	==	==	==	==	==
*-	*-	*-	*-	*-	*-	*-	*-	*-
!!!system-decoration: <g1>{(s4,s5)}
!!!RDF**kern: > = above
!!!RDF**kern: < = below
!!!RDF**kern: N = linked
!!!ENC: Andrzej Kubiczek
!!!END: 2022-05-02
!!!AIN: 1 cello 1 piano 1 viola 1 violn
!!!ENC: Andrzej Kubiczek
!!!END: 2022-05-03
